;---BEGIN HEADER
; Generated by DropletSlicer
; Version: 3.4.4
; Date: Wednesday, May 29, 2024
; Time: 04:21:42 PM
G64 ;continuous path mode
G71 ;millimeters
G56 ;origin at center
OVR=100
OVRRAP=20
DO PRIO_ON_PATH_OFFSET=0.5*PRIO_PULSE_DISTANCE
RECOMMENDED_RECIPE="4008 Aluminum Wire"
CheckRecommendedRecipe
BUILDPROCESSORINTERFACEVERSION=1177
CheckBPVersion
OuterPerimeterFrequency=300
InnerPerimeterFrequency=400
ThinFeatureFrequency=300
UnsupportedStepoutFrequency=300
SupportedStepoutFrequency=300
FillFrequency=400
SupportWallFrequency=100
SupportPillarFrequency=100
;BUILDPROCESSORINTERFACEVERSION=1177
PART_MASS_CONSUMPTION=0
SUPPORT_MASS_CONSUMPTION=0
G0 X0 Y0 ; cartesianDistance=0.00000 (reset z)
MSG("Print Started")
;---END HEADER
;---BEGIN PRINT STATISTICS
;TOTAL WIRE FEED ESTIMATE:
;    Total Drops: 97,460.43
;      Total Mass: 14.13 g
;    Part Drops: 97,460.43
;      Part Mass: 14.13 g
;    Support Drops: 0.00
;      Support Mass: 0.00 g
;    Part Density: 100.0%
;---END PRINT STATISTICS
;XY Extents: [-24.845 -4.637] [24.845 4.637]
;NaiveEstimatedPrintTime=483.1230151233684
;SupportedStepoutFrequency=300
EstimatedPrintTime=453.9104919433594
;ZCount = 1
;ExtraChevronOffset = 10
NumberOfLayers=42
LayersCompleted=0
;Mass values below are in kilograms
TOTAL_MASS=0.014131762
PART_MASS=0.014131762
SUPPORT_MASS=0.000000000
CheckMass
DO PRIO_PULSE_DISTANCE=DROP_SCALE
DO PRIO_ON_PATH_OFFSET=0.5*PRIO_PULSE_DISTANCE
PARAM_SETUP
;ChunkSize=5
; 
;========================
; layer 0, Z = 0.2400
; 
; reset extrusion
STOPRE
PRESETON(E, 0)
DO PRIO_PULSE_DISTANCE=DROP_SCALE
DO PRIO_ON_PATH_OFFSET=0.5*PRIO_PULSE_DISTANCE
FEATURE_TYPE=0
;outer: (25.2604,-5.0521) (25.2604,5.0521) (-25.2604,5.0521) (-25.2604,-5.0521) (24.6604,-5.0521) holes: !
;overhangs:!
; 
; feature plane change
G0 X0 Y0 Z0.24 ; cartesianDistance=0.00000 (Plane Change)
; feature fill
PRIO_OFF
G0 X-20 Y-30.0000 ; #1 Left start

PRIO_OFF
G0 X-19.00 Y-30.0000 ; #2 Travel to end

PRIO_OFF
G0 X-18 Y-31 ; #3

G0 X-17 Y-30 ; #4 
G0 X-16 Y-31 ; #5
G0 X-15 Y-30 ; #6 Travel to end
PRIO_ON
G1 X-14 Y-31 E2 ; #7
G1 X-14 Y-33 E3 ; #8
PRIO_OFF
G0 X-13 Y-30 ; #9
PRIO_OFF
G0 X-12 Y-31 ; #10
PRIO_OFF
G0 X-11 Y-30 ; #11
PRIO_OFF
G0 X-10 Y-31 ; #12
PRIO_ON
G1 E4 ; Stationary extrude #13




M1
G0 Z15.08 
G53 G0 Z=$MA_POS_LIMIT_PLUS[Z]-1
PARAM_SETUP
M30 
;-------------------------------------------------------------------------------
; TOOLPATH SETTINGS
;-------------------------------------------------------------------------------
;   AlignmentControl : droplet.Lib.PrintProfileDroplet+AlignmentSettings
;   CompatibilityVersion : 23
;   LayerHeightMM : 0.24
;   Machine : BedSizeXMM : 300
;   Machine : BedSizeYMM : 300
;   Machine : BedSizeZMM : 290
;   Machine : Class : MetalDODPrinter
;   Machine : CompatibilityVersion : 23
;   Machine : EnableAutoBedLeveling : False
;   Machine : Firmware : RepRap
;   Machine : HasAutoBedLeveling : False
;   Machine : HasHeatedBed : True
;   Machine : LinearTravelOverrideP : 100
;   Machine : ManufacturerName : ADDiTEC
;   Machine : MaxBedTempC : 500
;   Machine : MaxExtruderTempC : 1000
;   Machine : MaxExtrudeSpeedMMM : 60000
;   Machine : MaxHeightMM : 290
;   Machine : MaxLayerHeightMM : 0.8
;   Machine : MaxRetractSpeedMMM : 1200
;   Machine : MaxTravelSpeedMMM : 60000
;   Machine : MaxZTravelSpeedMMM : 6000
;   Machine : MetricUnits : True
;   Machine : MinBedTempC : 0
;   Machine : MinExtruderTempC : 20
;   Machine : MinLayerHeightMM : 0.05
;   Machine : MinPointSpacingMM : 0
;   Machine : ModelIdentifier : Generic
;   Machine : Name : ElemX 3D Printer
;   Machine : NozzleDiamMM : 0.45
;   Machine : OriginX : Left
;   Machine : OriginY : Front
;   Machine : RapidTravelOverrideP : 20
;   Machine : SchemaVersion : 1
;   Machine : TargetMachine : VERSION_11
;   Machine : Version : 1
;   Machine : WorkOffset : 56
;   MachineProfile : BedSizeXMM : 300
;   MachineProfile : BedSizeYMM : 300
;   MachineProfile : BedSizeZMM : 290
;   MachineProfile : Class : MetalDODPrinter
;   MachineProfile : CompatibilityVersion : 23
;   MachineProfile : EnableAutoBedLeveling : False
;   MachineProfile : Firmware : RepRap
;   MachineProfile : HasAutoBedLeveling : False
;   MachineProfile : HasHeatedBed : True
;   MachineProfile : LinearTravelOverrideP : 100
;   MachineProfile : ManufacturerName : ADDiTEC
;   MachineProfile : MaxBedTempC : 500
;   MachineProfile : MaxExtruderTempC : 1000
;   MachineProfile : MaxExtrudeSpeedMMM : 60000
;   MachineProfile : MaxHeightMM : 290
;   MachineProfile : MaxLayerHeightMM : 0.8
;   MachineProfile : MaxRetractSpeedMMM : 1200
;   MachineProfile : MaxTravelSpeedMMM : 60000
;   MachineProfile : MaxZTravelSpeedMMM : 6000
;   MachineProfile : MetricUnits : True
;   MachineProfile : MinBedTempC : 0
;   MachineProfile : MinExtruderTempC : 20
;   MachineProfile : MinLayerHeightMM : 0.05
;   MachineProfile : MinPointSpacingMM : 0
;   MachineProfile : ModelIdentifier : Generic
;   MachineProfile : Name : ElemX 3D Printer
;   MachineProfile : NozzleDiamMM : 0.45
;   MachineProfile : OriginX : Left
;   MachineProfile : OriginY : Front
;   MachineProfile : RapidTravelOverrideP : 20
;   MachineProfile : SchemaVersion : 1
;   MachineProfile : TargetMachine : VERSION_11
;   MachineProfile : Version : 1
;   MachineProfile : WorkOffset : 56
;   Material : Color : Silver
;   Material : CompatibilityVersion : 23
;   Material : CostPerKG : 19.19
;   Material : Density : 2.66 - 2.68 g/cc
;   Material : DerivedFromProfile : 4008 Aluminum Wire
;   Material : ExtruderTempC : 700
;   Material : FilamentDiamMM : 1.75
;   Material : GramsPerCubicMM : 0.00125
;   Material : HeatedBedTempC : 100
;   Material : MassPer10000Drops : 1.45
;   Material : Material : 4008 Aluminum Wire
;   Material : MaterialName : 4008 Aluminum Wire
;   Material : MaxMassLimit : 910
;   Material : Name : 4008 Aluminum Wire
;   Material : ScalingCorrection : 1.010416
;   Material : SchemaVersion : 1
;   Material : Supplier : ADDiTEC
;   Material : Version : 1
;   Material : XYCompensation : -0.19
;   MaterialProfile : Color : Silver
;   MaterialProfile : CompatibilityVersion : 23
;   MaterialProfile : CostPerKG : 19.19
;   MaterialProfile : Density : 2.66 - 2.68 g/cc
;   MaterialProfile : DerivedFromProfile : 4008 Aluminum Wire
;   MaterialProfile : ExtruderTempC : 700
;   MaterialProfile : FilamentDiamMM : 1.75
;   MaterialProfile : GramsPerCubicMM : 0.00125
;   MaterialProfile : HeatedBedTempC : 100
;   MaterialProfile : MassPer10000Drops : 1.45
;   MaterialProfile : Material : 4008 Aluminum Wire
;   MaterialProfile : MaterialName : 4008 Aluminum Wire
;   MaterialProfile : MaxMassLimit : 910
;   MaterialProfile : Name : 4008 Aluminum Wire
;   MaterialProfile : ScalingCorrection : 1.010416
;   MaterialProfile : SchemaVersion : 1
;   MaterialProfile : Supplier : ADDiTEC
;   MaterialProfile : Version : 1
;   MaterialProfile : XYCompensation : -0.19
;   Part : AddInfillBorderShell : True
;   Part : AlternatePerimeterWinding : True
;   Part : BridgeExtrudeSpeedX : 0.5
;   Part : BridgeFillNozzleDiamStepX : 0.85
;   Part : BridgePulseDistance : 0.15
;   Part : BridgeVolumeScale : 1
;   Part : CarefulExtrudeSpeed : 24000
;   Part : ChunkOverrideUpSkinArea : 25
;   Part : ChunkOverrideUpSkinInset : 0.9
;   Part : ClipSelfOverlaps : False
;   Part : ClipSelfOverlapsOuter : True
;   Part : CompatibilityVersion : 23
;   Part : CompleteSkeletonSpine : True
;   Part : DefaultChunkSize : 5
;   Part : DefaultPulseDistance : 0.5
;   Part : DerivedFromProfile : 4008 Standard
;   Part : DoubleSwathCornerPulseDistanceOffset : 1.5
;   Part : DoubleSwathCornerPulseDistanceSlope : 1.1
;   Part : EnableBridging : False
;   Part : EnableSupportReleaseOpt : True
;   Part : EnableSupportShell : True
;   Part : ExpandTinyPolygons : False
;   Part : ExtraAlignmentAccuracy : False
;   Part : FillFrequency : 400
;   Part : FirstLayerHeightOverride : 0
;   Part : FloorLayers : 3
;   Part : GCodeAppendBeadDimensions : True
;   Part : GenerateSupport : True
;   Part : HighQualityMode : False
;   Part : InfillAngles : [20, 65, 110, 155, 200, 245, 290, 335]
;   Part : InfillOnlyShells : False
;   Part : InfillPulseDistance : 0.51
;   Part : InnerPerimeterFrequency : 400
;   Part : InnerPerimeterPulseDistance : 0.54
;   Part : InnerPerimeterSpacingX : 1
;   Part : InnerPerimeterSpeedX : 1
;   Part : IntegerizePerimeters : False
;   Part : InteriorSolidRegionShells : 0
;   Part : Jitter : True
;   Part : LayerHeightMM : 0.24
;   Part : LayerRangeFilter : [0,999999999]
;   Part : MaxBridgeWidthMM : 10
;   Part : MinExtrudeSpeed : 24000
;   Part : MinGap : 1
;   Part : MinHoleDiameter : 1
;   Part : MinimumPulseDistance : 0.1
;   Part : MinInfillLengthMM : 0
;   Part : MinLayerTime : 5
;   Part : MinWallThickness : 1
;   Part : MultipassOverhangEnabled : True
;   Part : Name : 4008 Standard
;   Part : OctetInfillSlope : 60
;   Part : OctetInfillWallSpacing : 10
;   Part : OpenPerimeterLeadInLeadOutMM : 0
;   Part : OutermostPerimeterPulseDistance : 0.425
;   Part : OutermostPerimeterPulseDistanceMultiplierSinglePass : 1
;   Part : OutermostPerimeterPulseDistanceMultiplierThreePass : 0.24
;   Part : OutermostPerimeterPulseDistanceMultiplierTwoPass : 0.24
;   Part : OutermostPerimeterPulseDistanceThreePassReduction : 0.1895
;   Part : OutermostPerimeterPulseDistanceTwoPassReduction : 0.188
;   Part : OutermostPerimetersFirst : True
;   Part : OuterPerimeterFrequency : 300
;   Part : OuterPerimeterSpeedX : 1
;   Part : OuterShellLast : False
;   Part : OutputSettings : True
;   Part : PartSkirtToSupportSkirtMinSpacing : 0.5
;   Part : PerimeterStartAlignedToVertex : False
;   Part : PolygonSaveLocation : logs
;   Part : PreserveOverhangs : True
;   Part : PrintSizeWarningX : 300
;   Part : PrintSizeWarningY : 300
;   Part : PrintSizeWarningZ : 250
;   Part : QuadSwathInfillPulseDistanceOffset : -1.3
;   Part : QuadSwathInfillPulseDistanceSlope : 2.3
;   Part : RandomSeed : 1
;   Part : RapidExtrudeSpeed : 24000
;   Part : RapidTravelSpeed : 24000
;   Part : RasterFillEnforceOrderedScheduling : False
;   Part : RepairMesh : True
;   Part : RetractSpeed : 1500
;   Part : RoofLayers : 3
;   Part : SavePolygons : False
;   Part : SchemaVersion : 1
;   Part : SelfOverlapToleranceX : 0.45
;   Part : ShellRandomizeStart : True
;   Part : Shells : 2
;   Part : ShellsFillNozzleDiamStepX : 0.78
;   Part : SingleSwathCornerPulseDistanceMax : 0.305
;   Part : SingleSwathCornerPulseDistanceMin : 0.305
;   Part : SkirtCount : 0
;   Part : SkirtGap : 0.2
;   Part : SkirtLayers : 1
;   Part : SkirtPulseDistance : 0.5
;   Part : SkirtSpacingStepX : 1
;   Part : SolidFillBorderOverlapX : 1
;   Part : SolidFillNozzleDiamStepX : 1
;   Part : SolidFillPulseDistance : 0.51
;   Part : SolidFillSpeedX : 1
;   Part : SparseFillBorderOverlapX : 0.22
;   Part : SparseFillEnabled : False
;   Part : SparseFillPulseDistance : 0.59
;   Part : SparseLinearInfillStepX : 1
;   Part : SplineMaxAngleD : 20
;   Part : SplineMaxDistanceMM : 2.5
;   Part : SplineMinNumPoints : 6
;   Part : SplitCornerAngleDeg : 60
;   Part : StartLayerHeightMM : 0
;   Part : StartLayers : 0
;   Part : Stepout : AnchorDistanceX : 0.5
;   Part : Stepout : DynamicSupportIntervalEnabled : True
;   Part : Stepout : DynamicSupportIntervalEndOffset : 2
;   Part : Stepout : LayerThickness : 0.4501
;   Part : Stepout : MinimumWidthMM : 0.12
;   Part : Stepout : MultipassTrimAmount : 0
;   Part : Stepout : OverhangCorrectionEndAngleDeg : 40
;   Part : Stepout : OverhangCorrectionEndScaleX : 0.9563
;   Part : Stepout : OverhangCorrectionStartAngleDeg : 0
;   Part : Stepout : PerimeterAdjacentSubdivisionLengthMM : 0.25
;   Part : Stepout : PerimeterInsetInitialOffsetMM : 0.5
;   Part : Stepout : PerimeterOverlapX : 0.85
;   Part : Stepout : SchedulingStrategy : ByIndexInRegion
;   Part : Stepout : SpacingCoefficient0 : 0.25
;   Part : Stepout : SpacingCoefficient1 : 0
;   Part : Stepout : SpacingMinimimum : 0
;   Part : Stepout : SpacingX : 0.55
;   Part : Stepout : SupportedStepoutParameters : Frequency : 300
;   Part : Stepout : SupportedStepoutParameters : FrequencyGUD : UnsupportedStepoutFrequency
;   Part : Stepout : SupportedStepoutParameters : PulseDistance : 0.2
;   Part : Stepout : SupportedStepoutParameters : Version : 2
;   Part : Stepout : SupportedTrimAmount : 0.2
;   Part : Stepout : SupportedTrimMaxAngleDeg : 75
;   Part : Stepout : SupportedTrimMinAngleDeg : 30
;   Part : Stepout : SupportInterval : 7
;   Part : Stepout : SupportIntervalFirst : 7
;   Part : Stepout : UnsupportedStepoutDefaultParameters : Frequency : 300
;   Part : Stepout : UnsupportedStepoutDefaultParameters : FrequencyGUD : UnsupportedStepoutFrequency
;   Part : Stepout : UnsupportedStepoutDefaultParameters : PulseDistance : 0.28
;   Part : Stepout : UnsupportedStepoutDefaultParameters : Version : 2
;   Part : Stepout : UnsupportedStepoutFirstParameters : Frequency : 300
;   Part : Stepout : UnsupportedStepoutFirstParameters : FrequencyGUD : UnsupportedStepoutFrequency
;   Part : Stepout : UnsupportedStepoutFirstParameters : PulseDistance : 0.28
;   Part : Stepout : UnsupportedStepoutFirstParameters : Version : 2
;   Part : Stepout : UnsupportedStepoutLastParameters : Frequency : 300
;   Part : Stepout : UnsupportedStepoutLastParameters : FrequencyGUD : UnsupportedStepoutFrequency
;   Part : Stepout : UnsupportedStepoutLastParameters : PulseDistance : 0.28
;   Part : Stepout : UnsupportedStepoutLastParameters : Version : 2
;   Part : Stepout : Version : 1
;   Part : StepoutChunkOverrideThreshold : 2
;   Part : Support : AlternateThinWallDirection : True
;   Part : Support : BridgeChunkLayers : 4
;   Part : Support : BridgeChunkSize : 2
;   Part : Support : CleanEndsCurvatureThreshold : 2.2
;   Part : Support : ExtensionMM : 0.5
;   Part : Support : FilterSelfOverlaps : True
;   Part : Support : MatchPerimeterSupportToFirstSupportedStepout : False
;   Part : Support : MaxUnsupportedLength : 1.75
;   Part : Support : MinimumEndSpacing : 0.65
;   Part : Support : MinimumLayerTime : 5
;   Part : Support : MinimumLayerZMM : 0.07
;   Part : Support : MinimumPathLength : 0.425
;   Part : Support : MinimumPerimeterSpacing : 0.5
;   Part : Support : MinimumStepoutSpacing : 0.5
;   Part : Support : MinimumWallLayersOverPart : 2
;   Part : Support : OverhangBiasMM : 0.001
;   Part : Support : OverhangEndDetectionThresholdMM : 3.5
;   Part : Support : OverhangThresholdMM : 0.02
;   Part : Support : Perimeter : Frequency : 100
;   Part : Support : Perimeter : FrequencyGUD : OuterPerimeterFrequency
;   Part : Support : Perimeter : PulseDistance : 0.293
;   Part : Support : Perimeter : Version : 2
;   Part : Support : Pillar : Frequency : 100
;   Part : Support : Pillar : FrequencyGUD : SupportPillarFrequency
;   Part : Support : Pillar : PulseDistance : 0.85
;   Part : Support : Pillar : Version : 2
;   Part : Support : PillarBottomLayerCount : 12
;   Part : Support : PillarLayerCount : 12
;   Part : Support : PillarLayerHeight : 0.1625
;   Part : Support : SelfOverlapTolerance : 0.45
;   Part : Support : SpacingThreshold : 1
;   Part : Support : Version : 1
;   Part : Support : Wall : Frequency : 100
;   Part : Support : Wall : FrequencyGUD : SupportWallFrequency
;   Part : Support : Wall : PulseDistance : 0.293
;   Part : Support : Wall : Version : 2
;   Part : Support : WallPillarGap : 0.5
;   Part : Support : WallSupportLayerHeight : 0.24
;   Part : SupportAreaOffsetX : -0.5
;   Part : SupportedStepoutFrequency : 300
;   Part : SupportMinDimension : 1.5
;   Part : SupportMinZTips : True
;   Part : SupportOverhangAngleDeg : 40
;   Part : SupportPillarFrequency : 100
;   Part : SupportPointDiam : 2.5
;   Part : SupportPointSides : 4
;   Part : SupportRegionJoinTolX : 2
;   Part : SupportReleaseGap : 0.2
;   Part : SupportSolidSpace : 0.9
;   Part : SupportSolidSpaceLayerDepth : 4
;   Part : SupportSpacingStepX : 2
;   Part : SupportVolumeScale : 1
;   Part : SupportWallFrequency : 100
;   Part : ThinFeatureCleanDistanceMM : 0.2
;   Part : ThinFeatureDetection : True
;   Part : ThinFeatureDetectionInner : True
;   Part : ThinFeatureDetectionThesholdX : 3.5
;   Part : ThinFeatureDoubleFillThresholdX : 3
;   Part : ThinFeatureFrequency : 300
;   Part : ThinFeaturePointSpacing : 0.2
;   Part : ThinFeaturesAlongSkeleton : False
;   Part : ThinFeatureSingleFillThresholdX : 2
;   Part : ThinFeatureThicknessX : 3
;   Part : TravelLiftDistanceThreshold : 5
;   Part : TravelLiftHeight : 0.2
;   Part : TripleSwathInfillPulseDistanceOffset : -1.47
;   Part : TripleSwathInfillPulseDistanceSlope : 2.8
;   Part : UnsupportedStepoutFrequency : 300
;   Part : UseSplines : True
;   Part : VerboseComments : True
;   Part : Version : 2
;   Part : VisualizerConstants : DefaultFrequency : 10
;   Part : VisualizerConstants : DROP_SCALE : 1
;   Part : VisualizerConstants : OutermostShellFrequency : 7
;   Part : VisualizerConstants : PRIO_PULSE_DISTANCE : 1
;   Part : ZigZagFillEnabled : False
;   Part : ZipperAlignedToPoint : False
;   Part : ZipperLocationX : -50
;   Part : ZipperLocationY : -50
;   Part : ZTravelSpeed : 3000
;   PartProfile : AddInfillBorderShell : True
;   PartProfile : AlternatePerimeterWinding : True
;   PartProfile : BridgeExtrudeSpeedX : 0.5
;   PartProfile : BridgeFillNozzleDiamStepX : 0.85
;   PartProfile : BridgePulseDistance : 0.15
;   PartProfile : BridgeVolumeScale : 1
;   PartProfile : CarefulExtrudeSpeed : 24000
;   PartProfile : ChunkOverrideUpSkinArea : 25
;   PartProfile : ChunkOverrideUpSkinInset : 0.9
;   PartProfile : ClipSelfOverlaps : False
;   PartProfile : ClipSelfOverlapsOuter : True
;   PartProfile : CompatibilityVersion : 23
;   PartProfile : CompleteSkeletonSpine : True
;   PartProfile : DefaultChunkSize : 5
;   PartProfile : DefaultPulseDistance : 0.5
;   PartProfile : DerivedFromProfile : 4008 Standard
;   PartProfile : DoubleSwathCornerPulseDistanceOffset : 1.5
;   PartProfile : DoubleSwathCornerPulseDistanceSlope : 1.1
;   PartProfile : EnableBridging : False
;   PartProfile : EnableSupportReleaseOpt : True
;   PartProfile : EnableSupportShell : True
;   PartProfile : ExpandTinyPolygons : False
;   PartProfile : ExtraAlignmentAccuracy : False
;   PartProfile : FillFrequency : 400
;   PartProfile : FirstLayerHeightOverride : 0
;   PartProfile : FloorLayers : 3
;   PartProfile : GCodeAppendBeadDimensions : True
;   PartProfile : GenerateSupport : True
;   PartProfile : HighQualityMode : False
;   PartProfile : InfillAngles : [20, 65, 110, 155, 200, 245, 290, 335]
;   PartProfile : InfillOnlyShells : False
;   PartProfile : InfillPulseDistance : 0.51
;   PartProfile : InnerPerimeterFrequency : 400
;   PartProfile : InnerPerimeterPulseDistance : 0.54
;   PartProfile : InnerPerimeterSpacingX : 1
;   PartProfile : InnerPerimeterSpeedX : 1
;   PartProfile : IntegerizePerimeters : False
;   PartProfile : InteriorSolidRegionShells : 0
;   PartProfile : Jitter : True
;   PartProfile : LayerHeightMM : 0.24
;   PartProfile : LayerRangeFilter : [0,999999999]
;   PartProfile : MaxBridgeWidthMM : 10
;   PartProfile : MinExtrudeSpeed : 24000
;   PartProfile : MinGap : 1
;   PartProfile : MinHoleDiameter : 1
;   PartProfile : MinimumPulseDistance : 0.1
;   PartProfile : MinInfillLengthMM : 0
;   PartProfile : MinLayerTime : 5
;   PartProfile : MinWallThickness : 1
;   PartProfile : MultipassOverhangEnabled : True
;   PartProfile : Name : 4008 Standard
;   PartProfile : OctetInfillSlope : 60
;   PartProfile : OctetInfillWallSpacing : 10
;   PartProfile : OpenPerimeterLeadInLeadOutMM : 0
;   PartProfile : OutermostPerimeterPulseDistance : 0.425
;   PartProfile : OutermostPerimeterPulseDistanceMultiplierSinglePass : 1
;   PartProfile : OutermostPerimeterPulseDistanceMultiplierThreePass : 0.24
;   PartProfile : OutermostPerimeterPulseDistanceMultiplierTwoPass : 0.24
;   PartProfile : OutermostPerimeterPulseDistanceThreePassReduction : 0.1895
;   PartProfile : OutermostPerimeterPulseDistanceTwoPassReduction : 0.188
;   PartProfile : OutermostPerimetersFirst : True
;   PartProfile : OuterPerimeterFrequency : 300
;   PartProfile : OuterPerimeterSpeedX : 1
;   PartProfile : OuterShellLast : False
;   PartProfile : OutputSettings : True
;   PartProfile : PartSkirtToSupportSkirtMinSpacing : 0.5
;   PartProfile : PerimeterStartAlignedToVertex : False
;   PartProfile : PolygonSaveLocation : logs
;   PartProfile : PreserveOverhangs : True
;   PartProfile : PrintSizeWarningX : 300
;   PartProfile : PrintSizeWarningY : 300
;   PartProfile : PrintSizeWarningZ : 250
;   PartProfile : QuadSwathInfillPulseDistanceOffset : -1.3
;   PartProfile : QuadSwathInfillPulseDistanceSlope : 2.3
;   PartProfile : RandomSeed : 1
;   PartProfile : RapidExtrudeSpeed : 24000
;   PartProfile : RapidTravelSpeed : 24000
;   PartProfile : RasterFillEnforceOrderedScheduling : False
;   PartProfile : RepairMesh : True
;   PartProfile : RetractSpeed : 1500
;   PartProfile : RoofLayers : 3
;   PartProfile : SavePolygons : False
;   PartProfile : SchemaVersion : 1
;   PartProfile : SelfOverlapToleranceX : 0.45
;   PartProfile : ShellRandomizeStart : True
;   PartProfile : Shells : 2
;   PartProfile : ShellsFillNozzleDiamStepX : 0.78
;   PartProfile : SingleSwathCornerPulseDistanceMax : 0.305
;   PartProfile : SingleSwathCornerPulseDistanceMin : 0.305
;   PartProfile : SkirtCount : 0
;   PartProfile : SkirtGap : 0.2
;   PartProfile : SkirtLayers : 1
;   PartProfile : SkirtPulseDistance : 0.5
;   PartProfile : SkirtSpacingStepX : 1
;   PartProfile : SolidFillBorderOverlapX : 1
;   PartProfile : SolidFillNozzleDiamStepX : 1
;   PartProfile : SolidFillPulseDistance : 0.51
;   PartProfile : SolidFillSpeedX : 1
;   PartProfile : SparseFillBorderOverlapX : 0.22
;   PartProfile : SparseFillEnabled : False
;   PartProfile : SparseFillPulseDistance : 0.59
;   PartProfile : SparseLinearInfillStepX : 1
;   PartProfile : SplineMaxAngleD : 20
;   PartProfile : SplineMaxDistanceMM : 2.5
;   PartProfile : SplineMinNumPoints : 6
;   PartProfile : SplitCornerAngleDeg : 60
;   PartProfile : StartLayerHeightMM : 0
;   PartProfile : StartLayers : 0
;   PartProfile : Stepout : AnchorDistanceX : 0.5
;   PartProfile : Stepout : DynamicSupportIntervalEnabled : True
;   PartProfile : Stepout : DynamicSupportIntervalEndOffset : 2
;   PartProfile : Stepout : LayerThickness : 0.4501
;   PartProfile : Stepout : MinimumWidthMM : 0.12
;   PartProfile : Stepout : MultipassTrimAmount : 0
;   PartProfile : Stepout : OverhangCorrectionEndAngleDeg : 40
;   PartProfile : Stepout : OverhangCorrectionEndScaleX : 0.9563
;   PartProfile : Stepout : OverhangCorrectionStartAngleDeg : 0
;   PartProfile : Stepout : PerimeterAdjacentSubdivisionLengthMM : 0.25
;   PartProfile : Stepout : PerimeterInsetInitialOffsetMM : 0.5
;   PartProfile : Stepout : PerimeterOverlapX : 0.85
;   PartProfile : Stepout : SchedulingStrategy : ByIndexInRegion
;   PartProfile : Stepout : SpacingCoefficient0 : 0.25
;   PartProfile : Stepout : SpacingCoefficient1 : 0
;   PartProfile : Stepout : SpacingMinimimum : 0
;   PartProfile : Stepout : SpacingX : 0.55
;   PartProfile : Stepout : SupportedStepoutParameters : Frequency : 300
;   PartProfile : Stepout : SupportedStepoutParameters : FrequencyGUD : UnsupportedStepoutFrequency
;   PartProfile : Stepout : SupportedStepoutParameters : PulseDistance : 0.2
;   PartProfile : Stepout : SupportedStepoutParameters : Version : 2
;   PartProfile : Stepout : SupportedTrimAmount : 0.2
;   PartProfile : Stepout : SupportedTrimMaxAngleDeg : 75
;   PartProfile : Stepout : SupportedTrimMinAngleDeg : 30
;   PartProfile : Stepout : SupportInterval : 7
;   PartProfile : Stepout : SupportIntervalFirst : 7
;   PartProfile : Stepout : UnsupportedStepoutDefaultParameters : Frequency : 300
;   PartProfile : Stepout : UnsupportedStepoutDefaultParameters : FrequencyGUD : UnsupportedStepoutFrequency
;   PartProfile : Stepout : UnsupportedStepoutDefaultParameters : PulseDistance : 0.28
;   PartProfile : Stepout : UnsupportedStepoutDefaultParameters : Version : 2
;   PartProfile : Stepout : UnsupportedStepoutFirstParameters : Frequency : 300
;   PartProfile : Stepout : UnsupportedStepoutFirstParameters : FrequencyGUD : UnsupportedStepoutFrequency
;   PartProfile : Stepout : UnsupportedStepoutFirstParameters : PulseDistance : 0.28
;   PartProfile : Stepout : UnsupportedStepoutFirstParameters : Version : 2
;   PartProfile : Stepout : UnsupportedStepoutLastParameters : Frequency : 300
;   PartProfile : Stepout : UnsupportedStepoutLastParameters : FrequencyGUD : UnsupportedStepoutFrequency
;   PartProfile : Stepout : UnsupportedStepoutLastParameters : PulseDistance : 0.28
;   PartProfile : Stepout : UnsupportedStepoutLastParameters : Version : 2
;   PartProfile : Stepout : Version : 1
;   PartProfile : StepoutChunkOverrideThreshold : 2
;   PartProfile : Support : AlternateThinWallDirection : True
;   PartProfile : Support : BridgeChunkLayers : 4
;   PartProfile : Support : BridgeChunkSize : 2
;   PartProfile : Support : CleanEndsCurvatureThreshold : 2.2
;   PartProfile : Support : ExtensionMM : 0.5
;   PartProfile : Support : FilterSelfOverlaps : True
;   PartProfile : Support : MatchPerimeterSupportToFirstSupportedStepout : False
;   PartProfile : Support : MaxUnsupportedLength : 1.75
;   PartProfile : Support : MinimumEndSpacing : 0.65
;   PartProfile : Support : MinimumLayerTime : 5
;   PartProfile : Support : MinimumLayerZMM : 0.07
;   PartProfile : Support : MinimumPathLength : 0.425
;   PartProfile : Support : MinimumPerimeterSpacing : 0.5
;   PartProfile : Support : MinimumStepoutSpacing : 0.5
;   PartProfile : Support : MinimumWallLayersOverPart : 2
;   PartProfile : Support : OverhangBiasMM : 0.001
;   PartProfile : Support : OverhangEndDetectionThresholdMM : 3.5
;   PartProfile : Support : OverhangThresholdMM : 0.02
;   PartProfile : Support : Perimeter : Frequency : 100
;   PartProfile : Support : Perimeter : FrequencyGUD : OuterPerimeterFrequency
;   PartProfile : Support : Perimeter : PulseDistance : 0.293
;   PartProfile : Support : Perimeter : Version : 2
;   PartProfile : Support : Pillar : Frequency : 100
;   PartProfile : Support : Pillar : FrequencyGUD : SupportPillarFrequency
;   PartProfile : Support : Pillar : PulseDistance : 0.85
;   PartProfile : Support : Pillar : Version : 2
;   PartProfile : Support : PillarBottomLayerCount : 12
;   PartProfile : Support : PillarLayerCount : 12
;   PartProfile : Support : PillarLayerHeight : 0.1625
;   PartProfile : Support : SelfOverlapTolerance : 0.45
;   PartProfile : Support : SpacingThreshold : 1
;   PartProfile : Support : Version : 1
;   PartProfile : Support : Wall : Frequency : 100
;   PartProfile : Support : Wall : FrequencyGUD : SupportWallFrequency
;   PartProfile : Support : Wall : PulseDistance : 0.293
;   PartProfile : Support : Wall : Version : 2
;   PartProfile : Support : WallPillarGap : 0.5
;   PartProfile : Support : WallSupportLayerHeight : 0.24
;   PartProfile : SupportAreaOffsetX : -0.5
;   PartProfile : SupportedStepoutFrequency : 300
;   PartProfile : SupportMinDimension : 1.5
;   PartProfile : SupportMinZTips : True
;   PartProfile : SupportOverhangAngleDeg : 40
;   PartProfile : SupportPillarFrequency : 100
;   PartProfile : SupportPointDiam : 2.5
;   PartProfile : SupportPointSides : 4
;   PartProfile : SupportRegionJoinTolX : 2
;   PartProfile : SupportReleaseGap : 0.2
;   PartProfile : SupportSolidSpace : 0.9
;   PartProfile : SupportSolidSpaceLayerDepth : 4
;   PartProfile : SupportSpacingStepX : 2
;   PartProfile : SupportVolumeScale : 1
;   PartProfile : SupportWallFrequency : 100
;   PartProfile : ThinFeatureCleanDistanceMM : 0.2
;   PartProfile : ThinFeatureDetection : True
;   PartProfile : ThinFeatureDetectionInner : True
;   PartProfile : ThinFeatureDetectionThesholdX : 3.5
;   PartProfile : ThinFeatureDoubleFillThresholdX : 3
;   PartProfile : ThinFeatureFrequency : 300
;   PartProfile : ThinFeaturePointSpacing : 0.2
;   PartProfile : ThinFeaturesAlongSkeleton : False
;   PartProfile : ThinFeatureSingleFillThresholdX : 2
;   PartProfile : ThinFeatureThicknessX : 3
;   PartProfile : TravelLiftDistanceThreshold : 5
;   PartProfile : TravelLiftHeight : 0.2
;   PartProfile : TripleSwathInfillPulseDistanceOffset : -1.47
;   PartProfile : TripleSwathInfillPulseDistanceSlope : 2.8
;   PartProfile : UnsupportedStepoutFrequency : 300
;   PartProfile : UseSplines : True
;   PartProfile : VerboseComments : True
;   PartProfile : Version : 2
;   PartProfile : VisualizerConstants : DefaultFrequency : 10
;   PartProfile : VisualizerConstants : DROP_SCALE : 1
;   PartProfile : VisualizerConstants : OutermostShellFrequency : 7
;   PartProfile : VisualizerConstants : PRIO_PULSE_DISTANCE : 1
;   PartProfile : ZigZagFillEnabled : False
;   PartProfile : ZipperAlignedToPoint : False
;   PartProfile : ZipperLocationX : -50
;   PartProfile : ZipperLocationY : -50
;   PartProfile : ZTravelSpeed : 3000
;-------------------------------------------------------------------------------
; 
