;---BEGIN HEADER
; Generated by DropletSlicer
; Version: 3.4.4
; Date: Wednesday, May 29, 2024
; Time: 04:22:00 PM
G64 ;continuous path mode
G71 ;millimeters
G56 ;origin at center
OVR=100
OVRRAP=20
DO PRIO_ON_PATH_OFFSET=0.5*PRIO_PULSE_DISTANCE
RECOMMENDED_RECIPE="4008 Aluminum Wire"
CheckRecommendedRecipe
BUILDPROCESSORINTERFACEVERSION=1177
CheckBPVersion
OuterPerimeterFrequency=300
InnerPerimeterFrequency=400
ThinFeatureFrequency=300
UnsupportedStepoutFrequency=300
SupportedStepoutFrequency=300
FillFrequency=400
SupportWallFrequency=100
SupportPillarFrequency=100
;BUILDPROCESSORINTERFACEVERSION=1177
PART_MASS_CONSUMPTION=0
SUPPORT_MASS_CONSUMPTION=0
G0 X0 Y0 ;reset z
MSG("Print Started")
;---END HEADER
;---BEGIN PRINT STATISTICS
;TOTAL WIRE FEED ESTIMATE:
;    Total Drops: 97,460.43
;      Total Mass: 14.13 g
;    Part Drops: 97,460.43
;      Part Mass: 14.13 g
;    Support Drops: 0.00
;      Support Mass: 0.00 g
;    Part Density: 100.0%
;---END PRINT STATISTICS
;XY Extents: [-24.845 -4.637] [24.845 4.637]
;NaiveEstimatedPrintTime=484.25931344209994
;SupportedStepoutFrequency=300
EstimatedPrintTime=453.9104919433594
;ZCount = 1
;ExtraChevronOffset = 10
NumberOfLayers=42
LayersCompleted=0
;Mass values below are in kilograms
TOTAL_MASS=0.014131762
PART_MASS=0.014131762
SUPPORT_MASS=0.000000000
CheckMass
DO PRIO_PULSE_DISTANCE=DROP_SCALE
DO PRIO_ON_PATH_OFFSET=0.5*PRIO_PULSE_DISTANCE
PARAM_SETUP
;ChunkSize=5
; 
;========================
; layer 0, Z = 0.2400
; 
; reset extrusion
STOPRE
PRESETON(E, 0)
DO PRIO_PULSE_DISTANCE=DROP_SCALE
DO PRIO_ON_PATH_OFFSET=0.5*PRIO_PULSE_DISTANCE
FEATURE_TYPE=0
;outer: (25.2604,-5.0521) (25.2604,5.0521) (-25.2604,5.0521) (-25.2604,-5.0521) (24.6604,-5.0521) holes: !
;overhangs:!
; 
; feature plane change
G0 X0 Y0 Z0.24 ;Plane Change
; 
; feature travel
G0 X17.63483 Y-4.637 ;Travel
; 
; feature outer perimeter
G1 F24000 FL[E] = OuterPerimeterFrequency * DROP_SCALE * 60
DO PRIO_PULSE_DISTANCE=DROP_SCALE
DO PRIO_ON_PATH_OFFSET=0.5*PRIO_PULSE_DISTANCE
PRIO_ON
G1 X24.8454 Y-4.637 E16.96604 
G1 X24.8454 Y4.637 E38.78721 
G1 X-24.8454 Y4.637 E155.70674 
G1 X-24.8454 Y-4.637 E177.52792 
G1 X17.63483 Y-4.637 E277.48141 
; 
; feature travel
PRIO_OFF
G0 X17.63483 Y-4.286 ;Travel
; 
; feature inner perimeter
G1 F24000 FL[E] = InnerPerimeterFrequency * DROP_SCALE * 60
PRIO_ON
G1 X-24.4944 Y-4.286 E355.49851 
G1 X-24.4944 Y4.286 E371.37259 
G1 X24.4944 Y4.286 E462.09259 
G1 X24.4944 Y-4.286 E477.96666 
G1 X17.63483 Y-4.286 E490.66956 
; 
; feature travel
PRIO_OFF
G0 X17.86945 Y-4.2863 ;Travel
; 
; feature fill
G1 F24000 FL[E] = FillFrequency * DROP_SCALE * 60
PRIO_ON
G1 X24.4947 Y-1.8749 E504.49397 
; 
; feature travel
PRIO_OFF
G0 X24.4947 Y-1.39602 ;Travel
; 
; feature fill
PRIO_ON
G1 X16.55373 Y-4.2863 E521.06377 
; 
; feature travel
PRIO_OFF
G0 X15.23802 Y-4.2863 ;Travel
; 
; feature fill
PRIO_ON
G1 X24.4947 Y-0.91714 E540.37897 
; 
; feature travel
PRIO_OFF
G0 X24.4947 Y-0.43826 ;Travel
; 
; feature fill
PRIO_ON
G1 X13.92231 Y-4.2863 E562.43957 
; 
; feature travel
PRIO_OFF
G0 X12.6066 Y-4.2863 ;Travel
; 
; feature fill
PRIO_ON
G1 X24.4947 Y0.04062 E587.24556 
; 
; feature travel
PRIO_OFF
G0 X24.4947 Y0.5195 ;Travel
; 
; feature fill
PRIO_ON
G1 X11.29089 Y-4.2863 E614.79694 
; 
; feature travel
PRIO_OFF
G0 X9.97517 Y-4.2863 ;Travel
; 
; feature fill
PRIO_ON
G1 X24.4947 Y0.99838 E645.09372 
; 
; feature travel
PRIO_OFF
G0 X24.4947 Y1.47726 ;Travel
; 
; feature fill
PRIO_ON
G1 X8.65946 Y-4.2863 E678.1359 
; 
; feature travel
PRIO_OFF
G0 X7.34375 Y-4.2863 ;Travel
; 
; feature fill
PRIO_ON
G1 X24.4947 Y1.95614 E713.92346 
; 
; feature travel
PRIO_OFF
G0 X24.4947 Y2.43502 ;Travel
; 
; feature fill
PRIO_ON
G1 X6.02804 Y-4.2863 E752.45643 
; 
; feature travel
PRIO_OFF
G0 X4.71233 Y-4.2863 ;Travel
; 
; feature fill
PRIO_ON
G1 X24.4947 Y2.9139 E793.73479 
; 
; feature travel
PRIO_OFF
G0 X24.4947 Y3.39278 ;Travel
; 
; feature fill
PRIO_ON
G1 X3.39661 Y-4.2863 E837.75854 
; 
; feature travel
PRIO_OFF
G0 X2.0809 Y-4.2863 ;Travel
; 
; feature fill
PRIO_ON
G1 X24.4947 Y3.87166 E884.52769 
; 
; feature travel
PRIO_OFF
G0 X24.31821 Y4.2863 ;Travel
; 
; feature fill
PRIO_ON
G1 X0.76519 Y-4.2863 E933.67398 
; 
; feature travel
PRIO_OFF
G0 X-0.55052 Y-4.2863 ;Travel
; 
; feature fill
PRIO_ON
G1 X23.0025 Y4.2863 E982.82026 
; 
; feature travel
PRIO_OFF
G0 X21.68679 Y4.2863 ;Travel
; 
; feature fill
PRIO_ON
G1 X-1.86623 Y-4.2863 E1031.96655 
; 
; feature travel
PRIO_OFF
G0 X-3.18195 Y-4.2863 ;Travel
; 
; feature fill
PRIO_ON
G1 X20.37108 Y4.2863 E1081.11283 
; 
; feature travel
PRIO_OFF
G0 X19.05537 Y4.2863 ;Travel
; 
; feature fill
PRIO_ON
G1 X-4.49766 Y-4.2863 E1130.25912 
; 
; feature travel
PRIO_OFF
G0 X-5.81337 Y-4.2863 ;Travel
; 
; feature fill
PRIO_ON
G1 X17.73965 Y4.2863 E1179.4054 
; 
; feature travel
PRIO_OFF
G0 X16.42394 Y4.2863 ;Travel
; 
; feature fill
PRIO_ON
G1 X-7.12908 Y-4.2863 E1228.55169 
; 
; feature travel
PRIO_OFF
G0 X-8.44479 Y-4.2863 ;Travel
; 
; feature fill
PRIO_ON
G1 X15.10823 Y4.2863 E1277.69798 
; 
; feature travel
PRIO_OFF
G0 X13.79252 Y4.2863 ;Travel
; 
; feature fill
PRIO_ON
G1 X-9.76051 Y-4.2863 E1326.84426 
; 
; feature travel
PRIO_OFF
G0 X-11.07622 Y-4.2863 ;Travel
; 
; feature fill
PRIO_ON
G1 X12.47681 Y4.2863 E1375.99055 
; 
; feature travel
PRIO_OFF
G0 X11.16109 Y4.2863 ;Travel
; 
; feature fill
PRIO_ON
G1 X-12.39193 Y-4.2863 E1425.13683 
; 
; feature travel
PRIO_OFF
G0 X-13.70764 Y-4.2863 ;Travel
; 
; feature fill
PRIO_ON
G1 X9.84538 Y4.2863 E1474.28312 
; 
; feature travel
PRIO_OFF
G0 X8.52967 Y4.2863 ;Travel
; 
; feature fill
PRIO_ON
G1 X-15.02335 Y-4.2863 E1523.4294 
; 
; feature travel
PRIO_OFF
G0 X-16.33907 Y-4.2863 ;Travel
; 
; feature fill
PRIO_ON
G1 X7.21396 Y4.2863 E1572.57569 
; 
; feature travel
PRIO_OFF
G0 X5.89825 Y4.2863 ;Travel
; 
; feature fill
PRIO_ON
G1 X-17.65478 Y-4.2863 E1621.72197 
; 
; feature travel
PRIO_OFF
G0 X-18.97049 Y-4.2863 ;Travel
; 
; feature fill
PRIO_ON
G1 X4.58253 Y4.2863 E1670.86826 
; 
; feature travel
PRIO_OFF
G0 X3.26682 Y4.2863 ;Travel
; 
; feature fill
PRIO_ON
G1 X-20.2862 Y-4.2863 E1720.01455 
; 
; feature travel
PRIO_OFF
G0 X-21.60191 Y-4.2863 ;Travel
; 
; feature fill
PRIO_ON
G1 X1.95111 Y4.2863 E1769.16083 
; 
; feature travel
PRIO_OFF
G0 X0.6354 Y4.2863 ;Travel
; 
; feature fill
PRIO_ON
G1 X-22.91763 Y-4.2863 E1818.30712 
; 
; feature travel
PRIO_OFF
G0 X-24.23334 Y-4.2863 ;Travel
; 
; feature fill
PRIO_ON
G1 X-0.68031 Y4.2863 E1867.4534 
; 
; feature travel
PRIO_OFF
G0 X-1.99603 Y4.2863 ;Travel
; 
; feature fill
PRIO_ON
G1 X-24.4947 Y-3.90255 E1914.39966 
; 
; feature travel
PRIO_OFF
G0 X-24.4947 Y-3.42367 ;Travel
; 
; feature fill
PRIO_ON
G1 X-3.31174 Y4.2863 E1958.60052 
; 
; feature travel
PRIO_OFF
G0 X-4.62745 Y4.2863 ;Travel
; 
; feature fill
PRIO_ON
G1 X-24.4947 Y-2.94479 E2000.05598 
; 
; feature travel
PRIO_OFF
G0 X-24.4947 Y-2.46591 ;Travel
; 
; feature fill
PRIO_ON
G1 X-5.94316 Y4.2863 E2038.76605 
; 
; feature travel
PRIO_OFF
G0 X-7.25887 Y4.2863 ;Travel
; 
; feature fill
PRIO_ON
G1 X-24.4947 Y-1.98703 E2074.73072 
; 
; feature travel
PRIO_OFF
G0 X-24.4947 Y-1.50815 ;Travel
; 
; feature fill
PRIO_ON
G1 X-8.57459 Y4.2863 E2107.95 
; 
; feature travel
PRIO_OFF
G0 X-9.8903 Y4.2863 ;Travel
; 
; feature fill
PRIO_ON
G1 X-24.4947 Y-1.02927 E2138.42389 
; 
; feature travel
PRIO_OFF
G0 X-24.4947 Y-0.55039 ;Travel
; 
; feature fill
PRIO_ON
G1 X-11.20601 Y4.2863 E2166.15238 
; 
; feature travel
PRIO_OFF
G0 X-12.52172 Y4.2863 ;Travel
; 
; feature fill
PRIO_ON
G1 X-24.4947 Y-0.07151 E2191.13547 
; 
; feature travel
PRIO_OFF
G0 X-24.4947 Y0.40737 ;Travel
; 
; feature fill
PRIO_ON
G1 X-13.83743 Y4.2863 E2213.37317 
; 
; feature travel
PRIO_OFF
G0 X-15.15314 Y4.2863 ;Travel
; 
; feature fill
PRIO_ON
G1 X-24.4947 Y0.88625 E2232.86547 
; 
; feature travel
PRIO_OFF
G0 X-24.4947 Y1.36513 ;Travel
; 
; feature fill
PRIO_ON
G1 X-16.46886 Y4.2863 E2249.61238 
; 
; feature travel
PRIO_OFF
G0 X-17.78457 Y4.2863 ;Travel
; 
; feature fill
PRIO_ON
G1 X-24.4947 Y1.84401 E2263.6139 
; 
; feature travel
PRIO_OFF
G0 X-24.4947 Y2.32289 ;Travel
; 
; feature fill
PRIO_ON
G1 X-19.10028 Y4.2863 E2274.87002 
; 
; feature travel
PRIO_OFF
G0 X-20.41599 Y4.2863 ;Travel
; 
; feature fill
PRIO_ON
G1 X-24.4947 Y2.80177 E2283.38074 
; 
; feature travel
PRIO_OFF
G0 X-24.4947 Y3.28065 ;Travel
; 
; feature fill
PRIO_ON
G1 X-21.7317 Y4.2863 E2289.14607 
; 
; feature travel
PRIO_OFF
G0 X-23.04742 Y4.2863 ;Travel
; 
; feature fill
PRIO_ON
G1 X-24.4947 Y3.75953 E2292.16601 
; 
; feature travel
PRIO_OFF
G0 X-24.4947 Y4.23841 ;Travel
; 
; feature fill
PRIO_ON
G1 X-24.36313 Y4.2863 E2292.44055 
; 
; feature travel
PRIO_OFF
G0 X19.18516 Y-4.2863 ;Travel
; 
; feature fill
PRIO_ON
G1 X24.4947 Y-2.35378 E2303.51956 
; 
; feature travel
PRIO_OFF
G0 X24.4947 Y-2.83266 ;Travel
; 
; feature fill
PRIO_ON
G1 X20.50087 Y-4.2863 E2311.85318 
; 
; feature travel
PRIO_OFF
G0 X21.81658 Y-4.2863 ;Travel
; 
; feature fill
PRIO_ON
G1 X24.4947 Y-3.31154 E2317.4414 
; 
; feature travel
PRIO_OFF
G0 X24.4947 Y-3.79042 ;Travel
; 
; feature fill
PRIO_ON
G1 X23.13229 Y-4.2863 E2320.28423 
PRIO_OFF
LayersCompleted=1
M1
; 
;========================
; layer 1, Z = 0.4800
; 
; reset extrusion
STOPRE
PRESETON(E, 0)
DO PRIO_PULSE_DISTANCE=DROP_SCALE
DO PRIO_ON_PATH_OFFSET=0.5*PRIO_PULSE_DISTANCE
;outer: (25.2604,-5.0521) (25.2604,5.0521) (-25.2604,5.0521) (-25.2604,-5.0521) (23.4604,-5.0521) holes: !
;overhangs:!
; 
; feature plane change
G0 X23.13229 Y-4.2863 Z0.48 ;Plane Change
; 
; feature travel
G0 X20.77862 Y4.637 ;Travel
; 
; feature outer perimeter
G1 F24000 FL[E] = OuterPerimeterFrequency * DROP_SCALE * 60
PRIO_ON
G1 X24.8454 Y4.637 E9.5689 
G1 X24.8454 Y-4.637 E31.39008 
G1 X-24.8454 Y-4.637 E148.30961 
G1 X-24.8454 Y4.637 E170.13078 
G1 X20.77862 Y4.637 E277.48141 
; 
; feature travel
PRIO_OFF
G0 X20.77862 Y4.286 ;Travel
; 
; feature inner perimeter
G1 F24000 FL[E] = InnerPerimeterFrequency * DROP_SCALE * 60
PRIO_ON
G1 X-24.4944 Y4.286 E361.32033 
G1 X-24.4944 Y-4.286 E377.19441 
G1 X24.4944 Y-4.286 E467.91441 
G1 X24.4944 Y4.286 E483.78848 
G1 X20.77862 Y4.286 E490.66956 
; 
; feature travel
PRIO_OFF
G0 X20.73828 Y4.2863 ;Travel
; 
; feature fill
G1 F24000 FL[E] = FillFrequency * DROP_SCALE * 60
PRIO_ON
G1 X16.74081 Y-4.2863 E509.21626 
; 
; feature travel
PRIO_OFF
G0 X17.23733 Y-4.2863 ;Travel
; 
; feature fill
PRIO_ON
G1 X21.2348 Y4.2863 E527.76296 
; 
; feature travel
PRIO_OFF
G0 X21.73132 Y4.2863 ;Travel
; 
; feature fill
PRIO_ON
G1 X17.73385 Y-4.2863 E546.30966 
; 
; feature travel
PRIO_OFF
G0 X18.23037 Y-4.2863 ;Travel
; 
; feature fill
PRIO_ON
G1 X22.22784 Y4.2863 E564.85636 
; 
; feature travel
PRIO_OFF
G0 X22.72436 Y4.2863 ;Travel
; 
; feature fill
PRIO_ON
G1 X18.72689 Y-4.2863 E583.40307 
; 
; feature travel
PRIO_OFF
G0 X19.22341 Y-4.2863 ;Travel
; 
; feature fill
PRIO_ON
G1 X23.22088 Y4.2863 E601.94977 
; 
; feature travel
PRIO_OFF
G0 X23.7174 Y4.2863 ;Travel
; 
; feature fill
PRIO_ON
G1 X19.71993 Y-4.2863 E620.49647 
; 
; feature travel
PRIO_OFF
G0 X20.21645 Y-4.2863 ;Travel
; 
; feature fill
PRIO_ON
G1 X24.21392 Y4.2863 E639.04317 
; 
; feature travel
PRIO_OFF
G0 X24.4947 Y3.82365 ;Travel
; 
; feature fill
PRIO_ON
G1 X20.71297 Y-4.2863 E656.58893 
; 
; feature travel
PRIO_OFF
G0 X21.20949 Y-4.2863 ;Travel
; 
; feature fill
PRIO_ON
G1 X24.4947 Y2.75886 E671.83103 
; 
; feature travel
PRIO_OFF
G0 X24.4947 Y1.69407 ;Travel
; 
; feature fill
PRIO_ON
G1 X21.70601 Y-4.2863 E684.76947 
; 
; feature travel
PRIO_OFF
G0 X22.20253 Y-4.2863 ;Travel
; 
; feature fill
PRIO_ON
G1 X24.4947 Y0.62928 E695.40425 
; 
; feature travel
PRIO_OFF
G0 X24.4947 Y-0.43552 ;Travel
; 
; feature fill
PRIO_ON
G1 X22.69905 Y-4.2863 E703.73537 
; 
; feature travel
PRIO_OFF
G0 X23.19557 Y-4.2863 ;Travel
; 
; feature fill
PRIO_ON
G1 X24.4947 Y-1.50031 E709.76283 
; 
; feature travel
PRIO_OFF
G0 X24.4947 Y-2.5651 ;Travel
; 
; feature fill
PRIO_ON
G1 X23.69209 Y-4.2863 E713.48663 
; 
; feature travel
PRIO_OFF
G0 X24.18861 Y-4.2863 ;Travel
; 
; feature fill
PRIO_ON
G1 X24.4947 Y-3.62989 E714.90677 
; 
; feature travel
PRIO_OFF
G0 X16.24429 Y-4.2863 ;Travel
; 
; feature fill
PRIO_ON
G1 X20.24176 Y4.2863 E733.45347 
; 
; feature travel
PRIO_OFF
G0 X19.74524 Y4.2863 ;Travel
; 
; feature fill
PRIO_ON
G1 X15.74777 Y-4.2863 E752.00017 
; 
; feature travel
PRIO_OFF
G0 X15.25125 Y-4.2863 ;Travel
; 
; feature fill
PRIO_ON
G1 X19.24872 Y4.2863 E770.54687 
; 
; feature travel
PRIO_OFF
G0 X18.7522 Y4.2863 ;Travel
; 
; feature fill
PRIO_ON
G1 X14.75473 Y-4.2863 E789.09357 
; 
; feature travel
PRIO_OFF
G0 X14.25821 Y-4.2863 ;Travel
; 
; feature fill
PRIO_ON
G1 X18.25568 Y4.2863 E807.64027 
; 
; feature travel
PRIO_OFF
G0 X17.75916 Y4.2863 ;Travel
; 
; feature fill
PRIO_ON
G1 X13.76169 Y-4.2863 E826.18697 
; 
; feature travel
PRIO_OFF
G0 X13.26517 Y-4.2863 ;Travel
; 
; feature fill
PRIO_ON
G1 X17.26264 Y4.2863 E844.73367 
; 
; feature travel
PRIO_OFF
G0 X16.76612 Y4.2863 ;Travel
; 
; feature fill
PRIO_ON
G1 X12.76865 Y-4.2863 E863.28037 
; 
; feature travel
PRIO_OFF
G0 X12.27213 Y-4.2863 ;Travel
; 
; feature fill
PRIO_ON
G1 X16.2696 Y4.2863 E881.82707 
; 
; feature travel
PRIO_OFF
G0 X15.77308 Y4.2863 ;Travel
; 
; feature fill
PRIO_ON
G1 X11.77561 Y-4.2863 E900.37378 
; 
; feature travel
PRIO_OFF
G0 X11.27909 Y-4.2863 ;Travel
; 
; feature fill
PRIO_ON
G1 X15.27656 Y4.2863 E918.92048 
; 
; feature travel
PRIO_OFF
G0 X14.78004 Y4.2863 ;Travel
; 
; feature fill
PRIO_ON
G1 X10.78257 Y-4.2863 E937.46718 
; 
; feature travel
PRIO_OFF
G0 X10.28605 Y-4.2863 ;Travel
; 
; feature fill
PRIO_ON
G1 X14.28352 Y4.2863 E956.01388 
; 
; feature travel
PRIO_OFF
G0 X13.787 Y4.2863 ;Travel
; 
; feature fill
PRIO_ON
G1 X9.78953 Y-4.2863 E974.56058 
; 
; feature travel
PRIO_OFF
G0 X9.29301 Y-4.2863 ;Travel
; 
; feature fill
PRIO_ON
G1 X13.29048 Y4.2863 E993.10728 
; 
; feature travel
PRIO_OFF
G0 X12.79396 Y4.2863 ;Travel
; 
; feature fill
PRIO_ON
G1 X8.79649 Y-4.2863 E1011.65398 
; 
; feature travel
PRIO_OFF
G0 X8.29997 Y-4.2863 ;Travel
; 
; feature fill
PRIO_ON
G1 X12.29744 Y4.2863 E1030.20068 
; 
; feature travel
PRIO_OFF
G0 X11.80092 Y4.2863 ;Travel
; 
; feature fill
PRIO_ON
G1 X7.80345 Y-4.2863 E1048.74738 
; 
; feature travel
PRIO_OFF
G0 X7.30693 Y-4.2863 ;Travel
; 
; feature fill
PRIO_ON
G1 X11.3044 Y4.2863 E1067.29409 
; 
; feature travel
PRIO_OFF
G0 X10.80788 Y4.2863 ;Travel
; 
; feature fill
PRIO_ON
G1 X6.81041 Y-4.2863 E1085.84079 
; 
; feature travel
PRIO_OFF
G0 X6.31389 Y-4.2863 ;Travel
; 
; feature fill
PRIO_ON
G1 X10.31136 Y4.2863 E1104.38749 
; 
; feature travel
PRIO_OFF
G0 X9.81484 Y4.2863 ;Travel
; 
; feature fill
PRIO_ON
G1 X5.81737 Y-4.2863 E1122.93419 
; 
; feature travel
PRIO_OFF
G0 X5.32085 Y-4.2863 ;Travel
; 
; feature fill
PRIO_ON
G1 X9.31832 Y4.2863 E1141.48089 
; 
; feature travel
PRIO_OFF
G0 X8.8218 Y4.2863 ;Travel
; 
; feature fill
PRIO_ON
G1 X4.82433 Y-4.2863 E1160.02759 
; 
; feature travel
PRIO_OFF
G0 X4.32781 Y-4.2863 ;Travel
; 
; feature fill
PRIO_ON
G1 X8.32528 Y4.2863 E1178.57429 
; 
; feature travel
PRIO_OFF
G0 X7.82876 Y4.2863 ;Travel
; 
; feature fill
PRIO_ON
G1 X3.83129 Y-4.2863 E1197.12099 
; 
; feature travel
PRIO_OFF
G0 X3.33477 Y-4.2863 ;Travel
; 
; feature fill
PRIO_ON
G1 X7.33224 Y4.2863 E1215.66769 
; 
; feature travel
PRIO_OFF
G0 X6.83572 Y4.2863 ;Travel
; 
; feature fill
PRIO_ON
G1 X2.83825 Y-4.2863 E1234.2144 
; 
; feature travel
PRIO_OFF
G0 X2.34173 Y-4.2863 ;Travel
; 
; feature fill
PRIO_ON
G1 X6.3392 Y4.2863 E1252.7611 
; 
; feature travel
PRIO_OFF
G0 X5.84268 Y4.2863 ;Travel
; 
; feature fill
PRIO_ON
G1 X1.84521 Y-4.2863 E1271.3078 
; 
; feature travel
PRIO_OFF
G0 X1.34869 Y-4.2863 ;Travel
; 
; feature fill
PRIO_ON
G1 X5.34616 Y4.2863 E1289.8545 
; 
; feature travel
PRIO_OFF
G0 X4.84964 Y4.2863 ;Travel
; 
; feature fill
PRIO_ON
G1 X0.85217 Y-4.2863 E1308.4012 
; 
; feature travel
PRIO_OFF
G0 X0.35565 Y-4.2863 ;Travel
; 
; feature fill
PRIO_ON
G1 X4.35312 Y4.2863 E1326.9479 
; 
; feature travel
PRIO_OFF
G0 X3.8566 Y4.2863 ;Travel
; 
; feature fill
PRIO_ON
G1 X-0.14087 Y-4.2863 E1345.4946 
; 
; feature travel
PRIO_OFF
G0 X-0.63739 Y-4.2863 ;Travel
; 
; feature fill
PRIO_ON
G1 X3.36008 Y4.2863 E1364.0413 
; 
; feature travel
PRIO_OFF
G0 X2.86356 Y4.2863 ;Travel
; 
; feature fill
PRIO_ON
G1 X-1.13391 Y-4.2863 E1382.588 
; 
; feature travel
PRIO_OFF
G0 X-1.63043 Y-4.2863 ;Travel
; 
; feature fill
PRIO_ON
G1 X2.36704 Y4.2863 E1401.1347 
; 
; feature travel
PRIO_OFF
G0 X1.87052 Y4.2863 ;Travel
; 
; feature fill
PRIO_ON
G1 X-2.12695 Y-4.2863 E1419.68141 
; 
; feature travel
PRIO_OFF
G0 X-2.62347 Y-4.2863 ;Travel
; 
; feature fill
PRIO_ON
G1 X1.374 Y4.2863 E1438.22811 
; 
; feature travel
PRIO_OFF
G0 X0.87748 Y4.2863 ;Travel
; 
; feature fill
PRIO_ON
G1 X-3.11999 Y-4.2863 E1456.77481 
; 
; feature travel
PRIO_OFF
G0 X-3.61651 Y-4.2863 ;Travel
; 
; feature fill
PRIO_ON
G1 X0.38096 Y4.2863 E1475.32151 
; 
; feature travel
PRIO_OFF
G0 X-0.11556 Y4.2863 ;Travel
; 
; feature fill
PRIO_ON
G1 X-4.11303 Y-4.2863 E1493.86821 
; 
; feature travel
PRIO_OFF
G0 X-4.60955 Y-4.2863 ;Travel
; 
; feature fill
PRIO_ON
G1 X-0.61208 Y4.2863 E1512.41491 
; 
; feature travel
PRIO_OFF
G0 X-1.10861 Y4.2863 ;Travel
; 
; feature fill
PRIO_ON
G1 X-5.10607 Y-4.2863 E1530.96161 
; 
; feature travel
PRIO_OFF
G0 X-5.60259 Y-4.2863 ;Travel
; 
; feature fill
PRIO_ON
G1 X-1.60513 Y4.2863 E1549.50831 
; 
; feature travel
PRIO_OFF
G0 X-2.10165 Y4.2863 ;Travel
; 
; feature fill
PRIO_ON
G1 X-6.09911 Y-4.2863 E1568.05501 
; 
; feature travel
PRIO_OFF
G0 X-6.59563 Y-4.2863 ;Travel
; 
; feature fill
PRIO_ON
G1 X-2.59817 Y4.2863 E1586.60172 
; 
; feature travel
PRIO_OFF
G0 X-3.09469 Y4.2863 ;Travel
; 
; feature fill
PRIO_ON
G1 X-7.09215 Y-4.2863 E1605.14842 
; 
; feature travel
PRIO_OFF
G0 X-7.58867 Y-4.2863 ;Travel
; 
; feature fill
PRIO_ON
G1 X-3.59121 Y4.2863 E1623.69512 
; 
; feature travel
PRIO_OFF
G0 X-4.08773 Y4.2863 ;Travel
; 
; feature fill
PRIO_ON
G1 X-8.08519 Y-4.2863 E1642.24182 
; 
; feature travel
PRIO_OFF
G0 X-8.58171 Y-4.2863 ;Travel
; 
; feature fill
PRIO_ON
G1 X-4.58425 Y4.2863 E1660.78852 
; 
; feature travel
PRIO_OFF
G0 X-5.08077 Y4.2863 ;Travel
; 
; feature fill
PRIO_ON
G1 X-9.07823 Y-4.2863 E1679.33522 
; 
; feature travel
PRIO_OFF
G0 X-9.57475 Y-4.2863 ;Travel
; 
; feature fill
PRIO_ON
G1 X-5.57729 Y4.2863 E1697.88192 
; 
; feature travel
PRIO_OFF
G0 X-6.07381 Y4.2863 ;Travel
; 
; feature fill
PRIO_ON
G1 X-10.07127 Y-4.2863 E1716.42862 
; 
; feature travel
PRIO_OFF
G0 X-10.56779 Y-4.2863 ;Travel
; 
; feature fill
PRIO_ON
G1 X-6.57033 Y4.2863 E1734.97532 
; 
; feature travel
PRIO_OFF
G0 X-7.06685 Y4.2863 ;Travel
; 
; feature fill
PRIO_ON
G1 X-11.06431 Y-4.2863 E1753.52203 
; 
; feature travel
PRIO_OFF
G0 X-11.56083 Y-4.2863 ;Travel
; 
; feature fill
PRIO_ON
G1 X-7.56337 Y4.2863 E1772.06873 
; 
; feature travel
PRIO_OFF
G0 X-8.05989 Y4.2863 ;Travel
; 
; feature fill
PRIO_ON
G1 X-12.05735 Y-4.2863 E1790.61543 
; 
; feature travel
PRIO_OFF
G0 X-12.55387 Y-4.2863 ;Travel
; 
; feature fill
PRIO_ON
G1 X-8.55641 Y4.2863 E1809.16213 
; 
; feature travel
PRIO_OFF
G0 X-9.05293 Y4.2863 ;Travel
; 
; feature fill
PRIO_ON
G1 X-13.0504 Y-4.2863 E1827.70883 
; 
; feature travel
PRIO_OFF
G0 X-13.54692 Y-4.2863 ;Travel
; 
; feature fill
PRIO_ON
G1 X-9.54945 Y4.2863 E1846.25553 
; 
; feature travel
PRIO_OFF
G0 X-10.04597 Y4.2863 ;Travel
; 
; feature fill
PRIO_ON
G1 X-14.04344 Y-4.2863 E1864.80223 
; 
; feature travel
PRIO_OFF
G0 X-14.53996 Y-4.2863 ;Travel
; 
; feature fill
PRIO_ON
G1 X-10.54249 Y4.2863 E1883.34893 
; 
; feature travel
PRIO_OFF
G0 X-11.03901 Y4.2863 ;Travel
; 
; feature fill
PRIO_ON
G1 X-15.03648 Y-4.2863 E1901.89563 
; 
; feature travel
PRIO_OFF
G0 X-15.533 Y-4.2863 ;Travel
; 
; feature fill
PRIO_ON
G1 X-11.53553 Y4.2863 E1920.44234 
; 
; feature travel
PRIO_OFF
G0 X-12.03205 Y4.2863 ;Travel
; 
; feature fill
PRIO_ON
G1 X-16.02952 Y-4.2863 E1938.98904 
; 
; feature travel
PRIO_OFF
G0 X-16.52604 Y-4.2863 ;Travel
; 
; feature fill
PRIO_ON
G1 X-12.52857 Y4.2863 E1957.53574 
; 
; feature travel
PRIO_OFF
G0 X-13.02509 Y4.2863 ;Travel
; 
; feature fill
PRIO_ON
G1 X-17.02256 Y-4.2863 E1976.08244 
; 
; feature travel
PRIO_OFF
G0 X-17.51908 Y-4.2863 ;Travel
; 
; feature fill
PRIO_ON
G1 X-13.52161 Y4.2863 E1994.62914 
; 
; feature travel
PRIO_OFF
G0 X-14.01813 Y4.2863 ;Travel
; 
; feature fill
PRIO_ON
G1 X-18.0156 Y-4.2863 E2013.17584 
; 
; feature travel
PRIO_OFF
G0 X-18.51212 Y-4.2863 ;Travel
; 
; feature fill
PRIO_ON
G1 X-14.51465 Y4.2863 E2031.72254 
; 
; feature travel
PRIO_OFF
G0 X-15.01117 Y4.2863 ;Travel
; 
; feature fill
PRIO_ON
G1 X-19.00864 Y-4.2863 E2050.26924 
; 
; feature travel
PRIO_OFF
G0 X-19.50516 Y-4.2863 ;Travel
; 
; feature fill
PRIO_ON
G1 X-15.50769 Y4.2863 E2068.81594 
; 
; feature travel
PRIO_OFF
G0 X-16.00421 Y4.2863 ;Travel
; 
; feature fill
PRIO_ON
G1 X-20.00168 Y-4.2863 E2087.36264 
; 
; feature travel
PRIO_OFF
G0 X-20.4982 Y-4.2863 ;Travel
; 
; feature fill
PRIO_ON
G1 X-16.50073 Y4.2863 E2105.90935 
; 
; feature travel
PRIO_OFF
G0 X-16.99725 Y4.2863 ;Travel
; 
; feature fill
PRIO_ON
G1 X-20.99472 Y-4.2863 E2124.45605 
; 
; feature travel
PRIO_OFF
G0 X-21.49124 Y-4.2863 ;Travel
; 
; feature fill
PRIO_ON
G1 X-17.49377 Y4.2863 E2143.00275 
; 
; feature travel
PRIO_OFF
G0 X-17.99029 Y4.2863 ;Travel
; 
; feature fill
PRIO_ON
G1 X-21.98776 Y-4.2863 E2161.54945 
; 
; feature travel
PRIO_OFF
G0 X-22.48428 Y-4.2863 ;Travel
; 
; feature fill
PRIO_ON
G1 X-18.48681 Y4.2863 E2180.09615 
; 
; feature travel
PRIO_OFF
G0 X-18.98333 Y4.2863 ;Travel
; 
; feature fill
PRIO_ON
G1 X-22.9808 Y-4.2863 E2198.64285 
; 
; feature travel
PRIO_OFF
G0 X-23.47732 Y-4.2863 ;Travel
; 
; feature fill
PRIO_ON
G1 X-19.47985 Y4.2863 E2217.18955 
; 
; feature travel
PRIO_OFF
G0 X-19.97637 Y4.2863 ;Travel
; 
; feature fill
PRIO_ON
G1 X-23.97384 Y-4.2863 E2235.73625 
; 
; feature travel
PRIO_OFF
G0 X-24.47036 Y-4.2863 ;Travel
; 
; feature fill
PRIO_ON
G1 X-20.47289 Y4.2863 E2254.28295 
; 
; feature travel
PRIO_OFF
G0 X-20.96941 Y4.2863 ;Travel
; 
; feature fill
PRIO_ON
G1 X-24.4947 Y-3.27371 E2270.63894 
; 
; feature travel
PRIO_OFF
G0 X-24.4947 Y-2.20892 ;Travel
; 
; feature fill
PRIO_ON
G1 X-21.46593 Y4.2863 E2284.69127 
; 
; feature travel
PRIO_OFF
G0 X-21.96245 Y4.2863 ;Travel
; 
; feature fill
PRIO_ON
G1 X-24.4947 Y-1.14413 E2296.43993 
; 
; feature travel
PRIO_OFF
G0 X-24.4947 Y-0.07934 ;Travel
; 
; feature fill
PRIO_ON
G1 X-22.45897 Y4.2863 E2305.88494 
; 
; feature travel
PRIO_OFF
G0 X-22.95549 Y4.2863 ;Travel
; 
; feature fill
PRIO_ON
G1 X-24.4947 Y0.98545 E2313.02628 
; 
; feature travel
PRIO_OFF
G0 X-24.4947 Y2.05024 ;Travel
; 
; feature fill
PRIO_ON
G1 X-23.45201 Y4.2863 E2317.86397 
; 
; feature travel
PRIO_OFF
G0 X-23.94853 Y4.2863 ;Travel
; 
; feature fill
PRIO_ON
G1 X-24.4947 Y3.11503 E2320.39799 
; 
; feature travel
PRIO_OFF
G0 X-24.4947 Y4.17982 ;Travel
; 
; feature fill
PRIO_ON
G1 X-24.44505 Y4.2863 E2320.62836 
PRIO_OFF
LayersCompleted=2
M1
; 
;========================
; layer 2, Z = 0.7200
; 
; reset extrusion
STOPRE
PRESETON(E, 0)
DO PRIO_PULSE_DISTANCE=DROP_SCALE
DO PRIO_ON_PATH_OFFSET=0.5*PRIO_PULSE_DISTANCE
;outer: (25.2604,-5.0521) (25.2604,5.0521) (-25.2604,5.0521) (-25.2604,-5.0521) (22.2604,-5.0521) holes: !
;overhangs:!
; 
; feature plane change
G0 X-24.44505 Y4.2863 Z0.72 ;Plane Change
; 
; feature travel
G0 X18.80579 Y-4.637 ;Travel
; 
; feature outer perimeter
G1 F24000 FL[E] = OuterPerimeterFrequency * DROP_SCALE * 60
PRIO_ON
G1 X24.8454 Y-4.637 E14.21084 
G1 X24.8454 Y4.637 E36.03202 
G1 X-24.8454 Y4.637 E152.95155 
G1 X-24.8454 Y-4.637 E174.77272 
G1 X18.80579 Y-4.637 E277.48141 
; 
; feature travel
PRIO_OFF
G0 X18.80579 Y-4.286 ;Travel
; 
; feature inner perimeter
G1 F24000 FL[E] = InnerPerimeterFrequency * DROP_SCALE * 60
PRIO_ON
G1 X-24.4944 Y-4.286 E357.66695 
G1 X-24.4944 Y4.286 E373.54103 
G1 X24.4944 Y4.286 E464.26103 
G1 X24.4944 Y-4.286 E480.1351 
G1 X18.80579 Y-4.286 E490.66956 
; 
; feature travel
PRIO_OFF
G0 X18.65239 Y-4.2863 ;Travel
; 
; feature fill
G1 F24000 FL[E] = FillFrequency * DROP_SCALE * 60
PRIO_ON
G1 X15.53222 Y4.2863 E508.55734 
; 
; feature travel
PRIO_OFF
G0 X16.0111 Y4.2863 ;Travel
; 
; feature fill
PRIO_ON
G1 X19.13127 Y-4.2863 E526.44513 
; 
; feature travel
PRIO_OFF
G0 X19.61015 Y-4.2863 ;Travel
; 
; feature fill
PRIO_ON
G1 X16.48998 Y4.2863 E544.33292 
; 
; feature travel
PRIO_OFF
G0 X16.96886 Y4.2863 ;Travel
; 
; feature fill
PRIO_ON
G1 X20.08903 Y-4.2863 E562.2207 
; 
; feature travel
PRIO_OFF
G0 X20.56791 Y-4.2863 ;Travel
; 
; feature fill
PRIO_ON
G1 X17.44774 Y4.2863 E580.10849 
; 
; feature travel
PRIO_OFF
G0 X17.92662 Y4.2863 ;Travel
; 
; feature fill
PRIO_ON
G1 X21.04679 Y-4.2863 E597.99627 
; 
; feature travel
PRIO_OFF
G0 X21.52567 Y-4.2863 ;Travel
; 
; feature fill
PRIO_ON
G1 X18.4055 Y4.2863 E615.88406 
; 
; feature travel
PRIO_OFF
G0 X18.88438 Y4.2863 ;Travel
; 
; feature fill
PRIO_ON
G1 X22.00455 Y-4.2863 E633.77184 
; 
; feature travel
PRIO_OFF
G0 X22.48343 Y-4.2863 ;Travel
; 
; feature fill
PRIO_ON
G1 X19.36326 Y4.2863 E651.65963 
; 
; feature travel
PRIO_OFF
G0 X19.84214 Y4.2863 ;Travel
; 
; feature fill
PRIO_ON
G1 X22.96231 Y-4.2863 E669.54741 
; 
; feature travel
PRIO_OFF
G0 X23.44119 Y-4.2863 ;Travel
; 
; feature fill
PRIO_ON
G1 X20.32102 Y4.2863 E687.4352 
; 
; feature travel
PRIO_OFF
G0 X20.7999 Y4.2863 ;Travel
; 
; feature fill
PRIO_ON
G1 X23.92007 Y-4.2863 E705.32298 
; 
; feature travel
PRIO_OFF
G0 X24.39895 Y-4.2863 ;Travel
; 
; feature fill
PRIO_ON
G1 X21.27878 Y4.2863 E723.21077 
; 
; feature travel
PRIO_OFF
G0 X21.75766 Y4.2863 ;Travel
; 
; feature fill
PRIO_ON
G1 X24.4947 Y-3.23367 E738.9021 
; 
; feature travel
PRIO_OFF
G0 X24.4947 Y-1.91795 ;Travel
; 
; feature fill
PRIO_ON
G1 X22.23654 Y4.2863 E751.84804 
; 
; feature travel
PRIO_OFF
G0 X22.71542 Y4.2863 ;Travel
; 
; feature fill
PRIO_ON
G1 X24.4947 Y-0.60224 E762.04858 
; 
; feature travel
PRIO_OFF
G0 X24.4947 Y0.71347 ;Travel
; 
; feature fill
PRIO_ON
G1 X23.1943 Y4.2863 E769.50373 
; 
; feature travel
PRIO_OFF
G0 X23.67318 Y4.2863 ;Travel
; 
; feature fill
PRIO_ON
G1 X24.4947 Y2.02918 E774.21348 
; 
; feature travel
PRIO_OFF
G0 X24.4947 Y3.34489 ;Travel
; 
; feature fill
PRIO_ON
G1 X24.15206 Y4.2863 E776.17784 
; 
; feature travel
PRIO_OFF
G0 X15.05334 Y4.2863 ;Travel
; 
; feature fill
PRIO_ON
G1 X18.17351 Y-4.2863 E794.06562 
; 
; feature travel
PRIO_OFF
G0 X17.69463 Y-4.2863 ;Travel
; 
; feature fill
PRIO_ON
G1 X14.57446 Y4.2863 E811.95341 
; 
; feature travel
PRIO_OFF
G0 X14.09558 Y4.2863 ;Travel
; 
; feature fill
PRIO_ON
G1 X17.21575 Y-4.2863 E829.84119 
; 
; feature travel
PRIO_OFF
G0 X16.73687 Y-4.2863 ;Travel
; 
; feature fill
PRIO_ON
G1 X13.6167 Y4.2863 E847.72898 
; 
; feature travel
PRIO_OFF
G0 X13.13782 Y4.2863 ;Travel
; 
; feature fill
PRIO_ON
G1 X16.25799 Y-4.2863 E865.61676 
; 
; feature travel
PRIO_OFF
G0 X15.77911 Y-4.2863 ;Travel
; 
; feature fill
PRIO_ON
G1 X12.65894 Y4.2863 E883.50455 
; 
; feature travel
PRIO_OFF
G0 X12.18006 Y4.2863 ;Travel
; 
; feature fill
PRIO_ON
G1 X15.30023 Y-4.2863 E901.39233 
; 
; feature travel
PRIO_OFF
G0 X14.82135 Y-4.2863 ;Travel
; 
; feature fill
PRIO_ON
G1 X11.70118 Y4.2863 E919.28012 
; 
; feature travel
PRIO_OFF
G0 X11.2223 Y4.2863 ;Travel
; 
; feature fill
PRIO_ON
G1 X14.34247 Y-4.2863 E937.1679 
; 
; feature travel
PRIO_OFF
G0 X13.86359 Y-4.2863 ;Travel
; 
; feature fill
PRIO_ON
G1 X10.74342 Y4.2863 E955.05569 
; 
; feature travel
PRIO_OFF
G0 X10.26454 Y4.2863 ;Travel
; 
; feature fill
PRIO_ON
G1 X13.38471 Y-4.2863 E972.94347 
; 
; feature travel
PRIO_OFF
G0 X12.90583 Y-4.2863 ;Travel
; 
; feature fill
PRIO_ON
G1 X9.78566 Y4.2863 E990.83126 
; 
; feature travel
PRIO_OFF
G0 X9.30678 Y4.2863 ;Travel
; 
; feature fill
PRIO_ON
G1 X12.42695 Y-4.2863 E1008.71904 
; 
; feature travel
PRIO_OFF
G0 X11.94807 Y-4.2863 ;Travel
; 
; feature fill
PRIO_ON
G1 X8.8279 Y4.2863 E1026.60683 
; 
; feature travel
PRIO_OFF
G0 X8.34902 Y4.2863 ;Travel
; 
; feature fill
PRIO_ON
G1 X11.46919 Y-4.2863 E1044.49461 
; 
; feature travel
PRIO_OFF
G0 X10.99031 Y-4.2863 ;Travel
; 
; feature fill
PRIO_ON
G1 X7.87014 Y4.2863 E1062.3824 
; 
; feature travel
PRIO_OFF
G0 X7.39126 Y4.2863 ;Travel
; 
; feature fill
PRIO_ON
G1 X10.51143 Y-4.2863 E1080.27018 
; 
; feature travel
PRIO_OFF
G0 X10.03255 Y-4.2863 ;Travel
; 
; feature fill
PRIO_ON
G1 X6.91238 Y4.2863 E1098.15797 
; 
; feature travel
PRIO_OFF
G0 X6.4335 Y4.2863 ;Travel
; 
; feature fill
PRIO_ON
G1 X9.55367 Y-4.2863 E1116.04575 
; 
; feature travel
PRIO_OFF
G0 X9.07479 Y-4.2863 ;Travel
; 
; feature fill
PRIO_ON
G1 X5.95462 Y4.2863 E1133.93354 
; 
; feature travel
PRIO_OFF
G0 X5.47574 Y4.2863 ;Travel
; 
; feature fill
PRIO_ON
G1 X8.59591 Y-4.2863 E1151.82132 
; 
; feature travel
PRIO_OFF
G0 X8.11703 Y-4.2863 ;Travel
; 
; feature fill
PRIO_ON
G1 X4.99686 Y4.2863 E1169.70911 
; 
; feature travel
PRIO_OFF
G0 X4.51798 Y4.2863 ;Travel
; 
; feature fill
PRIO_ON
G1 X7.63815 Y-4.2863 E1187.59689 
; 
; feature travel
PRIO_OFF
G0 X7.15927 Y-4.2863 ;Travel
; 
; feature fill
PRIO_ON
G1 X4.0391 Y4.2863 E1205.48468 
; 
; feature travel
PRIO_OFF
G0 X3.56022 Y4.2863 ;Travel
; 
; feature fill
PRIO_ON
G1 X6.68039 Y-4.2863 E1223.37246 
; 
; feature travel
PRIO_OFF
G0 X6.20151 Y-4.2863 ;Travel
; 
; feature fill
PRIO_ON
G1 X3.08134 Y4.2863 E1241.26025 
; 
; feature travel
PRIO_OFF
G0 X2.60246 Y4.2863 ;Travel
; 
; feature fill
PRIO_ON
G1 X5.72263 Y-4.2863 E1259.14803 
; 
; feature travel
PRIO_OFF
G0 X5.24375 Y-4.2863 ;Travel
; 
; feature fill
PRIO_ON
G1 X2.12358 Y4.2863 E1277.03582 
; 
; feature travel
PRIO_OFF
G0 X1.6447 Y4.2863 ;Travel
; 
; feature fill
PRIO_ON
G1 X4.76487 Y-4.2863 E1294.9236 
; 
; feature travel
PRIO_OFF
G0 X4.28599 Y-4.2863 ;Travel
; 
; feature fill
PRIO_ON
G1 X1.16582 Y4.2863 E1312.81139 
; 
; feature travel
PRIO_OFF
G0 X0.68694 Y4.2863 ;Travel
; 
; feature fill
PRIO_ON
G1 X3.80711 Y-4.2863 E1330.69917 
; 
; feature travel
PRIO_OFF
G0 X3.32823 Y-4.2863 ;Travel
; 
; feature fill
PRIO_ON
G1 X0.20806 Y4.2863 E1348.58696 
; 
; feature travel
PRIO_OFF
G0 X-0.27082 Y4.2863 ;Travel
; 
; feature fill
PRIO_ON
G1 X2.84935 Y-4.2863 E1366.47474 
; 
; feature travel
PRIO_OFF
G0 X2.37047 Y-4.2863 ;Travel
; 
; feature fill
PRIO_ON
G1 X-0.7497 Y4.2863 E1384.36253 
; 
; feature travel
PRIO_OFF
G0 X-1.22858 Y4.2863 ;Travel
; 
; feature fill
PRIO_ON
G1 X1.89159 Y-4.2863 E1402.25031 
; 
; feature travel
PRIO_OFF
G0 X1.41271 Y-4.2863 ;Travel
; 
; feature fill
PRIO_ON
G1 X-1.70746 Y4.2863 E1420.1381 
; 
; feature travel
PRIO_OFF
G0 X-2.18634 Y4.2863 ;Travel
; 
; feature fill
PRIO_ON
G1 X0.93383 Y-4.2863 E1438.02588 
; 
; feature travel
PRIO_OFF
G0 X0.45495 Y-4.2863 ;Travel
; 
; feature fill
PRIO_ON
G1 X-2.66522 Y4.2863 E1455.91367 
; 
; feature travel
PRIO_OFF
G0 X-3.1441 Y4.2863 ;Travel
; 
; feature fill
PRIO_ON
G1 X-0.02393 Y-4.2863 E1473.80145 
; 
; feature travel
PRIO_OFF
G0 X-0.50281 Y-4.2863 ;Travel
; 
; feature fill
PRIO_ON
G1 X-3.62298 Y4.2863 E1491.68924 
; 
; feature travel
PRIO_OFF
G0 X-4.10186 Y4.2863 ;Travel
; 
; feature fill
PRIO_ON
G1 X-0.98169 Y-4.2863 E1509.57702 
; 
; feature travel
PRIO_OFF
G0 X-1.46057 Y-4.2863 ;Travel
; 
; feature fill
PRIO_ON
G1 X-4.58074 Y4.2863 E1527.46481 
; 
; feature travel
PRIO_OFF
G0 X-5.05962 Y4.2863 ;Travel
; 
; feature fill
PRIO_ON
G1 X-1.93945 Y-4.2863 E1545.35259 
; 
; feature travel
PRIO_OFF
G0 X-2.41833 Y-4.2863 ;Travel
; 
; feature fill
PRIO_ON
G1 X-5.5385 Y4.2863 E1563.24038 
; 
; feature travel
PRIO_OFF
G0 X-6.01738 Y4.2863 ;Travel
; 
; feature fill
PRIO_ON
G1 X-2.89721 Y-4.2863 E1581.12816 
; 
; feature travel
PRIO_OFF
G0 X-3.37609 Y-4.2863 ;Travel
; 
; feature fill
PRIO_ON
G1 X-6.49626 Y4.2863 E1599.01595 
; 
; feature travel
PRIO_OFF
G0 X-6.97514 Y4.2863 ;Travel
; 
; feature fill
PRIO_ON
G1 X-3.85497 Y-4.2863 E1616.90373 
; 
; feature travel
PRIO_OFF
G0 X-4.33385 Y-4.2863 ;Travel
; 
; feature fill
PRIO_ON
G1 X-7.45402 Y4.2863 E1634.79152 
; 
; feature travel
PRIO_OFF
G0 X-7.9329 Y4.2863 ;Travel
; 
; feature fill
PRIO_ON
G1 X-4.81273 Y-4.2863 E1652.6793 
; 
; feature travel
PRIO_OFF
G0 X-5.29161 Y-4.2863 ;Travel
; 
; feature fill
PRIO_ON
G1 X-8.41178 Y4.2863 E1670.56709 
; 
; feature travel
PRIO_OFF
G0 X-8.89066 Y4.2863 ;Travel
; 
; feature fill
PRIO_ON
G1 X-5.77049 Y-4.2863 E1688.45488 
; 
; feature travel
PRIO_OFF
G0 X-6.24937 Y-4.2863 ;Travel
; 
; feature fill
PRIO_ON
G1 X-9.36954 Y4.2863 E1706.34266 
; 
; feature travel
PRIO_OFF
G0 X-9.84842 Y4.2863 ;Travel
; 
; feature fill
PRIO_ON
G1 X-6.72825 Y-4.2863 E1724.23045 
; 
; feature travel
PRIO_OFF
G0 X-7.20713 Y-4.2863 ;Travel
; 
; feature fill
PRIO_ON
G1 X-10.3273 Y4.2863 E1742.11823 
; 
; feature travel
PRIO_OFF
G0 X-10.80618 Y4.2863 ;Travel
; 
; feature fill
PRIO_ON
G1 X-7.68601 Y-4.2863 E1760.00602 
; 
; feature travel
PRIO_OFF
G0 X-8.16489 Y-4.2863 ;Travel
; 
; feature fill
PRIO_ON
G1 X-11.28506 Y4.2863 E1777.8938 
; 
; feature travel
PRIO_OFF
G0 X-11.76394 Y4.2863 ;Travel
; 
; feature fill
PRIO_ON
G1 X-8.64377 Y-4.2863 E1795.78159 
; 
; feature travel
PRIO_OFF
G0 X-9.12265 Y-4.2863 ;Travel
; 
; feature fill
PRIO_ON
G1 X-12.24282 Y4.2863 E1813.66937 
; 
; feature travel
PRIO_OFF
G0 X-12.7217 Y4.2863 ;Travel
; 
; feature fill
PRIO_ON
G1 X-9.60153 Y-4.2863 E1831.55716 
; 
; feature travel
PRIO_OFF
G0 X-10.08041 Y-4.2863 ;Travel
; 
; feature fill
PRIO_ON
G1 X-13.20058 Y4.2863 E1849.44494 
; 
; feature travel
PRIO_OFF
G0 X-13.67946 Y4.2863 ;Travel
; 
; feature fill
PRIO_ON
G1 X-10.55929 Y-4.2863 E1867.33273 
; 
; feature travel
PRIO_OFF
G0 X-11.03817 Y-4.2863 ;Travel
; 
; feature fill
PRIO_ON
G1 X-14.15834 Y4.2863 E1885.22051 
; 
; feature travel
PRIO_OFF
G0 X-14.63722 Y4.2863 ;Travel
; 
; feature fill
PRIO_ON
G1 X-11.51705 Y-4.2863 E1903.1083 
; 
; feature travel
PRIO_OFF
G0 X-11.99593 Y-4.2863 ;Travel
; 
; feature fill
PRIO_ON
G1 X-15.1161 Y4.2863 E1920.99608 
; 
; feature travel
PRIO_OFF
G0 X-15.59498 Y4.2863 ;Travel
; 
; feature fill
PRIO_ON
G1 X-12.47481 Y-4.2863 E1938.88387 
; 
; feature travel
PRIO_OFF
G0 X-12.95369 Y-4.2863 ;Travel
; 
; feature fill
PRIO_ON
G1 X-16.07386 Y4.2863 E1956.77165 
; 
; feature travel
PRIO_OFF
G0 X-16.55274 Y4.2863 ;Travel
; 
; feature fill
PRIO_ON
G1 X-13.43257 Y-4.2863 E1974.65944 
; 
; feature travel
PRIO_OFF
G0 X-13.91145 Y-4.2863 ;Travel
; 
; feature fill
PRIO_ON
G1 X-17.03162 Y4.2863 E1992.54722 
; 
; feature travel
PRIO_OFF
G0 X-17.5105 Y4.2863 ;Travel
; 
; feature fill
PRIO_ON
G1 X-14.39033 Y-4.2863 E2010.43501 
; 
; feature travel
PRIO_OFF
G0 X-14.86921 Y-4.2863 ;Travel
; 
; feature fill
PRIO_ON
G1 X-17.98938 Y4.2863 E2028.32279 
; 
; feature travel
PRIO_OFF
G0 X-18.46826 Y4.2863 ;Travel
; 
; feature fill
PRIO_ON
G1 X-15.34809 Y-4.2863 E2046.21058 
; 
; feature travel
PRIO_OFF
G0 X-15.82697 Y-4.2863 ;Travel
; 
; feature fill
PRIO_ON
G1 X-18.94714 Y4.2863 E2064.09836 
; 
; feature travel
PRIO_OFF
G0 X-19.42602 Y4.2863 ;Travel
; 
; feature fill
PRIO_ON
G1 X-16.30585 Y-4.2863 E2081.98615 
; 
; feature travel
PRIO_OFF
G0 X-16.78473 Y-4.2863 ;Travel
; 
; feature fill
PRIO_ON
G1 X-19.9049 Y4.2863 E2099.87393 
; 
; feature travel
PRIO_OFF
G0 X-20.38378 Y4.2863 ;Travel
; 
; feature fill
PRIO_ON
G1 X-17.26361 Y-4.2863 E2117.76172 
; 
; feature travel
PRIO_OFF
G0 X-17.74249 Y-4.2863 ;Travel
; 
; feature fill
PRIO_ON
G1 X-20.86266 Y4.2863 E2135.6495 
; 
; feature travel
PRIO_OFF
G0 X-21.34154 Y4.2863 ;Travel
; 
; feature fill
PRIO_ON
G1 X-18.22137 Y-4.2863 E2153.53729 
; 
; feature travel
PRIO_OFF
G0 X-18.70025 Y-4.2863 ;Travel
; 
; feature fill
PRIO_ON
G1 X-21.82042 Y4.2863 E2171.42507 
; 
; feature travel
PRIO_OFF
G0 X-22.2993 Y4.2863 ;Travel
; 
; feature fill
PRIO_ON
G1 X-19.17913 Y-4.2863 E2189.31286 
; 
; feature travel
PRIO_OFF
G0 X-19.65801 Y-4.2863 ;Travel
; 
; feature fill
PRIO_ON
G1 X-22.77818 Y4.2863 E2207.20064 
; 
; feature travel
PRIO_OFF
G0 X-23.25706 Y4.2863 ;Travel
; 
; feature fill
PRIO_ON
G1 X-20.13689 Y-4.2863 E2225.08843 
; 
; feature travel
PRIO_OFF
G0 X-20.61577 Y-4.2863 ;Travel
; 
; feature fill
PRIO_ON
G1 X-23.73594 Y4.2863 E2242.97621 
; 
; feature travel
PRIO_OFF
G0 X-24.21482 Y4.2863 ;Travel
; 
; feature fill
PRIO_ON
G1 X-21.09465 Y-4.2863 E2260.864 
; 
; feature travel
PRIO_OFF
G0 X-21.57353 Y-4.2863 ;Travel
; 
; feature fill
PRIO_ON
G1 X-24.4947 Y3.73954 E2277.61091 
; 
; feature travel
PRIO_OFF
G0 X-24.4947 Y2.42383 ;Travel
; 
; feature fill
PRIO_ON
G1 X-22.05241 Y-4.2863 E2291.61242 
; 
; feature travel
PRIO_OFF
G0 X-22.53129 Y-4.2863 ;Travel
; 
; feature fill
PRIO_ON
G1 X-24.4947 Y1.10812 E2302.86854 
; 
; feature travel
PRIO_OFF
G0 X-24.4947 Y-0.20759 ;Travel
; 
; feature fill
PRIO_ON
G1 X-23.01017 Y-4.2863 E2311.37926 
; 
; feature travel
PRIO_OFF
G0 X-23.48905 Y-4.2863 ;Travel
; 
; feature fill
PRIO_ON
G1 X-24.4947 Y-1.5233 E2317.14459 
; 
; feature travel
PRIO_OFF
G0 X-24.4947 Y-2.83902 ;Travel
; 
; feature fill
PRIO_ON
G1 X-23.96793 Y-4.2863 E2320.16453 
; 
; feature travel
PRIO_OFF
G0 X-24.44681 Y-4.2863 ;Travel
; 
; feature fill
PRIO_ON
G1 X-24.4947 Y-4.15473 E2320.43907 
PRIO_OFF
LayersCompleted=3
M1
; 
;========================
; layer 3, Z = 0.9600
; 
; reset extrusion
STOPRE
PRESETON(E, 0)
DO PRIO_PULSE_DISTANCE=DROP_SCALE
DO PRIO_ON_PATH_OFFSET=0.5*PRIO_PULSE_DISTANCE
;outer: (25.2604,-5.0521) (25.2604,5.0521) (-25.2604,5.0521) (-25.2604,-5.0521) (21.0604,-5.0521) holes: !
;overhangs:!
; 
; feature plane change
G0 X-24.4947 Y-4.15473 Z0.96 ;Plane Change
; 
; feature travel
G0 X-23.94903 Y4.637 ;Travel
; 
; feature outer perimeter
G1 F24000 FL[E] = OuterPerimeterFrequency * DROP_SCALE * 60
PRIO_ON
G1 X24.8454 Y4.637 E114.81043 
G1 X24.8454 Y-4.637 E136.63161 
G1 X-24.8454 Y-4.637 E253.55114 
G1 X-24.8454 Y4.637 E275.37231 
G1 X-23.94903 Y4.637 E277.48141 
; 
; feature travel
PRIO_OFF
G0 X-23.94903 Y4.286 ;Travel
; 
; feature inner perimeter
G1 F24000 FL[E] = InnerPerimeterFrequency * DROP_SCALE * 60
PRIO_ON
G1 X-24.4944 Y4.286 E278.49135 
G1 X-24.4944 Y-4.286 E294.36543 
G1 X24.4944 Y-4.286 E385.08543 
G1 X24.4944 Y4.286 E400.9595 
G1 X-23.94903 Y4.286 E490.66956 
; 
; feature travel
PRIO_OFF
G0 X-23.60599 Y4.2863 ;Travel
; 
; feature fill
G1 F24000 FL[E] = FillFrequency * DROP_SCALE * 60
PRIO_ON
G1 X-5.22199 Y-4.2863 E530.44309 
; 
; feature travel
PRIO_OFF
G0 X-6.28678 Y-4.2863 ;Travel
; 
; feature fill
PRIO_ON
G1 X-24.4947 Y4.20419 E569.83567 
; 
; feature travel
PRIO_OFF
G0 X-24.4947 Y3.70767 ;Travel
; 
; feature fill
PRIO_ON
G1 X-7.35157 Y-4.2863 E606.9246 
; 
; feature travel
PRIO_OFF
G0 X-8.41636 Y-4.2863 ;Travel
; 
; feature fill
PRIO_ON
G1 X-24.4947 Y3.21115 E641.70986 
; 
; feature travel
PRIO_OFF
G0 X-24.4947 Y2.71463 ;Travel
; 
; feature fill
PRIO_ON
G1 X-9.48115 Y-4.2863 E674.19147 
; 
; feature travel
PRIO_OFF
G0 X-10.54594 Y-4.2863 ;Travel
; 
; feature fill
PRIO_ON
G1 X-24.4947 Y2.21811 E704.36941 
; 
; feature travel
PRIO_OFF
G0 X-24.4947 Y1.72159 ;Travel
; 
; feature fill
PRIO_ON
G1 X-11.61073 Y-4.2863 E732.2437 
; 
; feature travel
PRIO_OFF
G0 X-12.67552 Y-4.2863 ;Travel
; 
; feature fill
PRIO_ON
G1 X-24.4947 Y1.22507 E757.81432 
; 
; feature travel
PRIO_OFF
G0 X-24.4947 Y0.72855 ;Travel
; 
; feature fill
PRIO_ON
G1 X-13.74031 Y-4.2863 E781.08129 
; 
; feature travel
PRIO_OFF
G0 X-14.8051 Y-4.2863 ;Travel
; 
; feature fill
PRIO_ON
G1 X-24.4947 Y0.23203 E802.04459 
; 
; feature travel
PRIO_OFF
G0 X-24.4947 Y-0.26449 ;Travel
; 
; feature fill
PRIO_ON
G1 X-15.8699 Y-4.2863 E820.70424 
; 
; feature travel
PRIO_OFF
G0 X-16.93469 Y-4.2863 ;Travel
; 
; feature fill
PRIO_ON
G1 X-24.4947 Y-0.76101 E837.06022 
; 
; feature travel
PRIO_OFF
G0 X-24.4947 Y-1.25753 ;Travel
; 
; feature fill
PRIO_ON
G1 X-17.99948 Y-4.2863 E851.11255 
; 
; feature travel
PRIO_OFF
G0 X-19.06427 Y-4.2863 ;Travel
; 
; feature fill
PRIO_ON
G1 X-24.4947 Y-1.75405 E862.86122 
; 
; feature travel
PRIO_OFF
G0 X-24.4947 Y-2.25057 ;Travel
; 
; feature fill
PRIO_ON
G1 X-20.12906 Y-4.2863 E872.30622 
; 
; feature travel
PRIO_OFF
G0 X-21.19385 Y-4.2863 ;Travel
; 
; feature fill
PRIO_ON
G1 X-24.4947 Y-2.74709 E879.44757 
; 
; feature travel
PRIO_OFF
G0 X-24.4947 Y-3.24361 ;Travel
; 
; feature fill
PRIO_ON
G1 X-22.25864 Y-4.2863 E884.28525 
; 
; feature travel
PRIO_OFF
G0 X-23.32343 Y-4.2863 ;Travel
; 
; feature fill
PRIO_ON
G1 X-24.4947 Y-3.74013 E886.81928 
; 
; feature travel
PRIO_OFF
G0 X-24.4947 Y-4.23665 ;Travel
; 
; feature fill
PRIO_ON
G1 X-24.38822 Y-4.2863 E887.04964 
; 
; feature travel
PRIO_OFF
G0 X-22.5412 Y4.2863 ;Travel
; 
; feature fill
PRIO_ON
G1 X-4.1572 Y-4.2863 E926.82317 
; 
; feature travel
PRIO_OFF
G0 X-3.09241 Y-4.2863 ;Travel
; 
; feature fill
PRIO_ON
G1 X-21.47641 Y4.2863 E966.5967 
; 
; feature travel
PRIO_OFF
G0 X-20.41162 Y4.2863 ;Travel
; 
; feature fill
PRIO_ON
G1 X-2.02762 Y-4.2863 E1006.37023 
; 
; feature travel
PRIO_OFF
G0 X-0.96283 Y-4.2863 ;Travel
; 
; feature fill
PRIO_ON
G1 X-19.34683 Y4.2863 E1046.14376 
; 
; feature travel
PRIO_OFF
G0 X-18.28203 Y4.2863 ;Travel
; 
; feature fill
PRIO_ON
G1 X0.10197 Y-4.2863 E1085.91729 
; 
; feature travel
PRIO_OFF
G0 X1.16676 Y-4.2863 ;Travel
; 
; feature fill
PRIO_ON
G1 X-17.21724 Y4.2863 E1125.69082 
; 
; feature travel
PRIO_OFF
G0 X-16.15245 Y4.2863 ;Travel
; 
; feature fill
PRIO_ON
G1 X2.23155 Y-4.2863 E1165.46435 
; 
; feature travel
PRIO_OFF
G0 X3.29634 Y-4.2863 ;Travel
; 
; feature fill
PRIO_ON
G1 X-15.08766 Y4.2863 E1205.23788 
; 
; feature travel
PRIO_OFF
G0 X-14.02287 Y4.2863 ;Travel
; 
; feature fill
PRIO_ON
G1 X4.36113 Y-4.2863 E1245.0114 
; 
; feature travel
PRIO_OFF
G0 X5.42592 Y-4.2863 ;Travel
; 
; feature fill
PRIO_ON
G1 X-12.95808 Y4.2863 E1284.78493 
; 
; feature travel
PRIO_OFF
G0 X-11.89329 Y4.2863 ;Travel
; 
; feature fill
PRIO_ON
G1 X6.49071 Y-4.2863 E1324.55846 
; 
; feature travel
PRIO_OFF
G0 X7.5555 Y-4.2863 ;Travel
; 
; feature fill
PRIO_ON
G1 X-10.8285 Y4.2863 E1364.33199 
; 
; feature travel
PRIO_OFF
G0 X-9.76371 Y4.2863 ;Travel
; 
; feature fill
PRIO_ON
G1 X8.62029 Y-4.2863 E1404.10552 
; 
; feature travel
PRIO_OFF
G0 X9.68508 Y-4.2863 ;Travel
; 
; feature fill
PRIO_ON
G1 X-8.69892 Y4.2863 E1443.87905 
; 
; feature travel
PRIO_OFF
G0 X-7.63413 Y4.2863 ;Travel
; 
; feature fill
PRIO_ON
G1 X10.74987 Y-4.2863 E1483.65258 
; 
; feature travel
PRIO_OFF
G0 X11.81466 Y-4.2863 ;Travel
; 
; feature fill
PRIO_ON
G1 X-6.56934 Y4.2863 E1523.42611 
; 
; feature travel
PRIO_OFF
G0 X-5.50455 Y4.2863 ;Travel
; 
; feature fill
PRIO_ON
G1 X12.87945 Y-4.2863 E1563.19963 
; 
; feature travel
PRIO_OFF
G0 X13.94424 Y-4.2863 ;Travel
; 
; feature fill
PRIO_ON
G1 X-4.43976 Y4.2863 E1602.97316 
; 
; feature travel
PRIO_OFF
G0 X-3.37496 Y4.2863 ;Travel
; 
; feature fill
PRIO_ON
G1 X15.00904 Y-4.2863 E1642.74669 
; 
; feature travel
PRIO_OFF
G0 X16.07383 Y-4.2863 ;Travel
; 
; feature fill
PRIO_ON
G1 X-2.31017 Y4.2863 E1682.52022 
; 
; feature travel
PRIO_OFF
G0 X-1.24538 Y4.2863 ;Travel
; 
; feature fill
PRIO_ON
G1 X17.13862 Y-4.2863 E1722.29375 
; 
; feature travel
PRIO_OFF
G0 X18.20341 Y-4.2863 ;Travel
; 
; feature fill
PRIO_ON
G1 X-0.18059 Y4.2863 E1762.06728 
; 
; feature travel
PRIO_OFF
G0 X0.8842 Y4.2863 ;Travel
; 
; feature fill
PRIO_ON
G1 X19.2682 Y-4.2863 E1801.84081 
; 
; feature travel
PRIO_OFF
G0 X20.33299 Y-4.2863 ;Travel
; 
; feature fill
PRIO_ON
G1 X1.94899 Y4.2863 E1841.61434 
; 
; feature travel
PRIO_OFF
G0 X3.01378 Y4.2863 ;Travel
; 
; feature fill
PRIO_ON
G1 X21.39778 Y-4.2863 E1881.38786 
; 
; feature travel
PRIO_OFF
G0 X22.46257 Y-4.2863 ;Travel
; 
; feature fill
PRIO_ON
G1 X4.07857 Y4.2863 E1921.16139 
; 
; feature travel
PRIO_OFF
G0 X5.14336 Y4.2863 ;Travel
; 
; feature fill
PRIO_ON
G1 X23.52736 Y-4.2863 E1960.93492 
; 
; feature travel
PRIO_OFF
G0 X24.4947 Y-4.24086 ;Travel
; 
; feature fill
PRIO_ON
G1 X6.20815 Y4.2863 E2000.49762 
; 
; feature travel
PRIO_OFF
G0 X7.27294 Y4.2863 ;Travel
; 
; feature fill
PRIO_ON
G1 X24.4947 Y-3.74434 E2037.75665 
; 
; feature travel
PRIO_OFF
G0 X24.4947 Y-3.24782 ;Travel
; 
; feature fill
PRIO_ON
G1 X8.33773 Y4.2863 E2072.71202 
; 
; feature travel
PRIO_OFF
G0 X9.40252 Y4.2863 ;Travel
; 
; feature fill
PRIO_ON
G1 X24.4947 Y-2.7513 E2105.36374 
; 
; feature travel
PRIO_OFF
G0 X24.4947 Y-2.25478 ;Travel
; 
; feature fill
PRIO_ON
G1 X10.46731 Y4.2863 E2135.71179 
; 
; feature travel
PRIO_OFF
G0 X11.53211 Y4.2863 ;Travel
; 
; feature fill
PRIO_ON
G1 X24.4947 Y-1.75826 E2163.75618 
; 
; feature travel
PRIO_OFF
G0 X24.4947 Y-1.26174 ;Travel
; 
; feature fill
PRIO_ON
G1 X12.5969 Y4.2863 E2189.49692 
; 
; feature travel
PRIO_OFF
G0 X13.66169 Y4.2863 ;Travel
; 
; feature fill
PRIO_ON
G1 X24.4947 Y-0.76522 E2212.93399 
; 
; feature travel
PRIO_OFF
G0 X24.4947 Y-0.2687 ;Travel
; 
; feature fill
PRIO_ON
G1 X14.72648 Y4.2863 E2234.0674 
; 
; feature travel
PRIO_OFF
G0 X15.79127 Y4.2863 ;Travel
; 
; feature fill
PRIO_ON
G1 X24.4947 Y0.22782 E2252.89716 
; 
; feature travel
PRIO_OFF
G0 X24.4947 Y0.72434 ;Travel
; 
; feature fill
PRIO_ON
G1 X16.85606 Y4.2863 E2269.42325 
; 
; feature travel
PRIO_OFF
G0 X17.92085 Y4.2863 ;Travel
; 
; feature fill
PRIO_ON
G1 X24.4947 Y1.22086 E2283.64568 
; 
; feature travel
PRIO_OFF
G0 X24.4947 Y1.71738 ;Travel
; 
; feature fill
PRIO_ON
G1 X18.98564 Y4.2863 E2295.56446 
; 
; feature travel
PRIO_OFF
G0 X20.05043 Y4.2863 ;Travel
; 
; feature fill
PRIO_ON
G1 X24.4947 Y2.2139 E2305.17957 
; 
; feature travel
PRIO_OFF
G0 X24.4947 Y2.71042 ;Travel
; 
; feature fill
PRIO_ON
G1 X21.11522 Y4.2863 E2312.49103 
; 
; feature travel
PRIO_OFF
G0 X22.18001 Y4.2863 ;Travel
; 
; feature fill
PRIO_ON
G1 X24.4947 Y3.20694 E2317.49882 
; 
; feature travel
PRIO_OFF
G0 X24.4947 Y3.70346 ;Travel
; 
; feature fill
PRIO_ON
G1 X23.2448 Y4.2863 E2320.20296 
; 
; feature travel
PRIO_OFF
G0 X24.30959 Y4.2863 ;Travel
; 
; feature fill
PRIO_ON
G1 X24.4947 Y4.19998 E2320.60343 
PRIO_OFF
LayersCompleted=4
M1
; 
;========================
; layer 4, Z = 1.2000
; 
; reset extrusion
STOPRE
PRESETON(E, 0)
DO PRIO_PULSE_DISTANCE=DROP_SCALE
DO PRIO_ON_PATH_OFFSET=0.5*PRIO_PULSE_DISTANCE
;outer: (25.2604,-5.0521) (25.2604,5.0521) (-25.2604,5.0521) (-25.2604,-5.0521) (19.8604,-5.0521) holes: !
;overhangs:!
; 
; feature plane change
G0 X24.4947 Y4.19998 Z1.2 ;Plane Change
; 
; feature travel
G0 X10.87413 Y4.637 ;Travel
; 
; feature outer perimeter
G1 F24000 FL[E] = OuterPerimeterFrequency * DROP_SCALE * 60
PRIO_ON
G1 X-24.8454 Y4.637 E84.04595 
G1 X-24.8454 Y-4.637 E105.86712 
G1 X24.8454 Y-4.637 E222.78665 
G1 X24.8454 Y4.637 E244.60783 
G1 X10.87413 Y4.637 E277.48141 
; 
; feature travel
PRIO_OFF
G0 X10.87413 Y4.286 ;Travel
; 
; feature inner perimeter
G1 F24000 FL[E] = InnerPerimeterFrequency * DROP_SCALE * 60
PRIO_ON
G1 X24.4944 Y4.286 E302.70414 
G1 X24.4944 Y-4.286 E318.57821 
G1 X-24.4944 Y-4.286 E409.29821 
G1 X-24.4944 Y4.286 E425.17229 
G1 X10.87413 Y4.286 E490.66956 
; 
; feature travel
PRIO_OFF
G0 X11.07622 Y4.2863 ;Travel
; 
; feature fill
G1 F24000 FL[E] = FillFrequency * DROP_SCALE * 60
PRIO_ON
G1 X-12.47681 Y-4.2863 E539.81585 
; 
; feature travel
PRIO_OFF
G0 X-11.16109 Y-4.2863 ;Travel
; 
; feature fill
PRIO_ON
G1 X12.39193 Y4.2863 E588.96213 
; 
; feature travel
PRIO_OFF
G0 X13.70764 Y4.2863 ;Travel
; 
; feature fill
PRIO_ON
G1 X-9.84538 Y-4.2863 E638.10842 
; 
; feature travel
PRIO_OFF
G0 X-8.52967 Y-4.2863 ;Travel
; 
; feature fill
PRIO_ON
G1 X15.02335 Y4.2863 E687.2547 
; 
; feature travel
PRIO_OFF
G0 X16.33907 Y4.2863 ;Travel
; 
; feature fill
PRIO_ON
G1 X-7.21396 Y-4.2863 E736.40099 
; 
; feature travel
PRIO_OFF
G0 X-5.89825 Y-4.2863 ;Travel
; 
; feature fill
PRIO_ON
G1 X17.65478 Y4.2863 E785.54727 
; 
; feature travel
PRIO_OFF
G0 X18.97049 Y4.2863 ;Travel
; 
; feature fill
PRIO_ON
G1 X-4.58253 Y-4.2863 E834.69356 
; 
; feature travel
PRIO_OFF
G0 X-3.26682 Y-4.2863 ;Travel
; 
; feature fill
PRIO_ON
G1 X20.2862 Y4.2863 E883.83984 
; 
; feature travel
PRIO_OFF
G0 X21.60191 Y4.2863 ;Travel
; 
; feature fill
PRIO_ON
G1 X-1.95111 Y-4.2863 E932.98613 
; 
; feature travel
PRIO_OFF
G0 X-0.6354 Y-4.2863 ;Travel
; 
; feature fill
PRIO_ON
G1 X22.91763 Y4.2863 E982.13241 
; 
; feature travel
PRIO_OFF
G0 X24.23334 Y4.2863 ;Travel
; 
; feature fill
PRIO_ON
G1 X0.68031 Y-4.2863 E1031.2787 
; 
; feature travel
PRIO_OFF
G0 X1.99603 Y-4.2863 ;Travel
; 
; feature fill
PRIO_ON
G1 X24.4947 Y3.90255 E1078.22495 
; 
; feature travel
PRIO_OFF
G0 X24.4947 Y3.42367 ;Travel
; 
; feature fill
PRIO_ON
G1 X3.31174 Y-4.2863 E1122.42581 
; 
; feature travel
PRIO_OFF
G0 X4.62745 Y-4.2863 ;Travel
; 
; feature fill
PRIO_ON
G1 X24.4947 Y2.94479 E1163.88128 
; 
; feature travel
PRIO_OFF
G0 X24.4947 Y2.46591 ;Travel
; 
; feature fill
PRIO_ON
G1 X5.94316 Y-4.2863 E1202.59135 
; 
; feature travel
PRIO_OFF
G0 X7.25887 Y-4.2863 ;Travel
; 
; feature fill
PRIO_ON
G1 X24.4947 Y1.98703 E1238.55602 
; 
; feature travel
PRIO_OFF
G0 X24.4947 Y1.50815 ;Travel
; 
; feature fill
PRIO_ON
G1 X8.57459 Y-4.2863 E1271.7753 
; 
; feature travel
PRIO_OFF
G0 X9.8903 Y-4.2863 ;Travel
; 
; feature fill
PRIO_ON
G1 X24.4947 Y1.02927 E1302.24919 
; 
; feature travel
PRIO_OFF
G0 X24.4947 Y0.55039 ;Travel
; 
; feature fill
PRIO_ON
G1 X11.20601 Y-4.2863 E1329.97768 
; 
; feature travel
PRIO_OFF
G0 X12.52172 Y-4.2863 ;Travel
; 
; feature fill
PRIO_ON
G1 X24.4947 Y0.07151 E1354.96077 
; 
; feature travel
PRIO_OFF
G0 X24.4947 Y-0.40737 ;Travel
; 
; feature fill
PRIO_ON
G1 X13.83743 Y-4.2863 E1377.19847 
; 
; feature travel
PRIO_OFF
G0 X15.15314 Y-4.2863 ;Travel
; 
; feature fill
PRIO_ON
G1 X24.4947 Y-0.88625 E1396.69077 
; 
; feature travel
PRIO_OFF
G0 X24.4947 Y-1.36513 ;Travel
; 
; feature fill
PRIO_ON
G1 X16.46886 Y-4.2863 E1413.43768 
; 
; feature travel
PRIO_OFF
G0 X17.78457 Y-4.2863 ;Travel
; 
; feature fill
PRIO_ON
G1 X24.4947 Y-1.84401 E1427.4392 
; 
; feature travel
PRIO_OFF
G0 X24.4947 Y-2.32289 ;Travel
; 
; feature fill
PRIO_ON
G1 X19.10028 Y-4.2863 E1438.69532 
; 
; feature travel
PRIO_OFF
G0 X20.41599 Y-4.2863 ;Travel
; 
; feature fill
PRIO_ON
G1 X24.4947 Y-2.80177 E1447.20604 
; 
; feature travel
PRIO_OFF
G0 X24.4947 Y-3.28065 ;Travel
; 
; feature fill
PRIO_ON
G1 X21.7317 Y-4.2863 E1452.97137 
; 
; feature travel
PRIO_OFF
G0 X23.04742 Y-4.2863 ;Travel
; 
; feature fill
PRIO_ON
G1 X24.4947 Y-3.75953 E1455.99131 
; 
; feature travel
PRIO_OFF
G0 X24.4947 Y-4.23841 ;Travel
; 
; feature fill
PRIO_ON
G1 X24.36313 Y-4.2863 E1456.26584 
; 
; feature travel
PRIO_OFF
G0 X9.76051 Y4.2863 ;Travel
; 
; feature fill
PRIO_ON
G1 X-13.79252 Y-4.2863 E1505.41213 
; 
; feature travel
PRIO_OFF
G0 X-15.10823 Y-4.2863 ;Travel
; 
; feature fill
PRIO_ON
G1 X8.44479 Y4.2863 E1554.55842 
; 
; feature travel
PRIO_OFF
G0 X7.12908 Y4.2863 ;Travel
; 
; feature fill
PRIO_ON
G1 X-16.42394 Y-4.2863 E1603.7047 
; 
; feature travel
PRIO_OFF
G0 X-17.73965 Y-4.2863 ;Travel
; 
; feature fill
PRIO_ON
G1 X5.81337 Y4.2863 E1652.85099 
; 
; feature travel
PRIO_OFF
G0 X4.49766 Y4.2863 ;Travel
; 
; feature fill
PRIO_ON
G1 X-19.05537 Y-4.2863 E1701.99727 
; 
; feature travel
PRIO_OFF
G0 X-20.37108 Y-4.2863 ;Travel
; 
; feature fill
PRIO_ON
G1 X3.18195 Y4.2863 E1751.14356 
; 
; feature travel
PRIO_OFF
G0 X1.86623 Y4.2863 ;Travel
; 
; feature fill
PRIO_ON
G1 X-21.68679 Y-4.2863 E1800.28984 
; 
; feature travel
PRIO_OFF
G0 X-23.0025 Y-4.2863 ;Travel
; 
; feature fill
PRIO_ON
G1 X0.55052 Y4.2863 E1849.43613 
; 
; feature travel
PRIO_OFF
G0 X-0.76519 Y4.2863 ;Travel
; 
; feature fill
PRIO_ON
G1 X-24.31821 Y-4.2863 E1898.58241 
; 
; feature travel
PRIO_OFF
G0 X-24.4947 Y-3.87166 ;Travel
; 
; feature fill
PRIO_ON
G1 X-2.0809 Y4.2863 E1945.35156 
; 
; feature travel
PRIO_OFF
G0 X-3.39661 Y4.2863 ;Travel
; 
; feature fill
PRIO_ON
G1 X-24.4947 Y-3.39278 E1989.37532 
; 
; feature travel
PRIO_OFF
G0 X-24.4947 Y-2.9139 ;Travel
; 
; feature fill
PRIO_ON
G1 X-4.71233 Y4.2863 E2030.65368 
; 
; feature travel
PRIO_OFF
G0 X-6.02804 Y4.2863 ;Travel
; 
; feature fill
PRIO_ON
G1 X-24.4947 Y-2.43502 E2069.18664 
; 
; feature travel
PRIO_OFF
G0 X-24.4947 Y-1.95614 ;Travel
; 
; feature fill
PRIO_ON
G1 X-7.34375 Y4.2863 E2104.97421 
; 
; feature travel
PRIO_OFF
G0 X-8.65946 Y4.2863 ;Travel
; 
; feature fill
PRIO_ON
G1 X-24.4947 Y-1.47726 E2138.01638 
; 
; feature travel
PRIO_OFF
G0 X-24.4947 Y-0.99838 ;Travel
; 
; feature fill
PRIO_ON
G1 X-9.97517 Y4.2863 E2168.31316 
; 
; feature travel
PRIO_OFF
G0 X-11.29089 Y4.2863 ;Travel
; 
; feature fill
PRIO_ON
G1 X-24.4947 Y-0.5195 E2195.86455 
; 
; feature travel
PRIO_OFF
G0 X-24.4947 Y-0.04062 ;Travel
; 
; feature fill
PRIO_ON
G1 X-12.6066 Y4.2863 E2220.67054 
; 
; feature travel
PRIO_OFF
G0 X-13.92231 Y4.2863 ;Travel
; 
; feature fill
PRIO_ON
G1 X-24.4947 Y0.43826 E2242.73113 
; 
; feature travel
PRIO_OFF
G0 X-24.4947 Y0.91714 ;Travel
; 
; feature fill
PRIO_ON
G1 X-15.23802 Y4.2863 E2262.04633 
; 
; feature travel
PRIO_OFF
G0 X-16.55373 Y4.2863 ;Travel
; 
; feature fill
PRIO_ON
G1 X-24.4947 Y1.39602 E2278.61614 
; 
; feature travel
PRIO_OFF
G0 X-24.4947 Y1.8749 ;Travel
; 
; feature fill
PRIO_ON
G1 X-17.86945 Y4.2863 E2292.44055 
; 
; feature travel
PRIO_OFF
G0 X-19.18516 Y4.2863 ;Travel
; 
; feature fill
PRIO_ON
G1 X-24.4947 Y2.35378 E2303.51956 
; 
; feature travel
PRIO_OFF
G0 X-24.4947 Y2.83266 ;Travel
; 
; feature fill
PRIO_ON
G1 X-20.50087 Y4.2863 E2311.85318 
; 
; feature travel
PRIO_OFF
G0 X-21.81658 Y4.2863 ;Travel
; 
; feature fill
PRIO_ON
G1 X-24.4947 Y3.31154 E2317.4414 
; 
; feature travel
PRIO_OFF
G0 X-24.4947 Y3.79042 ;Travel
; 
; feature fill
PRIO_ON
G1 X-23.13229 Y4.2863 E2320.28423 
PRIO_OFF
LayersCompleted=5
M1
; 
;========================
; layer 5, Z = 1.4400
; 
; reset extrusion
STOPRE
PRESETON(E, 0)
DO PRIO_PULSE_DISTANCE=DROP_SCALE
DO PRIO_ON_PATH_OFFSET=0.5*PRIO_PULSE_DISTANCE
;outer: (25.2604,-5.0521) (25.2604,5.0521) (-25.2604,5.0521) (-25.2604,-5.0521) (18.6604,-5.0521) holes: !
;overhangs:!
; 
; feature plane change
G0 X-23.13229 Y4.2863 Z1.44 ;Plane Change
; 
; feature travel
G0 X-14.84923 Y-4.637 ;Travel
; 
; feature outer perimeter
G1 F24000 FL[E] = OuterPerimeterFrequency * DROP_SCALE * 60
PRIO_ON
G1 X-24.8454 Y-4.637 E23.5204 
G1 X-24.8454 Y4.637 E45.34157 
G1 X24.8454 Y4.637 E162.2611 
G1 X24.8454 Y-4.637 E184.08228 
G1 X-14.84923 Y-4.637 E277.48141 
; 
; feature travel
PRIO_OFF
G0 X-14.84923 Y-4.286 ;Travel
; 
; feature inner perimeter
G1 F24000 FL[E] = InnerPerimeterFrequency * DROP_SCALE * 60
PRIO_ON
G1 X24.4944 Y-4.286 E350.33999 
G1 X24.4944 Y4.286 E366.21406 
G1 X-24.4944 Y4.286 E456.93406 
G1 X-24.4944 Y-4.286 E472.80814 
G1 X-14.84923 Y-4.286 E490.66956 
; 
; feature travel
PRIO_OFF
G0 X-14.78004 Y-4.2863 ;Travel
; 
; feature fill
G1 F24000 FL[E] = FillFrequency * DROP_SCALE * 60
PRIO_ON
G1 X-10.78257 Y4.2863 E509.21626 
; 
; feature travel
PRIO_OFF
G0 X-10.28605 Y4.2863 ;Travel
; 
; feature fill
PRIO_ON
G1 X-14.28352 Y-4.2863 E527.76296 
; 
; feature travel
PRIO_OFF
G0 X-13.787 Y-4.2863 ;Travel
; 
; feature fill
PRIO_ON
G1 X-9.78953 Y4.2863 E546.30966 
; 
; feature travel
PRIO_OFF
G0 X-9.29301 Y4.2863 ;Travel
; 
; feature fill
PRIO_ON
G1 X-13.29048 Y-4.2863 E564.85636 
; 
; feature travel
PRIO_OFF
G0 X-12.79396 Y-4.2863 ;Travel
; 
; feature fill
PRIO_ON
G1 X-8.79649 Y4.2863 E583.40307 
; 
; feature travel
PRIO_OFF
G0 X-8.29997 Y4.2863 ;Travel
; 
; feature fill
PRIO_ON
G1 X-12.29744 Y-4.2863 E601.94977 
; 
; feature travel
PRIO_OFF
G0 X-11.80092 Y-4.2863 ;Travel
; 
; feature fill
PRIO_ON
G1 X-7.80345 Y4.2863 E620.49647 
; 
; feature travel
PRIO_OFF
G0 X-7.30693 Y4.2863 ;Travel
; 
; feature fill
PRIO_ON
G1 X-11.3044 Y-4.2863 E639.04317 
; 
; feature travel
PRIO_OFF
G0 X-10.80788 Y-4.2863 ;Travel
; 
; feature fill
PRIO_ON
G1 X-6.81041 Y4.2863 E657.58987 
; 
; feature travel
PRIO_OFF
G0 X-6.31389 Y4.2863 ;Travel
; 
; feature fill
PRIO_ON
G1 X-10.31136 Y-4.2863 E676.13657 
; 
; feature travel
PRIO_OFF
G0 X-9.81484 Y-4.2863 ;Travel
; 
; feature fill
PRIO_ON
G1 X-5.81737 Y4.2863 E694.68327 
; 
; feature travel
PRIO_OFF
G0 X-5.32085 Y4.2863 ;Travel
; 
; feature fill
PRIO_ON
G1 X-9.31832 Y-4.2863 E713.22997 
; 
; feature travel
PRIO_OFF
G0 X-8.8218 Y-4.2863 ;Travel
; 
; feature fill
PRIO_ON
G1 X-4.82433 Y4.2863 E731.77667 
; 
; feature travel
PRIO_OFF
G0 X-4.32781 Y4.2863 ;Travel
; 
; feature fill
PRIO_ON
G1 X-8.32528 Y-4.2863 E750.32337 
; 
; feature travel
PRIO_OFF
G0 X-7.82876 Y-4.2863 ;Travel
; 
; feature fill
PRIO_ON
G1 X-3.83129 Y4.2863 E768.87008 
; 
; feature travel
PRIO_OFF
G0 X-3.33477 Y4.2863 ;Travel
; 
; feature fill
PRIO_ON
G1 X-7.33224 Y-4.2863 E787.41678 
; 
; feature travel
PRIO_OFF
G0 X-6.83572 Y-4.2863 ;Travel
; 
; feature fill
PRIO_ON
G1 X-2.83825 Y4.2863 E805.96348 
; 
; feature travel
PRIO_OFF
G0 X-2.34173 Y4.2863 ;Travel
; 
; feature fill
PRIO_ON
G1 X-6.3392 Y-4.2863 E824.51018 
; 
; feature travel
PRIO_OFF
G0 X-5.84268 Y-4.2863 ;Travel
; 
; feature fill
PRIO_ON
G1 X-1.84521 Y4.2863 E843.05688 
; 
; feature travel
PRIO_OFF
G0 X-1.34869 Y4.2863 ;Travel
; 
; feature fill
PRIO_ON
G1 X-5.34616 Y-4.2863 E861.60358 
; 
; feature travel
PRIO_OFF
G0 X-4.84964 Y-4.2863 ;Travel
; 
; feature fill
PRIO_ON
G1 X-0.85217 Y4.2863 E880.15028 
; 
; feature travel
PRIO_OFF
G0 X-0.35565 Y4.2863 ;Travel
; 
; feature fill
PRIO_ON
G1 X-4.35312 Y-4.2863 E898.69698 
; 
; feature travel
PRIO_OFF
G0 X-3.8566 Y-4.2863 ;Travel
; 
; feature fill
PRIO_ON
G1 X0.14087 Y4.2863 E917.24368 
; 
; feature travel
PRIO_OFF
G0 X0.63739 Y4.2863 ;Travel
; 
; feature fill
PRIO_ON
G1 X-3.36008 Y-4.2863 E935.79039 
; 
; feature travel
PRIO_OFF
G0 X-2.86356 Y-4.2863 ;Travel
; 
; feature fill
PRIO_ON
G1 X1.13391 Y4.2863 E954.33709 
; 
; feature travel
PRIO_OFF
G0 X1.63043 Y4.2863 ;Travel
; 
; feature fill
PRIO_ON
G1 X-2.36704 Y-4.2863 E972.88379 
; 
; feature travel
PRIO_OFF
G0 X-1.87052 Y-4.2863 ;Travel
; 
; feature fill
PRIO_ON
G1 X2.12695 Y4.2863 E991.43049 
; 
; feature travel
PRIO_OFF
G0 X2.62347 Y4.2863 ;Travel
; 
; feature fill
PRIO_ON
G1 X-1.374 Y-4.2863 E1009.97719 
; 
; feature travel
PRIO_OFF
G0 X-0.87748 Y-4.2863 ;Travel
; 
; feature fill
PRIO_ON
G1 X3.11999 Y4.2863 E1028.52389 
; 
; feature travel
PRIO_OFF
G0 X3.61651 Y4.2863 ;Travel
; 
; feature fill
PRIO_ON
G1 X-0.38096 Y-4.2863 E1047.07059 
; 
; feature travel
PRIO_OFF
G0 X0.11556 Y-4.2863 ;Travel
; 
; feature fill
PRIO_ON
G1 X4.11303 Y4.2863 E1065.61729 
; 
; feature travel
PRIO_OFF
G0 X4.60955 Y4.2863 ;Travel
; 
; feature fill
PRIO_ON
G1 X0.61208 Y-4.2863 E1084.16399 
; 
; feature travel
PRIO_OFF
G0 X1.10861 Y-4.2863 ;Travel
; 
; feature fill
PRIO_ON
G1 X5.10607 Y4.2863 E1102.7107 
; 
; feature travel
PRIO_OFF
G0 X5.60259 Y4.2863 ;Travel
; 
; feature fill
PRIO_ON
G1 X1.60513 Y-4.2863 E1121.2574 
; 
; feature travel
PRIO_OFF
G0 X2.10165 Y-4.2863 ;Travel
; 
; feature fill
PRIO_ON
G1 X6.09911 Y4.2863 E1139.8041 
; 
; feature travel
PRIO_OFF
G0 X6.59563 Y4.2863 ;Travel
; 
; feature fill
PRIO_ON
G1 X2.59817 Y-4.2863 E1158.3508 
; 
; feature travel
PRIO_OFF
G0 X3.09469 Y-4.2863 ;Travel
; 
; feature fill
PRIO_ON
G1 X7.09215 Y4.2863 E1176.8975 
; 
; feature travel
PRIO_OFF
G0 X7.58867 Y4.2863 ;Travel
; 
; feature fill
PRIO_ON
G1 X3.59121 Y-4.2863 E1195.4442 
; 
; feature travel
PRIO_OFF
G0 X4.08773 Y-4.2863 ;Travel
; 
; feature fill
PRIO_ON
G1 X8.08519 Y4.2863 E1213.9909 
; 
; feature travel
PRIO_OFF
G0 X8.58171 Y4.2863 ;Travel
; 
; feature fill
PRIO_ON
G1 X4.58425 Y-4.2863 E1232.5376 
; 
; feature travel
PRIO_OFF
G0 X5.08077 Y-4.2863 ;Travel
; 
; feature fill
PRIO_ON
G1 X9.07823 Y4.2863 E1251.0843 
; 
; feature travel
PRIO_OFF
G0 X9.57475 Y4.2863 ;Travel
; 
; feature fill
PRIO_ON
G1 X5.57729 Y-4.2863 E1269.63101 
; 
; feature travel
PRIO_OFF
G0 X6.07381 Y-4.2863 ;Travel
; 
; feature fill
PRIO_ON
G1 X10.07127 Y4.2863 E1288.17771 
; 
; feature travel
PRIO_OFF
G0 X10.56779 Y4.2863 ;Travel
; 
; feature fill
PRIO_ON
G1 X6.57033 Y-4.2863 E1306.72441 
; 
; feature travel
PRIO_OFF
G0 X7.06685 Y-4.2863 ;Travel
; 
; feature fill
PRIO_ON
G1 X11.06431 Y4.2863 E1325.27111 
; 
; feature travel
PRIO_OFF
G0 X11.56083 Y4.2863 ;Travel
; 
; feature fill
PRIO_ON
G1 X7.56337 Y-4.2863 E1343.81781 
; 
; feature travel
PRIO_OFF
G0 X8.05989 Y-4.2863 ;Travel
; 
; feature fill
PRIO_ON
G1 X12.05735 Y4.2863 E1362.36451 
; 
; feature travel
PRIO_OFF
G0 X12.55387 Y4.2863 ;Travel
; 
; feature fill
PRIO_ON
G1 X8.55641 Y-4.2863 E1380.91121 
; 
; feature travel
PRIO_OFF
G0 X9.05293 Y-4.2863 ;Travel
; 
; feature fill
PRIO_ON
G1 X13.0504 Y4.2863 E1399.45791 
; 
; feature travel
PRIO_OFF
G0 X13.54692 Y4.2863 ;Travel
; 
; feature fill
PRIO_ON
G1 X9.54945 Y-4.2863 E1418.00461 
; 
; feature travel
PRIO_OFF
G0 X10.04597 Y-4.2863 ;Travel
; 
; feature fill
PRIO_ON
G1 X14.04344 Y4.2863 E1436.55131 
; 
; feature travel
PRIO_OFF
G0 X14.53996 Y4.2863 ;Travel
; 
; feature fill
PRIO_ON
G1 X10.54249 Y-4.2863 E1455.09802 
; 
; feature travel
PRIO_OFF
G0 X11.03901 Y-4.2863 ;Travel
; 
; feature fill
PRIO_ON
G1 X15.03648 Y4.2863 E1473.64472 
; 
; feature travel
PRIO_OFF
G0 X15.533 Y4.2863 ;Travel
; 
; feature fill
PRIO_ON
G1 X11.53553 Y-4.2863 E1492.19142 
; 
; feature travel
PRIO_OFF
G0 X12.03205 Y-4.2863 ;Travel
; 
; feature fill
PRIO_ON
G1 X16.02952 Y4.2863 E1510.73812 
; 
; feature travel
PRIO_OFF
G0 X16.52604 Y4.2863 ;Travel
; 
; feature fill
PRIO_ON
G1 X12.52857 Y-4.2863 E1529.28482 
; 
; feature travel
PRIO_OFF
G0 X13.02509 Y-4.2863 ;Travel
; 
; feature fill
PRIO_ON
G1 X17.02256 Y4.2863 E1547.83152 
; 
; feature travel
PRIO_OFF
G0 X17.51908 Y4.2863 ;Travel
; 
; feature fill
PRIO_ON
G1 X13.52161 Y-4.2863 E1566.37822 
; 
; feature travel
PRIO_OFF
G0 X14.01813 Y-4.2863 ;Travel
; 
; feature fill
PRIO_ON
G1 X18.0156 Y4.2863 E1584.92492 
; 
; feature travel
PRIO_OFF
G0 X18.51212 Y4.2863 ;Travel
; 
; feature fill
PRIO_ON
G1 X14.51465 Y-4.2863 E1603.47162 
; 
; feature travel
PRIO_OFF
G0 X15.01117 Y-4.2863 ;Travel
; 
; feature fill
PRIO_ON
G1 X19.00864 Y4.2863 E1622.01833 
; 
; feature travel
PRIO_OFF
G0 X19.50516 Y4.2863 ;Travel
; 
; feature fill
PRIO_ON
G1 X15.50769 Y-4.2863 E1640.56503 
; 
; feature travel
PRIO_OFF
G0 X16.00421 Y-4.2863 ;Travel
; 
; feature fill
PRIO_ON
G1 X20.00168 Y4.2863 E1659.11173 
; 
; feature travel
PRIO_OFF
G0 X20.4982 Y4.2863 ;Travel
; 
; feature fill
PRIO_ON
G1 X16.50073 Y-4.2863 E1677.65843 
; 
; feature travel
PRIO_OFF
G0 X16.99725 Y-4.2863 ;Travel
; 
; feature fill
PRIO_ON
G1 X20.99472 Y4.2863 E1696.20513 
; 
; feature travel
PRIO_OFF
G0 X21.49124 Y4.2863 ;Travel
; 
; feature fill
PRIO_ON
G1 X17.49377 Y-4.2863 E1714.75183 
; 
; feature travel
PRIO_OFF
G0 X17.99029 Y-4.2863 ;Travel
; 
; feature fill
PRIO_ON
G1 X21.98776 Y4.2863 E1733.29853 
; 
; feature travel
PRIO_OFF
G0 X22.48428 Y4.2863 ;Travel
; 
; feature fill
PRIO_ON
G1 X18.48681 Y-4.2863 E1751.84523 
; 
; feature travel
PRIO_OFF
G0 X18.98333 Y-4.2863 ;Travel
; 
; feature fill
PRIO_ON
G1 X22.9808 Y4.2863 E1770.39193 
; 
; feature travel
PRIO_OFF
G0 X23.47732 Y4.2863 ;Travel
; 
; feature fill
PRIO_ON
G1 X19.47985 Y-4.2863 E1788.93864 
; 
; feature travel
PRIO_OFF
G0 X19.97637 Y-4.2863 ;Travel
; 
; feature fill
PRIO_ON
G1 X23.97384 Y4.2863 E1807.48534 
; 
; feature travel
PRIO_OFF
G0 X24.47036 Y4.2863 ;Travel
; 
; feature fill
PRIO_ON
G1 X20.47289 Y-4.2863 E1826.03204 
; 
; feature travel
PRIO_OFF
G0 X20.96941 Y-4.2863 ;Travel
; 
; feature fill
PRIO_ON
G1 X24.4947 Y3.27371 E1842.38802 
; 
; feature travel
PRIO_OFF
G0 X24.4947 Y2.20892 ;Travel
; 
; feature fill
PRIO_ON
G1 X21.46593 Y-4.2863 E1856.44035 
; 
; feature travel
PRIO_OFF
G0 X21.96245 Y-4.2863 ;Travel
; 
; feature fill
PRIO_ON
G1 X24.4947 Y1.14413 E1868.18901 
; 
; feature travel
PRIO_OFF
G0 X24.4947 Y0.07934 ;Travel
; 
; feature fill
PRIO_ON
G1 X22.45897 Y-4.2863 E1877.63402 
; 
; feature travel
PRIO_OFF
G0 X22.95549 Y-4.2863 ;Travel
; 
; feature fill
PRIO_ON
G1 X24.4947 Y-0.98545 E1884.77537 
; 
; feature travel
PRIO_OFF
G0 X24.4947 Y-2.05024 ;Travel
; 
; feature fill
PRIO_ON
G1 X23.45201 Y-4.2863 E1889.61305 
; 
; feature travel
PRIO_OFF
G0 X23.94853 Y-4.2863 ;Travel
; 
; feature fill
PRIO_ON
G1 X24.4947 Y-3.11503 E1892.14708 
; 
; feature travel
PRIO_OFF
G0 X24.4947 Y-4.17982 ;Travel
; 
; feature fill
PRIO_ON
G1 X24.44505 Y-4.2863 E1892.37744 
; 
; feature travel
PRIO_OFF
G0 X-11.27909 Y4.2863 ;Travel
; 
; feature fill
PRIO_ON
G1 X-15.27656 Y-4.2863 E1910.92414 
; 
; feature travel
PRIO_OFF
G0 X-15.77308 Y-4.2863 ;Travel
; 
; feature fill
PRIO_ON
G1 X-11.77561 Y4.2863 E1929.47085 
; 
; feature travel
PRIO_OFF
G0 X-12.27213 Y4.2863 ;Travel
; 
; feature fill
PRIO_ON
G1 X-16.2696 Y-4.2863 E1948.01755 
; 
; feature travel
PRIO_OFF
G0 X-16.76612 Y-4.2863 ;Travel
; 
; feature fill
PRIO_ON
G1 X-12.76865 Y4.2863 E1966.56425 
; 
; feature travel
PRIO_OFF
G0 X-13.26517 Y4.2863 ;Travel
; 
; feature fill
PRIO_ON
G1 X-17.26264 Y-4.2863 E1985.11095 
; 
; feature travel
PRIO_OFF
G0 X-17.75916 Y-4.2863 ;Travel
; 
; feature fill
PRIO_ON
G1 X-13.76169 Y4.2863 E2003.65765 
; 
; feature travel
PRIO_OFF
G0 X-14.25821 Y4.2863 ;Travel
; 
; feature fill
PRIO_ON
G1 X-18.25568 Y-4.2863 E2022.20435 
; 
; feature travel
PRIO_OFF
G0 X-18.7522 Y-4.2863 ;Travel
; 
; feature fill
PRIO_ON
G1 X-14.75473 Y4.2863 E2040.75105 
; 
; feature travel
PRIO_OFF
G0 X-15.25125 Y4.2863 ;Travel
; 
; feature fill
PRIO_ON
G1 X-19.24872 Y-4.2863 E2059.29775 
; 
; feature travel
PRIO_OFF
G0 X-19.74524 Y-4.2863 ;Travel
; 
; feature fill
PRIO_ON
G1 X-15.74777 Y4.2863 E2077.84445 
; 
; feature travel
PRIO_OFF
G0 X-16.24429 Y4.2863 ;Travel
; 
; feature fill
PRIO_ON
G1 X-20.24176 Y-4.2863 E2096.39115 
; 
; feature travel
PRIO_OFF
G0 X-20.73828 Y-4.2863 ;Travel
; 
; feature fill
PRIO_ON
G1 X-16.74081 Y4.2863 E2114.93786 
; 
; feature travel
PRIO_OFF
G0 X-17.23733 Y4.2863 ;Travel
; 
; feature fill
PRIO_ON
G1 X-21.2348 Y-4.2863 E2133.48456 
; 
; feature travel
PRIO_OFF
G0 X-21.73132 Y-4.2863 ;Travel
; 
; feature fill
PRIO_ON
G1 X-17.73385 Y4.2863 E2152.03126 
; 
; feature travel
PRIO_OFF
G0 X-18.23037 Y4.2863 ;Travel
; 
; feature fill
PRIO_ON
G1 X-22.22784 Y-4.2863 E2170.57796 
; 
; feature travel
PRIO_OFF
G0 X-22.72436 Y-4.2863 ;Travel
; 
; feature fill
PRIO_ON
G1 X-18.72689 Y4.2863 E2189.12466 
; 
; feature travel
PRIO_OFF
G0 X-19.22341 Y4.2863 ;Travel
; 
; feature fill
PRIO_ON
G1 X-23.22088 Y-4.2863 E2207.67136 
; 
; feature travel
PRIO_OFF
G0 X-23.7174 Y-4.2863 ;Travel
; 
; feature fill
PRIO_ON
G1 X-19.71993 Y4.2863 E2226.21806 
; 
; feature travel
PRIO_OFF
G0 X-20.21645 Y4.2863 ;Travel
; 
; feature fill
PRIO_ON
G1 X-24.21392 Y-4.2863 E2244.76476 
; 
; feature travel
PRIO_OFF
G0 X-24.4947 Y-3.82365 ;Travel
; 
; feature fill
PRIO_ON
G1 X-20.71297 Y4.2863 E2262.31052 
; 
; feature travel
PRIO_OFF
G0 X-21.20949 Y4.2863 ;Travel
; 
; feature fill
PRIO_ON
G1 X-24.4947 Y-2.75886 E2277.55262 
; 
; feature travel
PRIO_OFF
G0 X-24.4947 Y-1.69407 ;Travel
; 
; feature fill
PRIO_ON
G1 X-21.70601 Y4.2863 E2290.49106 
; 
; feature travel
PRIO_OFF
G0 X-22.20253 Y4.2863 ;Travel
; 
; feature fill
PRIO_ON
G1 X-24.4947 Y-0.62928 E2301.12584 
; 
; feature travel
PRIO_OFF
G0 X-24.4947 Y0.43552 ;Travel
; 
; feature fill
PRIO_ON
G1 X-22.69905 Y4.2863 E2309.45696 
; 
; feature travel
PRIO_OFF
G0 X-23.19557 Y4.2863 ;Travel
; 
; feature fill
PRIO_ON
G1 X-24.4947 Y1.50031 E2315.48442 
; 
; feature travel
PRIO_OFF
G0 X-24.4947 Y2.5651 ;Travel
; 
; feature fill
PRIO_ON
G1 X-23.69209 Y4.2863 E2319.20822 
; 
; feature travel
PRIO_OFF
G0 X-24.18861 Y4.2863 ;Travel
; 
; feature fill
PRIO_ON
G1 X-24.4947 Y3.62989 E2320.62836 
PRIO_OFF
LayersCompleted=6
M1
; 
;========================
; layer 6, Z = 1.6800
; 
; reset extrusion
STOPRE
PRESETON(E, 0)
DO PRIO_PULSE_DISTANCE=DROP_SCALE
DO PRIO_ON_PATH_OFFSET=0.5*PRIO_PULSE_DISTANCE
;outer: (25.2604,-5.0521) (25.2604,5.0521) (-25.2604,5.0521) (-25.2604,-5.0521) (17.4604,-5.0521) holes: !
;overhangs:!
; 
; feature plane change
G0 X-24.4947 Y3.62989 Z1.68 ;Plane Change
; 
; feature travel
G0 X-17.19231 Y4.637 ;Travel
; 
; feature outer perimeter
G1 F24000 FL[E] = OuterPerimeterFrequency * DROP_SCALE * 60
PRIO_ON
G1 X-24.8453 Y4.637 E18.00703 
G1 X-24.8453 Y-4.637 E39.82821 
G1 X24.8453 Y-4.637 E156.74727 
G1 X24.8453 Y4.637 E178.56845 
G1 X-17.19231 Y4.637 E277.48047 
; 
; feature travel
PRIO_OFF
G0 X-17.19231 Y4.286 ;Travel
; 
; feature inner perimeter
G1 F24000 FL[E] = InnerPerimeterFrequency * DROP_SCALE * 60
PRIO_ON
G1 X24.4943 Y4.286 E354.6779 
G1 X24.4943 Y-4.286 E370.55197 
G1 X-24.4943 Y-4.286 E461.2716 
G1 X-24.4943 Y4.286 E477.14567 
G1 X-17.19231 Y4.286 E490.66788 
; 
; feature travel
PRIO_OFF
G0 X-17.21585 Y4.2863 ;Travel
; 
; feature fill
G1 F24000 FL[E] = FillFrequency * DROP_SCALE * 60
PRIO_ON
G1 X-14.09568 Y-4.2863 E508.55566 
; 
; feature travel
PRIO_OFF
G0 X-14.57456 Y-4.2863 ;Travel
; 
; feature fill
PRIO_ON
G1 X-17.69473 Y4.2863 E526.44345 
; 
; feature travel
PRIO_OFF
G0 X-18.17361 Y4.2863 ;Travel
; 
; feature fill
PRIO_ON
G1 X-15.05344 Y-4.2863 E544.33123 
; 
; feature travel
PRIO_OFF
G0 X-15.53232 Y-4.2863 ;Travel
; 
; feature fill
PRIO_ON
G1 X-18.65249 Y4.2863 E562.21902 
; 
; feature travel
PRIO_OFF
G0 X-19.13137 Y4.2863 ;Travel
; 
; feature fill
PRIO_ON
G1 X-16.0112 Y-4.2863 E580.1068 
; 
; feature travel
PRIO_OFF
G0 X-16.49008 Y-4.2863 ;Travel
; 
; feature fill
PRIO_ON
G1 X-19.61025 Y4.2863 E597.99459 
; 
; feature travel
PRIO_OFF
G0 X-20.08913 Y4.2863 ;Travel
; 
; feature fill
PRIO_ON
G1 X-16.96896 Y-4.2863 E615.88237 
; 
; feature travel
PRIO_OFF
G0 X-17.44784 Y-4.2863 ;Travel
; 
; feature fill
PRIO_ON
G1 X-20.56801 Y4.2863 E633.77016 
; 
; feature travel
PRIO_OFF
G0 X-21.04689 Y4.2863 ;Travel
; 
; feature fill
PRIO_ON
G1 X-17.92672 Y-4.2863 E651.65794 
; 
; feature travel
PRIO_OFF
G0 X-18.4056 Y-4.2863 ;Travel
; 
; feature fill
PRIO_ON
G1 X-21.52577 Y4.2863 E669.54573 
; 
; feature travel
PRIO_OFF
G0 X-22.00465 Y4.2863 ;Travel
; 
; feature fill
PRIO_ON
G1 X-18.88448 Y-4.2863 E687.43351 
; 
; feature travel
PRIO_OFF
G0 X-19.36336 Y-4.2863 ;Travel
; 
; feature fill
PRIO_ON
G1 X-22.48353 Y4.2863 E705.3213 
; 
; feature travel
PRIO_OFF
G0 X-22.96241 Y4.2863 ;Travel
; 
; feature fill
PRIO_ON
G1 X-19.84224 Y-4.2863 E723.20908 
; 
; feature travel
PRIO_OFF
G0 X-20.32112 Y-4.2863 ;Travel
; 
; feature fill
PRIO_ON
G1 X-23.44129 Y4.2863 E741.09687 
; 
; feature travel
PRIO_OFF
G0 X-23.92017 Y4.2863 ;Travel
; 
; feature fill
PRIO_ON
G1 X-20.8 Y-4.2863 E758.98465 
; 
; feature travel
PRIO_OFF
G0 X-21.27888 Y-4.2863 ;Travel
; 
; feature fill
PRIO_ON
G1 X-24.39905 Y4.2863 E776.87244 
; 
; feature travel
PRIO_OFF
G0 X-24.4946 Y3.23312 ;Travel
; 
; feature fill
PRIO_ON
G1 X-21.75776 Y-4.2863 E792.56262 
; 
; feature travel
PRIO_OFF
G0 X-22.23664 Y-4.2863 ;Travel
; 
; feature fill
PRIO_ON
G1 X-24.4946 Y1.9174 E805.50742 
; 
; feature travel
PRIO_OFF
G0 X-24.4946 Y0.60169 ;Travel
; 
; feature fill
PRIO_ON
G1 X-22.71552 Y-4.2863 E815.70681 
; 
; feature travel
PRIO_OFF
G0 X-23.1944 Y-4.2863 ;Travel
; 
; feature fill
PRIO_ON
G1 X-24.4946 Y-0.71402 E823.16081 
; 
; feature travel
PRIO_OFF
G0 X-24.4946 Y-2.02973 ;Travel
; 
; feature fill
PRIO_ON
G1 X-23.67328 Y-4.2863 E827.86942 
; 
; feature travel
PRIO_OFF
G0 X-24.15216 Y-4.2863 ;Travel
; 
; feature fill
PRIO_ON
G1 X-24.4946 Y-3.34544 E829.83263 
; 
; feature travel
PRIO_OFF
G0 X-16.73697 Y4.2863 ;Travel
; 
; feature fill
PRIO_ON
G1 X-13.6168 Y-4.2863 E847.72042 
; 
; feature travel
PRIO_OFF
G0 X-13.13792 Y-4.2863 ;Travel
; 
; feature fill
PRIO_ON
G1 X-16.25809 Y4.2863 E865.6082 
; 
; feature travel
PRIO_OFF
G0 X-15.77921 Y4.2863 ;Travel
; 
; feature fill
PRIO_ON
G1 X-12.65904 Y-4.2863 E883.49599 
; 
; feature travel
PRIO_OFF
G0 X-12.18016 Y-4.2863 ;Travel
; 
; feature fill
PRIO_ON
G1 X-15.30033 Y4.2863 E901.38377 
; 
; feature travel
PRIO_OFF
G0 X-14.82145 Y4.2863 ;Travel
; 
; feature fill
PRIO_ON
G1 X-11.70128 Y-4.2863 E919.27156 
; 
; feature travel
PRIO_OFF
G0 X-11.2224 Y-4.2863 ;Travel
; 
; feature fill
PRIO_ON
G1 X-14.34257 Y4.2863 E937.15934 
; 
; feature travel
PRIO_OFF
G0 X-13.86369 Y4.2863 ;Travel
; 
; feature fill
PRIO_ON
G1 X-10.74352 Y-4.2863 E955.04713 
; 
; feature travel
PRIO_OFF
G0 X-10.26464 Y-4.2863 ;Travel
; 
; feature fill
PRIO_ON
G1 X-13.38481 Y4.2863 E972.93491 
; 
; feature travel
PRIO_OFF
G0 X-12.90593 Y4.2863 ;Travel
; 
; feature fill
PRIO_ON
G1 X-9.78576 Y-4.2863 E990.8227 
; 
; feature travel
PRIO_OFF
G0 X-9.30688 Y-4.2863 ;Travel
; 
; feature fill
PRIO_ON
G1 X-12.42705 Y4.2863 E1008.71048 
; 
; feature travel
PRIO_OFF
G0 X-11.94817 Y4.2863 ;Travel
; 
; feature fill
PRIO_ON
G1 X-8.828 Y-4.2863 E1026.59827 
; 
; feature travel
PRIO_OFF
G0 X-8.34912 Y-4.2863 ;Travel
; 
; feature fill
PRIO_ON
G1 X-11.46929 Y4.2863 E1044.48605 
; 
; feature travel
PRIO_OFF
G0 X-10.99041 Y4.2863 ;Travel
; 
; feature fill
PRIO_ON
G1 X-7.87024 Y-4.2863 E1062.37384 
; 
; feature travel
PRIO_OFF
G0 X-7.39136 Y-4.2863 ;Travel
; 
; feature fill
PRIO_ON
G1 X-10.51153 Y4.2863 E1080.26162 
; 
; feature travel
PRIO_OFF
G0 X-10.03265 Y4.2863 ;Travel
; 
; feature fill
PRIO_ON
G1 X-6.91248 Y-4.2863 E1098.14941 
; 
; feature travel
PRIO_OFF
G0 X-6.4336 Y-4.2863 ;Travel
; 
; feature fill
PRIO_ON
G1 X-9.55377 Y4.2863 E1116.03719 
; 
; feature travel
PRIO_OFF
G0 X-9.07489 Y4.2863 ;Travel
; 
; feature fill
PRIO_ON
G1 X-5.95472 Y-4.2863 E1133.92498 
; 
; feature travel
PRIO_OFF
G0 X-5.47584 Y-4.2863 ;Travel
; 
; feature fill
PRIO_ON
G1 X-8.59601 Y4.2863 E1151.81276 
; 
; feature travel
PRIO_OFF
G0 X-8.11713 Y4.2863 ;Travel
; 
; feature fill
PRIO_ON
G1 X-4.99696 Y-4.2863 E1169.70055 
; 
; feature travel
PRIO_OFF
G0 X-4.51808 Y-4.2863 ;Travel
; 
; feature fill
PRIO_ON
G1 X-7.63825 Y4.2863 E1187.58833 
; 
; feature travel
PRIO_OFF
G0 X-7.15937 Y4.2863 ;Travel
; 
; feature fill
PRIO_ON
G1 X-4.0392 Y-4.2863 E1205.47612 
; 
; feature travel
PRIO_OFF
G0 X-3.56032 Y-4.2863 ;Travel
; 
; feature fill
PRIO_ON
G1 X-6.68049 Y4.2863 E1223.3639 
; 
; feature travel
PRIO_OFF
G0 X-6.20161 Y4.2863 ;Travel
; 
; feature fill
PRIO_ON
G1 X-3.08144 Y-4.2863 E1241.25169 
; 
; feature travel
PRIO_OFF
G0 X-2.60256 Y-4.2863 ;Travel
; 
; feature fill
PRIO_ON
G1 X-5.72273 Y4.2863 E1259.13947 
; 
; feature travel
PRIO_OFF
G0 X-5.24385 Y4.2863 ;Travel
; 
; feature fill
PRIO_ON
G1 X-2.12368 Y-4.2863 E1277.02726 
; 
; feature travel
PRIO_OFF
G0 X-1.6448 Y-4.2863 ;Travel
; 
; feature fill
PRIO_ON
G1 X-4.76497 Y4.2863 E1294.91504 
; 
; feature travel
PRIO_OFF
G0 X-4.28609 Y4.2863 ;Travel
; 
; feature fill
PRIO_ON
G1 X-1.16592 Y-4.2863 E1312.80283 
; 
; feature travel
PRIO_OFF
G0 X-0.68704 Y-4.2863 ;Travel
; 
; feature fill
PRIO_ON
G1 X-3.80721 Y4.2863 E1330.69061 
; 
; feature travel
PRIO_OFF
G0 X-3.32833 Y4.2863 ;Travel
; 
; feature fill
PRIO_ON
G1 X-0.20816 Y-4.2863 E1348.5784 
; 
; feature travel
PRIO_OFF
G0 X0.27072 Y-4.2863 ;Travel
; 
; feature fill
PRIO_ON
G1 X-2.84945 Y4.2863 E1366.46618 
; 
; feature travel
PRIO_OFF
G0 X-2.37057 Y4.2863 ;Travel
; 
; feature fill
PRIO_ON
G1 X0.7496 Y-4.2863 E1384.35397 
; 
; feature travel
PRIO_OFF
G0 X1.22848 Y-4.2863 ;Travel
; 
; feature fill
PRIO_ON
G1 X-1.89169 Y4.2863 E1402.24175 
; 
; feature travel
PRIO_OFF
G0 X-1.41281 Y4.2863 ;Travel
; 
; feature fill
PRIO_ON
G1 X1.70736 Y-4.2863 E1420.12954 
; 
; feature travel
PRIO_OFF
G0 X2.18624 Y-4.2863 ;Travel
; 
; feature fill
PRIO_ON
G1 X-0.93393 Y4.2863 E1438.01732 
; 
; feature travel
PRIO_OFF
G0 X-0.45505 Y4.2863 ;Travel
; 
; feature fill
PRIO_ON
G1 X2.66512 Y-4.2863 E1455.90511 
; 
; feature travel
PRIO_OFF
G0 X3.144 Y-4.2863 ;Travel
; 
; feature fill
PRIO_ON
G1 X0.02383 Y4.2863 E1473.79289 
; 
; feature travel
PRIO_OFF
G0 X0.50271 Y4.2863 ;Travel
; 
; feature fill
PRIO_ON
G1 X3.62288 Y-4.2863 E1491.68068 
; 
; feature travel
PRIO_OFF
G0 X4.10176 Y-4.2863 ;Travel
; 
; feature fill
PRIO_ON
G1 X0.98159 Y4.2863 E1509.56846 
; 
; feature travel
PRIO_OFF
G0 X1.46047 Y4.2863 ;Travel
; 
; feature fill
PRIO_ON
G1 X4.58064 Y-4.2863 E1527.45625 
; 
; feature travel
PRIO_OFF
G0 X5.05952 Y-4.2863 ;Travel
; 
; feature fill
PRIO_ON
G1 X1.93935 Y4.2863 E1545.34403 
; 
; feature travel
PRIO_OFF
G0 X2.41823 Y4.2863 ;Travel
; 
; feature fill
PRIO_ON
G1 X5.5384 Y-4.2863 E1563.23182 
; 
; feature travel
PRIO_OFF
G0 X6.01728 Y-4.2863 ;Travel
; 
; feature fill
PRIO_ON
G1 X2.89711 Y4.2863 E1581.1196 
; 
; feature travel
PRIO_OFF
G0 X3.37599 Y4.2863 ;Travel
; 
; feature fill
PRIO_ON
G1 X6.49616 Y-4.2863 E1599.00739 
; 
; feature travel
PRIO_OFF
G0 X6.97504 Y-4.2863 ;Travel
; 
; feature fill
PRIO_ON
G1 X3.85487 Y4.2863 E1616.89517 
; 
; feature travel
PRIO_OFF
G0 X4.33375 Y4.2863 ;Travel
; 
; feature fill
PRIO_ON
G1 X7.45392 Y-4.2863 E1634.78296 
; 
; feature travel
PRIO_OFF
G0 X7.9328 Y-4.2863 ;Travel
; 
; feature fill
PRIO_ON
G1 X4.81263 Y4.2863 E1652.67074 
; 
; feature travel
PRIO_OFF
G0 X5.29151 Y4.2863 ;Travel
; 
; feature fill
PRIO_ON
G1 X8.41168 Y-4.2863 E1670.55853 
; 
; feature travel
PRIO_OFF
G0 X8.89056 Y-4.2863 ;Travel
; 
; feature fill
PRIO_ON
G1 X5.77039 Y4.2863 E1688.44631 
; 
; feature travel
PRIO_OFF
G0 X6.24927 Y4.2863 ;Travel
; 
; feature fill
PRIO_ON
G1 X9.36944 Y-4.2863 E1706.3341 
; 
; feature travel
PRIO_OFF
G0 X9.84832 Y-4.2863 ;Travel
; 
; feature fill
PRIO_ON
G1 X6.72815 Y4.2863 E1724.22188 
; 
; feature travel
PRIO_OFF
G0 X7.20703 Y4.2863 ;Travel
; 
; feature fill
PRIO_ON
G1 X10.3272 Y-4.2863 E1742.10967 
; 
; feature travel
PRIO_OFF
G0 X10.80608 Y-4.2863 ;Travel
; 
; feature fill
PRIO_ON
G1 X7.68591 Y4.2863 E1759.99745 
; 
; feature travel
PRIO_OFF
G0 X8.16479 Y4.2863 ;Travel
; 
; feature fill
PRIO_ON
G1 X11.28496 Y-4.2863 E1777.88524 
; 
; feature travel
PRIO_OFF
G0 X11.76384 Y-4.2863 ;Travel
; 
; feature fill
PRIO_ON
G1 X8.64367 Y4.2863 E1795.77302 
; 
; feature travel
PRIO_OFF
G0 X9.12255 Y4.2863 ;Travel
; 
; feature fill
PRIO_ON
G1 X12.24272 Y-4.2863 E1813.66081 
; 
; feature travel
PRIO_OFF
G0 X12.7216 Y-4.2863 ;Travel
; 
; feature fill
PRIO_ON
G1 X9.60143 Y4.2863 E1831.54859 
; 
; feature travel
PRIO_OFF
G0 X10.08031 Y4.2863 ;Travel
; 
; feature fill
PRIO_ON
G1 X13.20048 Y-4.2863 E1849.43638 
; 
; feature travel
PRIO_OFF
G0 X13.67936 Y-4.2863 ;Travel
; 
; feature fill
PRIO_ON
G1 X10.55919 Y4.2863 E1867.32416 
; 
; feature travel
PRIO_OFF
G0 X11.03807 Y4.2863 ;Travel
; 
; feature fill
PRIO_ON
G1 X14.15824 Y-4.2863 E1885.21195 
; 
; feature travel
PRIO_OFF
G0 X14.63712 Y-4.2863 ;Travel
; 
; feature fill
PRIO_ON
G1 X11.51695 Y4.2863 E1903.09973 
; 
; feature travel
PRIO_OFF
G0 X11.99583 Y4.2863 ;Travel
; 
; feature fill
PRIO_ON
G1 X15.116 Y-4.2863 E1920.98752 
; 
; feature travel
PRIO_OFF
G0 X15.59488 Y-4.2863 ;Travel
; 
; feature fill
PRIO_ON
G1 X12.47471 Y4.2863 E1938.8753 
; 
; feature travel
PRIO_OFF
G0 X12.95359 Y4.2863 ;Travel
; 
; feature fill
PRIO_ON
G1 X16.07376 Y-4.2863 E1956.76309 
; 
; feature travel
PRIO_OFF
G0 X16.55264 Y-4.2863 ;Travel
; 
; feature fill
PRIO_ON
G1 X13.43247 Y4.2863 E1974.65087 
; 
; feature travel
PRIO_OFF
G0 X13.91135 Y4.2863 ;Travel
; 
; feature fill
PRIO_ON
G1 X17.03152 Y-4.2863 E1992.53866 
; 
; feature travel
PRIO_OFF
G0 X17.5104 Y-4.2863 ;Travel
; 
; feature fill
PRIO_ON
G1 X14.39023 Y4.2863 E2010.42644 
; 
; feature travel
PRIO_OFF
G0 X14.86911 Y4.2863 ;Travel
; 
; feature fill
PRIO_ON
G1 X17.98928 Y-4.2863 E2028.31423 
; 
; feature travel
PRIO_OFF
G0 X18.46816 Y-4.2863 ;Travel
; 
; feature fill
PRIO_ON
G1 X15.34799 Y4.2863 E2046.20201 
; 
; feature travel
PRIO_OFF
G0 X15.82687 Y4.2863 ;Travel
; 
; feature fill
PRIO_ON
G1 X18.94704 Y-4.2863 E2064.0898 
; 
; feature travel
PRIO_OFF
G0 X19.42592 Y-4.2863 ;Travel
; 
; feature fill
PRIO_ON
G1 X16.30575 Y4.2863 E2081.97758 
; 
; feature travel
PRIO_OFF
G0 X16.78463 Y4.2863 ;Travel
; 
; feature fill
PRIO_ON
G1 X19.9048 Y-4.2863 E2099.86537 
; 
; feature travel
PRIO_OFF
G0 X20.38368 Y-4.2863 ;Travel
; 
; feature fill
PRIO_ON
G1 X17.26351 Y4.2863 E2117.75315 
; 
; feature travel
PRIO_OFF
G0 X17.74239 Y4.2863 ;Travel
; 
; feature fill
PRIO_ON
G1 X20.86256 Y-4.2863 E2135.64094 
; 
; feature travel
PRIO_OFF
G0 X21.34144 Y-4.2863 ;Travel
; 
; feature fill
PRIO_ON
G1 X18.22127 Y4.2863 E2153.52872 
; 
; feature travel
PRIO_OFF
G0 X18.70015 Y4.2863 ;Travel
; 
; feature fill
PRIO_ON
G1 X21.82032 Y-4.2863 E2171.41651 
; 
; feature travel
PRIO_OFF
G0 X22.2992 Y-4.2863 ;Travel
; 
; feature fill
PRIO_ON
G1 X19.17903 Y4.2863 E2189.30429 
; 
; feature travel
PRIO_OFF
G0 X19.65791 Y4.2863 ;Travel
; 
; feature fill
PRIO_ON
G1 X22.77808 Y-4.2863 E2207.19208 
; 
; feature travel
PRIO_OFF
G0 X23.25696 Y-4.2863 ;Travel
; 
; feature fill
PRIO_ON
G1 X20.13679 Y4.2863 E2225.07986 
; 
; feature travel
PRIO_OFF
G0 X20.61567 Y4.2863 ;Travel
; 
; feature fill
PRIO_ON
G1 X23.73584 Y-4.2863 E2242.96765 
; 
; feature travel
PRIO_OFF
G0 X24.21472 Y-4.2863 ;Travel
; 
; feature fill
PRIO_ON
G1 X21.09455 Y4.2863 E2260.85543 
; 
; feature travel
PRIO_OFF
G0 X21.57343 Y4.2863 ;Travel
; 
; feature fill
PRIO_ON
G1 X24.4946 Y-3.73954 E2277.60234 
; 
; feature travel
PRIO_OFF
G0 X24.4946 Y-2.42383 ;Travel
; 
; feature fill
PRIO_ON
G1 X22.05231 Y4.2863 E2291.60386 
; 
; feature travel
PRIO_OFF
G0 X22.53119 Y4.2863 ;Travel
; 
; feature fill
PRIO_ON
G1 X24.4946 Y-1.10812 E2302.85998 
; 
; feature travel
PRIO_OFF
G0 X24.4946 Y0.20759 ;Travel
; 
; feature fill
PRIO_ON
G1 X23.01007 Y4.2863 E2311.3707 
; 
; feature travel
PRIO_OFF
G0 X23.48895 Y4.2863 ;Travel
; 
; feature fill
PRIO_ON
G1 X24.4946 Y1.5233 E2317.13603 
; 
; feature travel
PRIO_OFF
G0 X24.4946 Y2.83902 ;Travel
; 
; feature fill
PRIO_ON
G1 X23.96783 Y4.2863 E2320.15597 
; 
; feature travel
PRIO_OFF
G0 X24.44671 Y4.2863 ;Travel
; 
; feature fill
PRIO_ON
G1 X24.4946 Y4.15473 E2320.43051 
PRIO_OFF
LayersCompleted=7
M1
; 
;========================
; layer 7, Z = 1.9200
; 
; reset extrusion
STOPRE
PRESETON(E, 0)
DO PRIO_PULSE_DISTANCE=DROP_SCALE
DO PRIO_ON_PATH_OFFSET=0.5*PRIO_PULSE_DISTANCE
;outer: (25.2604,-5.0521) (25.2604,5.0521) (-25.2604,5.0521) (-25.2604,-5.0521) (16.2604,-5.0521) holes: !
;overhangs:!
; 
; feature plane change
G0 X24.4946 Y4.15473 Z1.92 ;Plane Change
; 
; feature travel
G0 X-7.4324 Y-4.637 ;Travel
; 
; feature outer perimeter
G1 F24000 FL[E] = OuterPerimeterFrequency * DROP_SCALE * 60
PRIO_ON
G1 X-24.8454 Y-4.637 E40.97176 
G1 X-24.8454 Y4.637 E62.79293 
G1 X24.8454 Y4.637 E179.71246 
G1 X24.8454 Y-4.637 E201.53364 
G1 X-7.4324 Y-4.637 E277.48141 
; 
; feature travel
PRIO_OFF
G0 X-7.4324 Y-4.286 ;Travel
; 
; feature inner perimeter
G1 F24000 FL[E] = InnerPerimeterFrequency * DROP_SCALE * 60
PRIO_ON
G1 X24.4944 Y-4.286 E336.60512 
G1 X24.4944 Y4.286 E352.47919 
G1 X-24.4944 Y4.286 E443.19919 
G1 X-24.4944 Y-4.286 E459.07327 
G1 X-7.4324 Y-4.286 E490.66956 
; 
; feature travel
PRIO_OFF
G0 X-7.27294 Y-4.2863 ;Travel
; 
; feature fill
G1 F24000 FL[E] = FillFrequency * DROP_SCALE * 60
PRIO_ON
G1 X-24.4947 Y3.74434 E527.92859 
; 
; feature travel
PRIO_OFF
G0 X-24.4947 Y3.24782 ;Travel
; 
; feature fill
PRIO_ON
G1 X-8.33773 Y-4.2863 E562.88397 
; 
; feature travel
PRIO_OFF
G0 X-9.40252 Y-4.2863 ;Travel
; 
; feature fill
PRIO_ON
G1 X-24.4947 Y2.7513 E595.53568 
; 
; feature travel
PRIO_OFF
G0 X-24.4947 Y2.25478 ;Travel
; 
; feature fill
PRIO_ON
G1 X-10.46731 Y-4.2863 E625.88373 
; 
; feature travel
PRIO_OFF
G0 X-11.53211 Y-4.2863 ;Travel
; 
; feature fill
PRIO_ON
G1 X-24.4947 Y1.75826 E653.92813 
; 
; feature travel
PRIO_OFF
G0 X-24.4947 Y1.26174 ;Travel
; 
; feature fill
PRIO_ON
G1 X-12.5969 Y-4.2863 E679.66886 
; 
; feature travel
PRIO_OFF
G0 X-13.66169 Y-4.2863 ;Travel
; 
; feature fill
PRIO_ON
G1 X-24.4947 Y0.76522 E703.10593 
; 
; feature travel
PRIO_OFF
G0 X-24.4947 Y0.2687 ;Travel
; 
; feature fill
PRIO_ON
G1 X-14.72648 Y-4.2863 E724.23935 
; 
; feature travel
PRIO_OFF
G0 X-15.79127 Y-4.2863 ;Travel
; 
; feature fill
PRIO_ON
G1 X-24.4947 Y-0.22782 E743.0691 
; 
; feature travel
PRIO_OFF
G0 X-24.4947 Y-0.72434 ;Travel
; 
; feature fill
PRIO_ON
G1 X-16.85606 Y-4.2863 E759.5952 
; 
; feature travel
PRIO_OFF
G0 X-17.92085 Y-4.2863 ;Travel
; 
; feature fill
PRIO_ON
G1 X-24.4947 Y-1.22086 E773.81763 
; 
; feature travel
PRIO_OFF
G0 X-24.4947 Y-1.71738 ;Travel
; 
; feature fill
PRIO_ON
G1 X-18.98564 Y-4.2863 E785.7364 
; 
; feature travel
PRIO_OFF
G0 X-20.05043 Y-4.2863 ;Travel
; 
; feature fill
PRIO_ON
G1 X-24.4947 Y-2.2139 E795.35152 
; 
; feature travel
PRIO_OFF
G0 X-24.4947 Y-2.71042 ;Travel
; 
; feature fill
PRIO_ON
G1 X-21.11522 Y-4.2863 E802.66297 
; 
; feature travel
PRIO_OFF
G0 X-22.18001 Y-4.2863 ;Travel
; 
; feature fill
PRIO_ON
G1 X-24.4947 Y-3.20694 E807.67077 
; 
; feature travel
PRIO_OFF
G0 X-24.4947 Y-3.70346 ;Travel
; 
; feature fill
PRIO_ON
G1 X-23.2448 Y-4.2863 E810.3749 
; 
; feature travel
PRIO_OFF
G0 X-24.30959 Y-4.2863 ;Travel
; 
; feature fill
PRIO_ON
G1 X-24.4947 Y-4.19998 E810.77537 
; 
; feature travel
PRIO_OFF
G0 X-24.4947 Y4.24086 ;Travel
; 
; feature fill
PRIO_ON
G1 X-6.20815 Y-4.2863 E850.33807 
; 
; feature travel
PRIO_OFF
G0 X-5.14336 Y-4.2863 ;Travel
; 
; feature fill
PRIO_ON
G1 X-23.52736 Y4.2863 E890.1116 
; 
; feature travel
PRIO_OFF
G0 X-22.46257 Y4.2863 ;Travel
; 
; feature fill
PRIO_ON
G1 X-4.07857 Y-4.2863 E929.88513 
; 
; feature travel
PRIO_OFF
G0 X-3.01378 Y-4.2863 ;Travel
; 
; feature fill
PRIO_ON
G1 X-21.39778 Y4.2863 E969.65865 
; 
; feature travel
PRIO_OFF
G0 X-20.33299 Y4.2863 ;Travel
; 
; feature fill
PRIO_ON
G1 X-1.94899 Y-4.2863 E1009.43218 
; 
; feature travel
PRIO_OFF
G0 X-0.8842 Y-4.2863 ;Travel
; 
; feature fill
PRIO_ON
G1 X-19.2682 Y4.2863 E1049.20571 
; 
; feature travel
PRIO_OFF
G0 X-18.20341 Y4.2863 ;Travel
; 
; feature fill
PRIO_ON
G1 X0.18059 Y-4.2863 E1088.97924 
; 
; feature travel
PRIO_OFF
G0 X1.24538 Y-4.2863 ;Travel
; 
; feature fill
PRIO_ON
G1 X-17.13862 Y4.2863 E1128.75277 
; 
; feature travel
PRIO_OFF
G0 X-16.07383 Y4.2863 ;Travel
; 
; feature fill
PRIO_ON
G1 X2.31017 Y-4.2863 E1168.5263 
; 
; feature travel
PRIO_OFF
G0 X3.37496 Y-4.2863 ;Travel
; 
; feature fill
PRIO_ON
G1 X-15.00904 Y4.2863 E1208.29983 
; 
; feature travel
PRIO_OFF
G0 X-13.94424 Y4.2863 ;Travel
; 
; feature fill
PRIO_ON
G1 X4.43976 Y-4.2863 E1248.07336 
; 
; feature travel
PRIO_OFF
G0 X5.50455 Y-4.2863 ;Travel
; 
; feature fill
PRIO_ON
G1 X-12.87945 Y4.2863 E1287.84688 
; 
; feature travel
PRIO_OFF
G0 X-11.81466 Y4.2863 ;Travel
; 
; feature fill
PRIO_ON
G1 X6.56934 Y-4.2863 E1327.62041 
; 
; feature travel
PRIO_OFF
G0 X7.63413 Y-4.2863 ;Travel
; 
; feature fill
PRIO_ON
G1 X-10.74987 Y4.2863 E1367.39394 
; 
; feature travel
PRIO_OFF
G0 X-9.68508 Y4.2863 ;Travel
; 
; feature fill
PRIO_ON
G1 X8.69892 Y-4.2863 E1407.16747 
; 
; feature travel
PRIO_OFF
G0 X9.76371 Y-4.2863 ;Travel
; 
; feature fill
PRIO_ON
G1 X-8.62029 Y4.2863 E1446.941 
; 
; feature travel
PRIO_OFF
G0 X-7.5555 Y4.2863 ;Travel
; 
; feature fill
PRIO_ON
G1 X10.8285 Y-4.2863 E1486.71453 
; 
; feature travel
PRIO_OFF
G0 X11.89329 Y-4.2863 ;Travel
; 
; feature fill
PRIO_ON
G1 X-6.49071 Y4.2863 E1526.48806 
; 
; feature travel
PRIO_OFF
G0 X-5.42592 Y4.2863 ;Travel
; 
; feature fill
PRIO_ON
G1 X12.95808 Y-4.2863 E1566.26159 
; 
; feature travel
PRIO_OFF
G0 X14.02287 Y-4.2863 ;Travel
; 
; feature fill
PRIO_ON
G1 X-4.36113 Y4.2863 E1606.03511 
; 
; feature travel
PRIO_OFF
G0 X-3.29634 Y4.2863 ;Travel
; 
; feature fill
PRIO_ON
G1 X15.08766 Y-4.2863 E1645.80864 
; 
; feature travel
PRIO_OFF
G0 X16.15245 Y-4.2863 ;Travel
; 
; feature fill
PRIO_ON
G1 X-2.23155 Y4.2863 E1685.58217 
; 
; feature travel
PRIO_OFF
G0 X-1.16676 Y4.2863 ;Travel
; 
; feature fill
PRIO_ON
G1 X17.21724 Y-4.2863 E1725.3557 
; 
; feature travel
PRIO_OFF
G0 X18.28203 Y-4.2863 ;Travel
; 
; feature fill
PRIO_ON
G1 X-0.10197 Y4.2863 E1765.12923 
; 
; feature travel
PRIO_OFF
G0 X0.96283 Y4.2863 ;Travel
; 
; feature fill
PRIO_ON
G1 X19.34683 Y-4.2863 E1804.90276 
; 
; feature travel
PRIO_OFF
G0 X20.41162 Y-4.2863 ;Travel
; 
; feature fill
PRIO_ON
G1 X2.02762 Y4.2863 E1844.67629 
; 
; feature travel
PRIO_OFF
G0 X3.09241 Y4.2863 ;Travel
; 
; feature fill
PRIO_ON
G1 X21.47641 Y-4.2863 E1884.44982 
; 
; feature travel
PRIO_OFF
G0 X22.5412 Y-4.2863 ;Travel
; 
; feature fill
PRIO_ON
G1 X4.1572 Y4.2863 E1924.22335 
; 
; feature travel
PRIO_OFF
G0 X5.22199 Y4.2863 ;Travel
; 
; feature fill
PRIO_ON
G1 X23.60599 Y-4.2863 E1963.99687 
; 
; feature travel
PRIO_OFF
G0 X24.4947 Y-4.20419 ;Travel
; 
; feature fill
PRIO_ON
G1 X6.28678 Y4.2863 E2003.38946 
; 
; feature travel
PRIO_OFF
G0 X7.35157 Y4.2863 ;Travel
; 
; feature fill
PRIO_ON
G1 X24.4947 Y-3.70767 E2040.47838 
; 
; feature travel
PRIO_OFF
G0 X24.4947 Y-3.21115 ;Travel
; 
; feature fill
PRIO_ON
G1 X8.41636 Y4.2863 E2075.26365 
; 
; feature travel
PRIO_OFF
G0 X9.48115 Y4.2863 ;Travel
; 
; feature fill
PRIO_ON
G1 X24.4947 Y-2.71463 E2107.74525 
; 
; feature travel
PRIO_OFF
G0 X24.4947 Y-2.21811 ;Travel
; 
; feature fill
PRIO_ON
G1 X10.54594 Y4.2863 E2137.9232 
; 
; feature travel
PRIO_OFF
G0 X11.61073 Y4.2863 ;Travel
; 
; feature fill
PRIO_ON
G1 X24.4947 Y-1.72159 E2165.79748 
; 
; feature travel
PRIO_OFF
G0 X24.4947 Y-1.22507 ;Travel
; 
; feature fill
PRIO_ON
G1 X12.67552 Y4.2863 E2191.36811 
; 
; feature travel
PRIO_OFF
G0 X13.74031 Y4.2863 ;Travel
; 
; feature fill
PRIO_ON
G1 X24.4947 Y-0.72855 E2214.63507 
; 
; feature travel
PRIO_OFF
G0 X24.4947 Y-0.23203 ;Travel
; 
; feature fill
PRIO_ON
G1 X14.8051 Y4.2863 E2235.59838 
; 
; feature travel
PRIO_OFF
G0 X15.8699 Y4.2863 ;Travel
; 
; feature fill
PRIO_ON
G1 X24.4947 Y0.26449 E2254.25802 
; 
; feature travel
PRIO_OFF
G0 X24.4947 Y0.76101 ;Travel
; 
; feature fill
PRIO_ON
G1 X16.93469 Y4.2863 E2270.61401 
; 
; feature travel
PRIO_OFF
G0 X17.99948 Y4.2863 ;Travel
; 
; feature fill
PRIO_ON
G1 X24.4947 Y1.25753 E2284.66634 
; 
; feature travel
PRIO_OFF
G0 X24.4947 Y1.75405 ;Travel
; 
; feature fill
PRIO_ON
G1 X19.06427 Y4.2863 E2296.415 
; 
; feature travel
PRIO_OFF
G0 X20.12906 Y4.2863 ;Travel
; 
; feature fill
PRIO_ON
G1 X24.4947 Y2.25057 E2305.86001 
; 
; feature travel
PRIO_OFF
G0 X24.4947 Y2.74709 ;Travel
; 
; feature fill
PRIO_ON
G1 X21.19385 Y4.2863 E2313.00135 
; 
; feature travel
PRIO_OFF
G0 X22.25864 Y4.2863 ;Travel
; 
; feature fill
PRIO_ON
G1 X24.4947 Y3.24361 E2317.83904 
; 
; feature travel
PRIO_OFF
G0 X24.4947 Y3.74013 ;Travel
; 
; feature fill
PRIO_ON
G1 X23.32343 Y4.2863 E2320.37306 
; 
; feature travel
PRIO_OFF
G0 X24.38822 Y4.2863 ;Travel
; 
; feature fill
PRIO_ON
G1 X24.4947 Y4.23665 E2320.60343 
PRIO_OFF
LayersCompleted=8
M1
; 
;========================
; layer 8, Z = 2.1600
; 
; reset extrusion
STOPRE
PRESETON(E, 0)
DO PRIO_PULSE_DISTANCE=DROP_SCALE
DO PRIO_ON_PATH_OFFSET=0.5*PRIO_PULSE_DISTANCE
;outer: (25.2604,-5.0521) (25.2604,5.0521) (-25.2604,5.0521) (-25.2604,-5.0521) (15.0604,-5.0521) holes: !
;overhangs:!
; 
; feature plane change
G0 X24.4947 Y4.23665 Z2.16 ;Plane Change
; 
; feature travel
G0 X-14.36772 Y-4.637 ;Travel
; 
; feature outer perimeter
G1 F24000 FL[E] = OuterPerimeterFrequency * DROP_SCALE * 60
PRIO_ON
G1 X24.8454 Y-4.637 E92.26617 
G1 X24.8454 Y4.637 E114.08734 
G1 X-24.8454 Y4.637 E231.00687 
G1 X-24.8454 Y-4.637 E252.82805 
G1 X-14.36772 Y-4.637 E277.48141 
; 
; feature travel
PRIO_OFF
G0 X-14.36772 Y-4.286 ;Travel
; 
; feature inner perimeter
G1 F24000 FL[E] = InnerPerimeterFrequency * DROP_SCALE * 60
PRIO_ON
G1 X-24.4944 Y-4.286 E296.23452 
G1 X-24.4944 Y4.286 E312.1086 
G1 X24.4944 Y4.286 E402.8286 
G1 X24.4944 Y-4.286 E418.70267 
G1 X-14.36772 Y-4.286 E490.66956 
; 
; feature travel
PRIO_OFF
G0 X-15.02335 Y-4.2863 ;Travel
; 
; feature fill
G1 F24000 FL[E] = FillFrequency * DROP_SCALE * 60
PRIO_ON
G1 X8.52967 Y4.2863 E539.81585 
; 
; feature travel
PRIO_OFF
G0 X9.84538 Y4.2863 ;Travel
; 
; feature fill
PRIO_ON
G1 X-13.70764 Y-4.2863 E588.96213 
; 
; feature travel
PRIO_OFF
G0 X-12.39193 Y-4.2863 ;Travel
; 
; feature fill
PRIO_ON
G1 X11.16109 Y4.2863 E638.10842 
; 
; feature travel
PRIO_OFF
G0 X12.47681 Y4.2863 ;Travel
; 
; feature fill
PRIO_ON
G1 X-11.07622 Y-4.2863 E687.2547 
; 
; feature travel
PRIO_OFF
G0 X-9.76051 Y-4.2863 ;Travel
; 
; feature fill
PRIO_ON
G1 X13.79252 Y4.2863 E736.40099 
; 
; feature travel
PRIO_OFF
G0 X15.10823 Y4.2863 ;Travel
; 
; feature fill
PRIO_ON
G1 X-8.44479 Y-4.2863 E785.54727 
; 
; feature travel
PRIO_OFF
G0 X-7.12908 Y-4.2863 ;Travel
; 
; feature fill
PRIO_ON
G1 X16.42394 Y4.2863 E834.69356 
; 
; feature travel
PRIO_OFF
G0 X17.73965 Y4.2863 ;Travel
; 
; feature fill
PRIO_ON
G1 X-5.81337 Y-4.2863 E883.83984 
; 
; feature travel
PRIO_OFF
G0 X-4.49766 Y-4.2863 ;Travel
; 
; feature fill
PRIO_ON
G1 X19.05537 Y4.2863 E932.98613 
; 
; feature travel
PRIO_OFF
G0 X20.37108 Y4.2863 ;Travel
; 
; feature fill
PRIO_ON
G1 X-3.18195 Y-4.2863 E982.13241 
; 
; feature travel
PRIO_OFF
G0 X-1.86623 Y-4.2863 ;Travel
; 
; feature fill
PRIO_ON
G1 X21.68679 Y4.2863 E1031.2787 
; 
; feature travel
PRIO_OFF
G0 X23.0025 Y4.2863 ;Travel
; 
; feature fill
PRIO_ON
G1 X-0.55052 Y-4.2863 E1080.42499 
; 
; feature travel
PRIO_OFF
G0 X0.76519 Y-4.2863 ;Travel
; 
; feature fill
PRIO_ON
G1 X24.31821 Y4.2863 E1129.57127 
; 
; feature travel
PRIO_OFF
G0 X24.4947 Y3.87166 ;Travel
; 
; feature fill
PRIO_ON
G1 X2.0809 Y-4.2863 E1176.34042 
; 
; feature travel
PRIO_OFF
G0 X3.39661 Y-4.2863 ;Travel
; 
; feature fill
PRIO_ON
G1 X24.4947 Y3.39278 E1220.36417 
; 
; feature travel
PRIO_OFF
G0 X24.4947 Y2.9139 ;Travel
; 
; feature fill
PRIO_ON
G1 X4.71233 Y-4.2863 E1261.64253 
; 
; feature travel
PRIO_OFF
G0 X6.02804 Y-4.2863 ;Travel
; 
; feature fill
PRIO_ON
G1 X24.4947 Y2.43502 E1300.1755 
; 
; feature travel
PRIO_OFF
G0 X24.4947 Y1.95614 ;Travel
; 
; feature fill
PRIO_ON
G1 X7.34375 Y-4.2863 E1335.96307 
; 
; feature travel
PRIO_OFF
G0 X8.65946 Y-4.2863 ;Travel
; 
; feature fill
PRIO_ON
G1 X24.4947 Y1.47726 E1369.00524 
; 
; feature travel
PRIO_OFF
G0 X24.4947 Y0.99838 ;Travel
; 
; feature fill
PRIO_ON
G1 X9.97517 Y-4.2863 E1399.30202 
; 
; feature travel
PRIO_OFF
G0 X11.29089 Y-4.2863 ;Travel
; 
; feature fill
PRIO_ON
G1 X24.4947 Y0.5195 E1426.85341 
; 
; feature travel
PRIO_OFF
G0 X24.4947 Y0.04062 ;Travel
; 
; feature fill
PRIO_ON
G1 X12.6066 Y-4.2863 E1451.6594 
; 
; feature travel
PRIO_OFF
G0 X13.92231 Y-4.2863 ;Travel
; 
; feature fill
PRIO_ON
G1 X24.4947 Y-0.43826 E1473.71999 
; 
; feature travel
PRIO_OFF
G0 X24.4947 Y-0.91714 ;Travel
; 
; feature fill
PRIO_ON
G1 X15.23802 Y-4.2863 E1493.03519 
; 
; feature travel
PRIO_OFF
G0 X16.55373 Y-4.2863 ;Travel
; 
; feature fill
PRIO_ON
G1 X24.4947 Y-1.39602 E1509.60499 
; 
; feature travel
PRIO_OFF
G0 X24.4947 Y-1.8749 ;Travel
; 
; feature fill
PRIO_ON
G1 X17.86945 Y-4.2863 E1523.4294 
; 
; feature travel
PRIO_OFF
G0 X19.18516 Y-4.2863 ;Travel
; 
; feature fill
PRIO_ON
G1 X24.4947 Y-2.35378 E1534.50842 
; 
; feature travel
PRIO_OFF
G0 X24.4947 Y-2.83266 ;Travel
; 
; feature fill
PRIO_ON
G1 X20.50087 Y-4.2863 E1542.84204 
; 
; feature travel
PRIO_OFF
G0 X21.81658 Y-4.2863 ;Travel
; 
; feature fill
PRIO_ON
G1 X24.4947 Y-3.31154 E1548.43026 
; 
; feature travel
PRIO_OFF
G0 X24.4947 Y-3.79042 ;Travel
; 
; feature fill
PRIO_ON
G1 X23.13229 Y-4.2863 E1551.27309 
; 
; feature travel
PRIO_OFF
G0 X7.21396 Y4.2863 ;Travel
; 
; feature fill
PRIO_ON
G1 X-16.33907 Y-4.2863 E1600.41938 
; 
; feature travel
PRIO_OFF
G0 X-17.65478 Y-4.2863 ;Travel
; 
; feature fill
PRIO_ON
G1 X5.89825 Y4.2863 E1649.56566 
; 
; feature travel
PRIO_OFF
G0 X4.58253 Y4.2863 ;Travel
; 
; feature fill
PRIO_ON
G1 X-18.97049 Y-4.2863 E1698.71195 
; 
; feature travel
PRIO_OFF
G0 X-20.2862 Y-4.2863 ;Travel
; 
; feature fill
PRIO_ON
G1 X3.26682 Y4.2863 E1747.85823 
; 
; feature travel
PRIO_OFF
G0 X1.95111 Y4.2863 ;Travel
; 
; feature fill
PRIO_ON
G1 X-21.60191 Y-4.2863 E1797.00452 
; 
; feature travel
PRIO_OFF
G0 X-22.91763 Y-4.2863 ;Travel
; 
; feature fill
PRIO_ON
G1 X0.6354 Y4.2863 E1846.1508 
; 
; feature travel
PRIO_OFF
G0 X-0.68031 Y4.2863 ;Travel
; 
; feature fill
PRIO_ON
G1 X-24.23334 Y-4.2863 E1895.29709 
; 
; feature travel
PRIO_OFF
G0 X-24.4947 Y-3.90255 ;Travel
; 
; feature fill
PRIO_ON
G1 X-1.99603 Y4.2863 E1942.24334 
; 
; feature travel
PRIO_OFF
G0 X-3.31174 Y4.2863 ;Travel
; 
; feature fill
PRIO_ON
G1 X-24.4947 Y-3.42367 E1986.4442 
; 
; feature travel
PRIO_OFF
G0 X-24.4947 Y-2.94479 ;Travel
; 
; feature fill
PRIO_ON
G1 X-4.62745 Y4.2863 E2027.89967 
; 
; feature travel
PRIO_OFF
G0 X-5.94316 Y4.2863 ;Travel
; 
; feature fill
PRIO_ON
G1 X-24.4947 Y-2.46591 E2066.60974 
; 
; feature travel
PRIO_OFF
G0 X-24.4947 Y-1.98703 ;Travel
; 
; feature fill
PRIO_ON
G1 X-7.25887 Y4.2863 E2102.57441 
; 
; feature travel
PRIO_OFF
G0 X-8.57459 Y4.2863 ;Travel
; 
; feature fill
PRIO_ON
G1 X-24.4947 Y-1.50815 E2135.79369 
; 
; feature travel
PRIO_OFF
G0 X-24.4947 Y-1.02927 ;Travel
; 
; feature fill
PRIO_ON
G1 X-9.8903 Y4.2863 E2166.26757 
; 
; feature travel
PRIO_OFF
G0 X-11.20601 Y4.2863 ;Travel
; 
; feature fill
PRIO_ON
G1 X-24.4947 Y-0.55039 E2193.99606 
; 
; feature travel
PRIO_OFF
G0 X-24.4947 Y-0.07151 ;Travel
; 
; feature fill
PRIO_ON
G1 X-12.52172 Y4.2863 E2218.97916 
; 
; feature travel
PRIO_OFF
G0 X-13.83743 Y4.2863 ;Travel
; 
; feature fill
PRIO_ON
G1 X-24.4947 Y0.40737 E2241.21686 
; 
; feature travel
PRIO_OFF
G0 X-24.4947 Y0.88625 ;Travel
; 
; feature fill
PRIO_ON
G1 X-15.15314 Y4.2863 E2260.70916 
; 
; feature travel
PRIO_OFF
G0 X-16.46886 Y4.2863 ;Travel
; 
; feature fill
PRIO_ON
G1 X-24.4947 Y1.36513 E2277.45607 
; 
; feature travel
PRIO_OFF
G0 X-24.4947 Y1.84401 ;Travel
; 
; feature fill
PRIO_ON
G1 X-17.78457 Y4.2863 E2291.45759 
; 
; feature travel
PRIO_OFF
G0 X-19.10028 Y4.2863 ;Travel
; 
; feature fill
PRIO_ON
G1 X-24.4947 Y2.32289 E2302.71371 
; 
; feature travel
PRIO_OFF
G0 X-24.4947 Y2.80177 ;Travel
; 
; feature fill
PRIO_ON
G1 X-20.41599 Y4.2863 E2311.22443 
; 
; feature travel
PRIO_OFF
G0 X-21.7317 Y4.2863 ;Travel
; 
; feature fill
PRIO_ON
G1 X-24.4947 Y3.28065 E2316.98976 
; 
; feature travel
PRIO_OFF
G0 X-24.4947 Y3.75953 ;Travel
; 
; feature fill
PRIO_ON
G1 X-23.04742 Y4.2863 E2320.00969 
; 
; feature travel
PRIO_OFF
G0 X-24.36313 Y4.2863 ;Travel
; 
; feature fill
PRIO_ON
G1 X-24.4947 Y4.23841 E2320.28423 
PRIO_OFF
LayersCompleted=9
M1
; 
;========================
; layer 9, Z = 2.4000
; 
; reset extrusion
STOPRE
PRESETON(E, 0)
DO PRIO_PULSE_DISTANCE=DROP_SCALE
DO PRIO_ON_PATH_OFFSET=0.5*PRIO_PULSE_DISTANCE
;outer: (25.2604,-5.0521) (25.2604,5.0521) (-25.2604,5.0521) (-25.2604,-5.0521) (13.8604,-5.0521) holes: !
;overhangs:!
; 
; feature plane change
G0 X-24.4947 Y4.23841 Z2.4 ;Plane Change
; 
; feature travel
G0 X-21.73881 Y4.637 ;Travel
; 
; feature outer perimeter
G1 F24000 FL[E] = OuterPerimeterFrequency * DROP_SCALE * 60
PRIO_ON
G1 X24.8453 Y4.637 E109.60966 
G1 X24.8453 Y-4.637 E131.43084 
G1 X-24.8453 Y-4.637 E248.3499 
G1 X-24.8453 Y4.637 E270.17108 
G1 X-21.73881 Y4.637 E277.48047 
; 
; feature travel
PRIO_OFF
G0 X-21.73881 Y4.286 ;Travel
; 
; feature inner perimeter
G1 F24000 FL[E] = InnerPerimeterFrequency * DROP_SCALE * 60
PRIO_ON
G1 X-24.4943 Y4.286 E282.58323 
G1 X-24.4943 Y-4.286 E298.45731 
G1 X24.4943 Y-4.286 E389.17694 
G1 X24.4943 Y4.286 E405.05101 
G1 X-21.73881 Y4.286 E490.66788 
; 
; feature travel
PRIO_OFF
G0 X-21.96235 Y4.2863 ;Travel
; 
; feature fill
G1 F24000 FL[E] = FillFrequency * DROP_SCALE * 60
PRIO_ON
G1 X-24.4946 Y-1.14413 E502.41654 
; 
; feature travel
PRIO_OFF
G0 X-24.4946 Y-2.20892 ;Travel
; 
; feature fill
PRIO_ON
G1 X-21.46583 Y4.2863 E516.46887 
; 
; feature travel
PRIO_OFF
G0 X-20.96931 Y4.2863 ;Travel
; 
; feature fill
PRIO_ON
G1 X-24.4946 Y-3.27371 E532.82485 
; 
; feature travel
PRIO_OFF
G0 X-24.47026 Y-4.2863 ;Travel
; 
; feature fill
PRIO_ON
G1 X-20.47279 Y4.2863 E551.37156 
; 
; feature travel
PRIO_OFF
G0 X-19.97627 Y4.2863 ;Travel
; 
; feature fill
PRIO_ON
G1 X-23.97374 Y-4.2863 E569.91826 
; 
; feature travel
PRIO_OFF
G0 X-23.47722 Y-4.2863 ;Travel
; 
; feature fill
PRIO_ON
G1 X-19.47975 Y4.2863 E588.46496 
; 
; feature travel
PRIO_OFF
G0 X-18.98323 Y4.2863 ;Travel
; 
; feature fill
PRIO_ON
G1 X-22.9807 Y-4.2863 E607.01166 
; 
; feature travel
PRIO_OFF
G0 X-22.48418 Y-4.2863 ;Travel
; 
; feature fill
PRIO_ON
G1 X-18.48671 Y4.2863 E625.55836 
; 
; feature travel
PRIO_OFF
G0 X-17.99019 Y4.2863 ;Travel
; 
; feature fill
PRIO_ON
G1 X-21.98766 Y-4.2863 E644.10506 
; 
; feature travel
PRIO_OFF
G0 X-21.49114 Y-4.2863 ;Travel
; 
; feature fill
PRIO_ON
G1 X-17.49367 Y4.2863 E662.65176 
; 
; feature travel
PRIO_OFF
G0 X-16.99715 Y4.2863 ;Travel
; 
; feature fill
PRIO_ON
G1 X-20.99462 Y-4.2863 E681.19846 
; 
; feature travel
PRIO_OFF
G0 X-20.4981 Y-4.2863 ;Travel
; 
; feature fill
PRIO_ON
G1 X-16.50063 Y4.2863 E699.74516 
; 
; feature travel
PRIO_OFF
G0 X-16.00411 Y4.2863 ;Travel
; 
; feature fill
PRIO_ON
G1 X-20.00158 Y-4.2863 E718.29187 
; 
; feature travel
PRIO_OFF
G0 X-19.50506 Y-4.2863 ;Travel
; 
; feature fill
PRIO_ON
G1 X-15.50759 Y4.2863 E736.83857 
; 
; feature travel
PRIO_OFF
G0 X-15.01107 Y4.2863 ;Travel
; 
; feature fill
PRIO_ON
G1 X-19.00854 Y-4.2863 E755.38527 
; 
