;---BEGIN HEADER
; Generated by DropletSlicer
; Version: 3.4.4
; Date: Wednesday, May 29, 2024
; Time: 04:21:42 PM
G64 ;continuous path mode
G71 ;millimeters
G56 ;origin at center
OVR=100
OVRRAP=20
DO PRIO_ON_PATH_OFFSET=0.5*PRIO_PULSE_DISTANCE
RECOMMENDED_RECIPE="4008 Aluminum Wire"
CheckRecommendedRecipe
BUILDPROCESSORINTERFACEVERSION=1177
CheckBPVersion
OuterPerimeterFrequency=300
InnerPerimeterFrequency=400
ThinFeatureFrequency=300
UnsupportedStepoutFrequency=300
SupportedStepoutFrequency=300
FillFrequency=400
SupportWallFrequency=100
SupportPillarFrequency=100
;BUILDPROCESSORINTERFACEVERSION=1177
PART_MASS_CONSUMPTION=0
SUPPORT_MASS_CONSUMPTION=0
G0 X0 Y0 ; cartesianDistance=0.00000 (reset z)
MSG("Print Started")
;---END HEADER
;---BEGIN PRINT STATISTICS
;TOTAL WIRE FEED ESTIMATE:
;    Total Drops: 97,460.43
;      Total Mass: 14.13 g
;    Part Drops: 97,460.43
;      Part Mass: 14.13 g
;    Support Drops: 0.00
;      Support Mass: 0.00 g
;    Part Density: 100.0%
;---END PRINT STATISTICS
;XY Extents: [-24.845 -4.637] [24.845 4.637]
;NaiveEstimatedPrintTime=483.1230151233684
;SupportedStepoutFrequency=300
EstimatedPrintTime=453.9104919433594
;ZCount = 1
;ExtraChevronOffset = 10
NumberOfLayers=42
LayersCompleted=0
;Mass values below are in kilograms
TOTAL_MASS=0.014131762
PART_MASS=0.014131762
SUPPORT_MASS=0.000000000
CheckMass
DO PRIO_PULSE_DISTANCE=DROP_SCALE
DO PRIO_ON_PATH_OFFSET=0.5*PRIO_PULSE_DISTANCE
PARAM_SETUP
;ChunkSize=5
; 
;========================
; layer 0, Z = 0.2400
; 
; reset extrusion
STOPRE
PRESETON(E, 0)
DO PRIO_PULSE_DISTANCE=DROP_SCALE
DO PRIO_ON_PATH_OFFSET=0.5*PRIO_PULSE_DISTANCE
FEATURE_TYPE=0
;outer: (25.2604,-5.0521) (25.2604,5.0521) (-25.2604,5.0521) (-25.2604,-5.0521) (24.6604,-5.0521) holes: !
;overhangs:!
; 
; feature plane change
G0 X0 Y0 Z0.24 ; cartesianDistance=0.00000 (Plane Change)
; 
; feature travel
G0 X2.30853 Y4.637 ; cartesianDistance=5.17987 (Travel)
; 
; feature outer perimeter
G1 F24000 FL[E] = OuterPerimeterFrequency * DROP_SCALE * 60
DO PRIO_PULSE_DISTANCE=DROP_SCALE
DO PRIO_ON_PATH_OFFSET=0.5*PRIO_PULSE_DISTANCE
PRIO_ON
G1 X-24.84540 Y4.6370 E63.89160 ; EInc=63.89160 cartesianDistance=27.15393 angle=90.000 pulseDistance=0.42500
G1 X-24.84540 Y-4.6370 E85.71278 ; EInc=21.82118 cartesianDistance=9.27400 angle=90.000 pulseDistance=0.42500
G1 X24.84540 Y-4.6370 E202.63231 ; EInc=116.91953 cartesianDistance=49.69080 angle=90.000 pulseDistance=0.42500
G1 X24.84540 Y4.6370 E224.45349 ; EInc=21.82118 cartesianDistance=9.27400 angle=90.000 pulseDistance=0.42500
G1 X2.30853 Y4.6370 E277.48141 ; EInc=53.02793 cartesianDistance=22.53687 angle=180.000 pulseDistance=0.42500
; 
; feature travel
PRIO_OFF
G0 X2.30853 Y4.286 ; cartesianDistance=0.35100 (Travel)
; 
; feature inner perimeter
G1 F24000 FL[E] = InnerPerimeterFrequency * DROP_SCALE * 60
PRIO_ON
G1 X24.49440 Y4.2860 E318.56635 ; EInc=41.08494 cartesianDistance=22.18587 angle=90.000 pulseDistance=0.54000
G1 X24.49440 Y-4.2860 E334.44043 ; EInc=15.87407 cartesianDistance=8.57200 angle=90.000 pulseDistance=0.54000
G1 X-24.49440 Y-4.2860 E425.16043 ; EInc=90.72000 cartesianDistance=48.98880 angle=90.000 pulseDistance=0.54000
G1 X-24.49440 Y4.2860 E441.03450 ; EInc=15.87407 cartesianDistance=8.57200 angle=90.000 pulseDistance=0.54000
G1 X2.30853 Y4.2860 E490.66956 ; EInc=49.63506 cartesianDistance=26.80293 angle=180.000 pulseDistance=0.54000
; 
; feature travel
PRIO_OFF
G0 X1.95111 Y4.2863 ; cartesianDistance=0.35742 (Travel)
; 
; feature fill
G1 F24000 FL[E] = FillFrequency * DROP_SCALE * 60
PRIO_ON
G1 X0.00000 Y3.5762 E492.70518 ; => originalEInc=4.07123 adjustedEInc=2.03562 density=0.5
G1 X-21.60191 Y-4.2863 E537.78023 ; EInc=49.14629 cartesianDistance=25.06461 angle=0.000 pulseDistance=0.51000
; 
; feature travel
PRIO_OFF
G0 X-20.2862 Y-4.2863 ; cartesianDistance=1.31571 (Travel)
; 
; feature fill
PRIO_ON
G1 X0.00000 Y3.0973 E580.10989 
G1 X3.26682 Y4.2863 E583.51820 ; EInc=49.14629 cartesianDistance=25.06461 angle=0.000 pulseDistance=0.51000 => originalEInc=6.81662 adjustedEInc=3.40831 density=0.5
; 
; feature travel
PRIO_OFF
G0 X4.58253 Y4.2863 ; cartesianDistance=1.31571 (Travel)
; 
; feature fill
PRIO_ON
G1 X0.00000 Y2.6184 E588.29921 ; => originalEInc=9.56202 adjustedEInc=4.78101 density=0.5
G1 X-18.97049 Y-4.2863 E627.88348 ; EInc=49.14629 cartesianDistance=25.06461 angle=0.000 pulseDistance=0.51000
; 
; feature travel
PRIO_OFF
G0 X-17.65478 Y-4.2863 ; cartesianDistance=1.31571 (Travel)
; 
; feature fill
PRIO_ON
G1 X0.00000 Y2.1395 E664.72234 
G1 X5.89825 Y4.2863 E670.87605 ; EInc=49.14629 cartesianDistance=25.06461 angle=0.000 pulseDistance=0.51000 => originalEInc=12.30742 adjustedEInc=6.15371 density=0.5
; 
; feature travel
PRIO_OFF
G0 X7.21396 Y4.2863 ; cartesianDistance=1.31571 (Travel)
; 
; feature fill
PRIO_ON
G1 X0.00000 Y1.6606 E678.40246 ; => originalEInc=15.05281 adjustedEInc=7.52641 density=0.5
G1 X-16.33907 Y-4.2863 E712.49594 ; EInc=49.14629 cartesianDistance=25.06461 angle=0.000 pulseDistance=0.51000
; 
; feature travel
PRIO_OFF
G0 X-15.02335 Y-4.2863 ; cartesianDistance=1.31571 (Travel)
; 
; feature fill
PRIO_ON
G1 X-0.00000 Y1.1818 E743.84401 
G1 X8.52967 Y4.2863 E752.74311 ; EInc=49.14629 cartesianDistance=25.06461 angle=0.000 pulseDistance=0.51000 => originalEInc=17.79821 adjustedEInc=8.89910 density=0.5
; 
; feature travel
PRIO_OFF
G0 X9.84538 Y4.2863 ; cartesianDistance=1.31571 (Travel)
; 
; feature fill
PRIO_ON
G1 X0.00000 Y0.7029 E763.01492 ; => originalEInc=20.54360 adjustedEInc=10.27180 density=0.5
G1 X-13.70764 Y-4.2863 E791.61760 ; EInc=49.14629 cartesianDistance=25.06461 angle=0.000 pulseDistance=0.51000
; 
; feature travel
PRIO_OFF
G0 X-12.39193 Y-4.2863 ; cartesianDistance=1.31571 (Travel)
; 
; feature fill
PRIO_ON
G1 X0.00000 Y0.2240 E817.47489 
G1 X11.16109 Y4.2863 E829.11939 ; EInc=49.14629 cartesianDistance=25.06461 angle=0.000 pulseDistance=0.51000 => originalEInc=23.28899 adjustedEInc=11.64450 density=0.5
; 
; feature travel
PRIO_OFF
G0 X12.47681 Y4.2863 ; cartesianDistance=1.31571 (Travel)
; 
; feature fill
PRIO_ON
G1 X0.00000 Y-0.2549 E842.13658 ; => originalEInc=26.03440 adjustedEInc=13.01720 density=0.5
G1 X-11.07622 Y-4.2863 E865.24848 ; EInc=49.14629 cartesianDistance=25.06461 angle=0.000 pulseDistance=0.51000
; 
; feature travel
PRIO_OFF
G0 X-9.76051 Y-4.2863 ; cartesianDistance=1.31571 (Travel)
; 
; feature fill
PRIO_ON
G1 X-0.00000 Y-0.7338 E885.61498 
G1 X13.79252 Y4.2863 E900.00487 ; EInc=49.14629 cartesianDistance=25.06461 angle=0.000 pulseDistance=0.51000 => originalEInc=28.77978 adjustedEInc=14.38989 density=0.5
; 
; feature travel
PRIO_OFF
G0 X15.10823 Y4.2863 ; cartesianDistance=1.31571 (Travel)
; 
; feature fill
PRIO_ON
G1 X0.00000 Y-1.2126 E915.76746 ; => originalEInc=31.52519 adjustedEInc=15.76260 density=0.5
G1 X-8.44479 Y-4.2863 E933.38856 ; EInc=49.14629 cartesianDistance=25.06461 angle=0.000 pulseDistance=0.51000
; 
; feature travel
PRIO_OFF
G0 X-7.12908 Y-4.2863 ; cartesianDistance=1.31571 (Travel)
; 
; feature fill
PRIO_ON
G1 X0.00000 Y-1.6915 E948.26427 
G1 X16.42394 Y4.2863 E965.39956 ; EInc=49.14629 cartesianDistance=25.06461 angle=0.000 pulseDistance=0.51000 => originalEInc=34.27058 adjustedEInc=17.13529 density=0.5
; 
; feature travel
PRIO_OFF
G0 X17.73965 Y4.2863 ; cartesianDistance=1.31571 (Travel)
; 
; feature fill
PRIO_ON
G1 X0.00000 Y-2.1704 E983.90754 ; => originalEInc=37.01597 adjustedEInc=18.50798 density=0.5
G1 X-5.81337 Y-4.2863 E996.03786 ; EInc=49.14629 cartesianDistance=25.06461 angle=0.000 pulseDistance=0.51000
; 
; feature travel
PRIO_OFF
G0 X-4.49766 Y-4.2863 ; cartesianDistance=1.31571 (Travel)
; 
; feature fill
PRIO_ON
G1 X0.00000 Y-2.6493 E1005.42278 
G1 X19.05537 Y4.2863 E1025.30346 ; EInc=49.14629 cartesianDistance=25.06461 angle=0.000 pulseDistance=0.51000 => originalEInc=39.76137 adjustedEInc=19.88068 density=0.5
; 
; feature travel
PRIO_OFF
G0 X20.37108 Y4.2863 ; cartesianDistance=1.31571 (Travel)
; 
; feature fill
PRIO_ON
G1 X0.00000 Y-3.1282 E1046.55684 ; => originalEInc=42.50675 adjustedEInc=21.25338 density=0.5
G1 X-3.18195 Y-4.2863 E1053.19637 ; EInc=49.14629 cartesianDistance=25.06461 angle=0.000 pulseDistance=0.51000
; 
; feature travel
PRIO_OFF
G0 X-1.86623 Y-4.2863 ; cartesianDistance=1.31571 (Travel)
; 
; feature fill
PRIO_ON
G1 X0.00000 Y-3.6070 E1057.09049 
G1 X21.68679 Y4.2863 E1079.71657 ; EInc=49.14629 cartesianDistance=25.06461 angle=0.000 pulseDistance=0.51000 => originalEInc=45.25217 adjustedEInc=22.62609 density=0.5
; 
; feature travel
PRIO_OFF
G0 X23.0025 Y4.2863 ; cartesianDistance=1.31571 (Travel)
; 
; feature fill
PRIO_ON
G1 X0.00000 Y-4.0859 E1103.71535 ; => originalEInc=47.99755 adjustedEInc=23.99878 density=0.5
G1 X-0.55052 Y-4.2863 E1104.86408 ; EInc=49.14629 cartesianDistance=25.06461 angle=0.000 pulseDistance=0.51000
; 
; feature travel
PRIO_OFF
G0 X0.76519 Y-4.2863 ; cartesianDistance=1.31571 (Travel)
; 
; feature fill
PRIO_ON
G1 X24.31821 Y4.2863 E1129.43722 ; EInc=49.14629 cartesianDistance=25.06461 angle=0.000 pulseDistance=0.51000 => originalEInc=49.14629 adjustedEInc=24.57314 density=0.5
; 
; feature travel
PRIO_OFF
G0 X24.4947 Y3.87166 ; cartesianDistance=0.45064 (Travel)
; 
; feature fill
PRIO_ON
G1 X2.08090 Y-4.2863 E1152.82180 ; EInc=46.76915 cartesianDistance=23.85227 angle=0.000 pulseDistance=0.51000 => originalEInc=46.76915 adjustedEInc=23.38458 density=0.5
; 
; feature travel
PRIO_OFF
G0 X3.39661 Y-4.2863 ; cartesianDistance=1.31571 (Travel)
; 
; feature fill
PRIO_ON
G1 X24.49470 Y3.3928 E1174.83367 ; EInc=44.02375 cartesianDistance=22.45211 angle=0.000 pulseDistance=0.51000 => originalEInc=44.02375 adjustedEInc=22.01187 density=0.5
; 
; feature travel
PRIO_OFF
G0 X24.4947 Y2.9139 ; cartesianDistance=0.47888 (Travel)
; 
; feature fill
PRIO_ON
G1 X4.71233 Y-4.2863 E1195.47285 ; EInc=41.27836 cartesianDistance=21.05196 angle=0.000 pulseDistance=0.51000 => originalEInc=41.27836 adjustedEInc=20.63918 density=0.5
; 
; feature travel
PRIO_OFF
G0 X6.02804 Y-4.2863 ; cartesianDistance=1.31571 (Travel)
; 
; feature fill
PRIO_ON
G1 X24.49470 Y2.4350 E1214.73934 ; EInc=38.53296 cartesianDistance=19.65181 angle=0.000 pulseDistance=0.51000 => originalEInc=38.53297 adjustedEInc=19.26649 density=0.5
; 
; feature travel
PRIO_OFF
G0 X24.4947 Y1.95614 ; cartesianDistance=0.47888 (Travel)
; 
; feature fill
PRIO_ON
G1 X7.34375 Y-4.2863 E1232.63312 ; EInc=35.78757 cartesianDistance=18.25166 angle=0.000 pulseDistance=0.51000 => originalEInc=35.78757 adjustedEInc=17.89378 density=0.5
; 
; feature travel
PRIO_OFF
G0 X8.65946 Y-4.2863 ; cartesianDistance=1.31571 (Travel)
; 
; feature fill
PRIO_ON
G1 X24.49470 Y1.4773 E1249.15421 ; EInc=33.04217 cartesianDistance=16.85151 angle=0.000 pulseDistance=0.51000 => originalEInc=33.04217 adjustedEInc=16.52108 density=0.5
; 
; feature travel
PRIO_OFF
G0 X24.4947 Y0.99838 ; cartesianDistance=0.47888 (Travel)
; 
; feature fill
PRIO_ON
G1 X9.97517 Y-4.2863 E1264.30260 ; EInc=30.29678 cartesianDistance=15.45136 angle=0.000 pulseDistance=0.51000 => originalEInc=30.29678 adjustedEInc=15.14839 density=0.5
; 
; feature travel
PRIO_OFF
G0 X11.29089 Y-4.2863 ; cartesianDistance=1.31571 (Travel)
; 
; feature fill
PRIO_ON
G1 X24.49470 Y0.5195 E1278.07829 ; EInc=27.55138 cartesianDistance=14.05121 angle=0.000 pulseDistance=0.51000 => originalEInc=27.55138 adjustedEInc=13.77569 density=0.5
; 
; feature travel
PRIO_OFF
G0 X24.4947 Y0.04062 ; cartesianDistance=0.47888 (Travel)
; 
; feature fill
PRIO_ON
G1 X12.60660 Y-4.2863 E1290.48128 ; EInc=24.80599 cartesianDistance=12.65105 angle=0.000 pulseDistance=0.51000 => originalEInc=24.80599 adjustedEInc=12.40300 density=0.5
; 
; feature travel
PRIO_OFF
G0 X13.92231 Y-4.2863 ; cartesianDistance=1.31571 (Travel)
; 
; feature fill
PRIO_ON
G1 X24.49470 Y-0.4383 E1301.51158 ; EInc=22.06059 cartesianDistance=11.25090 angle=0.000 pulseDistance=0.51000 => originalEInc=22.06060 adjustedEInc=11.03030 density=0.5
; 
; feature travel
PRIO_OFF
G0 X24.4947 Y-0.91714 ; cartesianDistance=0.47888 (Travel)
; 
; feature fill
PRIO_ON
G1 X15.23802 Y-4.2863 E1311.16918 ; EInc=19.31520 cartesianDistance=9.85075 angle=0.000 pulseDistance=0.51000 => originalEInc=19.31520 adjustedEInc=9.65760 density=0.5
; 
; feature travel
PRIO_OFF
G0 X16.55373 Y-4.2863 ; cartesianDistance=1.31571 (Travel)
; 
; feature fill
PRIO_ON
G1 X24.49470 Y-1.3960 E1319.45408 ; EInc=16.56980 cartesianDistance=8.45060 angle=0.000 pulseDistance=0.51000 => originalEInc=16.56980 adjustedEInc=8.28490 density=0.5
; 
; feature travel
PRIO_OFF
G0 X24.4947 Y-1.8749 ; cartesianDistance=0.47888 (Travel)
; 
; feature fill
PRIO_ON
G1 X17.86945 Y-4.2863 E1326.36629 ; EInc=13.82441 cartesianDistance=7.05045 angle=0.000 pulseDistance=0.51000 => originalEInc=13.82441 adjustedEInc=6.91221 density=0.5
; 
; feature travel
PRIO_OFF
G0 X19.18516 Y-4.2863 ; cartesianDistance=1.31571 (Travel)
; 
; feature fill
PRIO_ON
G1 X24.49470 Y-2.3538 E1331.90580 ; EInc=11.07901 cartesianDistance=5.65030 angle=0.000 pulseDistance=0.51000 => originalEInc=11.07902 adjustedEInc=5.53951 density=0.5
; 
; feature travel
PRIO_OFF
G0 X24.4947 Y-2.83266 ; cartesianDistance=0.47888 (Travel)
; 
; feature fill
PRIO_ON
G1 X20.50087 Y-4.2863 E1336.07260 ; EInc=8.33362 cartesianDistance=4.25015 angle=0.000 pulseDistance=0.51000 => originalEInc=8.33361 adjustedEInc=4.16681 density=0.5
; 
; feature travel
PRIO_OFF
G0 X21.81658 Y-4.2863 ; cartesianDistance=1.31571 (Travel)
; 
; feature fill
PRIO_ON
G1 X24.49470 Y-3.3115 E1338.86672 ; EInc=5.58822 cartesianDistance=2.84999 angle=0.000 pulseDistance=0.51000 => originalEInc=5.58823 adjustedEInc=2.79411 density=0.5
; 
; feature travel
PRIO_OFF
G0 X24.4947 Y-3.79042 ; cartesianDistance=0.47888 (Travel)
; 
; feature fill
PRIO_ON
G1 X23.13229 Y-4.2863 E1340.28813 ; EInc=2.84283 cartesianDistance=1.44984 angle=0.000 pulseDistance=0.51000 => originalEInc=2.84283 adjustedEInc=1.42142 density=0.5
; 
; feature travel
PRIO_OFF
G0 X0.6354 Y4.2863 ; cartesianDistance=24.07488 (Travel)
; 
; feature fill
PRIO_ON
G1 X0.00000 Y4.0550 E1340.95105 ; => originalEInc=1.32584 adjustedEInc=0.66292 density=0.5
G1 X-22.91763 Y-4.2863 E1388.77149 ; EInc=49.14629 cartesianDistance=25.06461 angle=0.000 pulseDistance=0.51000
; 
; feature travel
PRIO_OFF
G0 X-24.23334 Y-4.2863 ; cartesianDistance=1.31571 (Travel)
; 
; feature fill
PRIO_ON
G1 X-0.68031 Y4.2863 E1437.91778 ; EInc=49.14629 cartesianDistance=25.06461 angle=0.000 pulseDistance=0.51000
; 
; feature travel
PRIO_OFF
G0 X-1.99603 Y4.2863 ; cartesianDistance=1.31571 (Travel)
; 
; feature fill
PRIO_ON
G1 X-24.49470 Y-3.9026 E1484.86403 ; EInc=46.94625 cartesianDistance=23.94259 angle=0.000 pulseDistance=0.51000
; 
; feature travel
PRIO_OFF
G0 X-24.4947 Y-3.42367 ; cartesianDistance=0.47888 (Travel)
; 
; feature fill
PRIO_ON
G1 X-3.31174 Y4.2863 E1529.06489 ; EInc=44.20086 cartesianDistance=22.54244 angle=0.000 pulseDistance=0.51000
; 
; feature travel
PRIO_OFF
G0 X-4.62745 Y4.2863 ; cartesianDistance=1.31571 (Travel)
; 
; feature fill
PRIO_ON
G1 X-24.49470 Y-2.9448 E1570.52036 ; EInc=41.45546 cartesianDistance=21.14229 angle=0.000 pulseDistance=0.51000
; 
; feature travel
PRIO_OFF
G0 X-24.4947 Y-2.46591 ; cartesianDistance=0.47888 (Travel)
; 
; feature fill
PRIO_ON
G1 X-5.94316 Y4.2863 E1609.23043 ; EInc=38.71007 cartesianDistance=19.74214 angle=0.000 pulseDistance=0.51000
; 
; feature travel
PRIO_OFF
G0 X-7.25887 Y4.2863 ; cartesianDistance=1.31571 (Travel)
; 
; feature fill
PRIO_ON
G1 X-24.49470 Y-1.9870 E1645.19510 ; EInc=35.96467 cartesianDistance=18.34198 angle=0.000 pulseDistance=0.51000
; 
; feature travel
PRIO_OFF
G0 X-24.4947 Y-1.50815 ; cartesianDistance=0.47888 (Travel)
; 
; feature fill
PRIO_ON
G1 X-8.57459 Y4.2863 E1678.41438 ; EInc=33.21928 cartesianDistance=16.94183 angle=0.000 pulseDistance=0.51000
; 
; feature travel
PRIO_OFF
G0 X-9.8903 Y4.2863 ; cartesianDistance=1.31571 (Travel)
; 
; feature fill
PRIO_ON
G1 X-24.49470 Y-1.0293 E1708.88826 ; EInc=30.47388 cartesianDistance=15.54168 angle=0.000 pulseDistance=0.51000
; 
; feature travel
PRIO_OFF
G0 X-24.4947 Y-0.55039 ; cartesianDistance=0.47888 (Travel)
; 
; feature fill
PRIO_ON
G1 X-11.20601 Y4.2863 E1736.61675 ; EInc=27.72849 cartesianDistance=14.14153 angle=0.000 pulseDistance=0.51000
; 
; feature travel
PRIO_OFF
G0 X-12.52172 Y4.2863 ; cartesianDistance=1.31571 (Travel)
; 
; feature fill
PRIO_ON
G1 X-24.49470 Y-0.0715 E1761.59985 ; EInc=24.98309 cartesianDistance=12.74138 angle=0.000 pulseDistance=0.51000
; 
; feature travel
PRIO_OFF
G0 X-24.4947 Y0.40737 ; cartesianDistance=0.47888 (Travel)
; 
; feature fill
PRIO_ON
G1 X-13.83743 Y4.2863 E1783.83755 ; EInc=22.23770 cartesianDistance=11.34123 angle=0.000 pulseDistance=0.51000
; 
; feature travel
PRIO_OFF
G0 X-15.15314 Y4.2863 ; cartesianDistance=1.31571 (Travel)
; 
; feature fill
PRIO_ON
G1 X-24.49470 Y0.8862 E1803.32985 ; EInc=19.49230 cartesianDistance=9.94108 angle=0.000 pulseDistance=0.51000
; 
; feature travel
PRIO_OFF
G0 X-24.4947 Y1.36513 ; cartesianDistance=0.47888 (Travel)
; 
; feature fill
PRIO_ON
G1 X-16.46886 Y4.2863 E1820.07676 ; EInc=16.74691 cartesianDistance=8.54092 angle=0.000 pulseDistance=0.51000
; 
; feature travel
PRIO_OFF
G0 X-17.78457 Y4.2863 ; cartesianDistance=1.31571 (Travel)
; 
; feature fill
PRIO_ON
G1 X-24.49470 Y1.8440 E1834.07828 ; EInc=14.00151 cartesianDistance=7.14077 angle=0.000 pulseDistance=0.51000
; 
; feature travel
PRIO_OFF
G0 X-24.4947 Y2.32289 ; cartesianDistance=0.47888 (Travel)
; 
; feature fill
PRIO_ON
G1 X-19.10028 Y4.2863 E1845.33440 ; EInc=11.25612 cartesianDistance=5.74062 angle=0.000 pulseDistance=0.51000
; 
; feature travel
PRIO_OFF
G0 X-20.41599 Y4.2863 ; cartesianDistance=1.31571 (Travel)
; 
; feature fill
PRIO_ON
G1 X-24.49470 Y2.8018 E1853.84512 ; EInc=8.51072 cartesianDistance=4.34047 angle=0.000 pulseDistance=0.51000
; 
; feature travel
PRIO_OFF
G0 X-24.4947 Y3.28065 ; cartesianDistance=0.47888 (Travel)
; 
; feature fill
PRIO_ON
G1 X-21.73170 Y4.2863 E1859.61045 ; EInc=5.76533 cartesianDistance=2.94032 angle=0.000 pulseDistance=0.51000
; 
; feature travel
PRIO_OFF
G0 X-23.04742 Y4.2863 ; cartesianDistance=1.31571 (Travel)
; 
; feature fill
PRIO_ON
G1 X-24.49470 Y3.7595 E1862.63038 ; EInc=3.01993 cartesianDistance=1.54017 angle=0.000 pulseDistance=0.51000
; 
; feature travel
PRIO_OFF
G0 X-24.4947 Y4.23841 ; cartesianDistance=0.47888 (Travel)
; 
; feature fill
PRIO_ON
G1 X-24.36313 Y4.2863 E1862.90492 ; EInc=0.27454 cartesianDistance=0.14002 angle=0.000 pulseDistance=0.51000
PRIO_OFF
LayersCompleted=1
M1
; 
;========================
; layer 1, Z = 0.4800
; 
; reset extrusion
STOPRE
PRESETON(E, 0)
DO PRIO_PULSE_DISTANCE=DROP_SCALE
DO PRIO_ON_PATH_OFFSET=0.5*PRIO_PULSE_DISTANCE
;outer: (25.2604,-5.0521) (25.2604,5.0521) (-25.2604,5.0521) (-25.2604,-5.0521) (23.4604,-5.0521) holes: !
;overhangs:!
; 
; feature plane change
G0 X-24.36313 Y4.2863 Z0.48 ; cartesianDistance=0.00000 (Plane Change)
; 
; feature travel
G0 X20.74801 Y4.637 ; cartesianDistance=45.11250 (Travel)
; 
; feature outer perimeter
G1 F24000 FL[E] = OuterPerimeterFrequency * DROP_SCALE * 60
PRIO_ON
G1 X24.84540 Y4.6370 E9.64092 ; EInc=9.64092 cartesianDistance=4.09739 angle=90.000 pulseDistance=0.42500
G1 X24.84540 Y-4.6370 E31.46210 ; EInc=21.82118 cartesianDistance=9.27400 angle=90.000 pulseDistance=0.42500
G1 X-24.84540 Y-4.6370 E148.38162 ; EInc=116.91953 cartesianDistance=49.69080 angle=90.000 pulseDistance=0.42500
G1 X-24.84540 Y4.6370 E170.20280 ; EInc=21.82118 cartesianDistance=9.27400 angle=90.000 pulseDistance=0.42500
G1 X20.74801 Y4.6370 E277.48141 ; EInc=107.27861 cartesianDistance=45.59341 angle=180.000 pulseDistance=0.42500
; 
; feature travel
PRIO_OFF
G0 X20.74801 Y4.286 ; cartesianDistance=0.35100 (Travel)
; 
; feature inner perimeter
G1 F24000 FL[E] = InnerPerimeterFrequency * DROP_SCALE * 60
PRIO_ON
G1 X-24.49440 Y4.2860 E361.26365 ; EInc=83.78224 cartesianDistance=45.24241 angle=90.000 pulseDistance=0.54000
G1 X-24.49440 Y-4.2860 E377.13773 ; EInc=15.87407 cartesianDistance=8.57200 angle=90.000 pulseDistance=0.54000
G1 X24.49440 Y-4.2860 E467.85773 ; EInc=90.72000 cartesianDistance=48.98880 angle=90.000 pulseDistance=0.54000
G1 X24.49440 Y4.2860 E483.73180 ; EInc=15.87407 cartesianDistance=8.57200 angle=90.000 pulseDistance=0.54000
G1 X20.74801 Y4.2860 E490.66956 ; EInc=6.93776 cartesianDistance=3.74639 angle=180.000 pulseDistance=0.54000
; 
; feature travel
PRIO_OFF
G0 X20.73828 Y4.2863 ; cartesianDistance=0.00974 (Travel)
; 
; feature fill
G1 F24000 FL[E] = FillFrequency * DROP_SCALE * 60
PRIO_ON
G1 X16.74081 Y-4.2863 E499.94291 ; EInc=18.54670 cartesianDistance=9.45882 angle=0.000 pulseDistance=0.51000 => originalEInc=18.54670 adjustedEInc=9.27335 density=0.5
; 
; feature travel
PRIO_OFF
G0 X17.23733 Y-4.2863 ; cartesianDistance=0.49652 (Travel)
; 
; feature fill
PRIO_ON
G1 X21.23480 Y4.2863 E509.21626 ; EInc=18.54670 cartesianDistance=9.45882 angle=0.000 pulseDistance=0.51000 => originalEInc=18.54670 adjustedEInc=9.27335 density=0.5
; 
; feature travel
PRIO_OFF
G0 X21.73132 Y4.2863 ; cartesianDistance=0.49652 (Travel)
; 
; feature fill
PRIO_ON
G1 X17.73385 Y-4.2863 E518.48961 ; EInc=18.54670 cartesianDistance=9.45882 angle=0.000 pulseDistance=0.51000 => originalEInc=18.54670 adjustedEInc=9.27335 density=0.5
; 
; feature travel
PRIO_OFF
G0 X18.23037 Y-4.2863 ; cartesianDistance=0.49652 (Travel)
; 
; feature fill
PRIO_ON
G1 X22.22784 Y4.2863 E527.76296 ; EInc=18.54670 cartesianDistance=9.45882 angle=0.000 pulseDistance=0.51000 => originalEInc=18.54670 adjustedEInc=9.27335 density=0.5
; 
; feature travel
PRIO_OFF
G0 X22.72436 Y4.2863 ; cartesianDistance=0.49652 (Travel)
; 
; feature fill
PRIO_ON
G1 X18.72689 Y-4.2863 E537.03632 ; EInc=18.54670 cartesianDistance=9.45882 angle=0.000 pulseDistance=0.51000 => originalEInc=18.54671 adjustedEInc=9.27336 density=0.5
; 
; feature travel
PRIO_OFF
G0 X19.22341 Y-4.2863 ; cartesianDistance=0.49652 (Travel)
; 
; feature fill
PRIO_ON
G1 X23.22088 Y4.2863 E546.30966 ; EInc=18.54670 cartesianDistance=9.45882 angle=0.000 pulseDistance=0.51000 => originalEInc=18.54670 adjustedEInc=9.27335 density=0.5
; 
; feature travel
PRIO_OFF
G0 X23.7174 Y4.2863 ; cartesianDistance=0.49652 (Travel)
; 
; feature fill
PRIO_ON
G1 X19.71993 Y-4.2863 E555.58302 ; EInc=18.54670 cartesianDistance=9.45882 angle=0.000 pulseDistance=0.51000 => originalEInc=18.54670 adjustedEInc=9.27335 density=0.5
; 
; feature travel
PRIO_OFF
G0 X20.21645 Y-4.2863 ; cartesianDistance=0.49652 (Travel)
; 
; feature fill
PRIO_ON
G1 X24.21392 Y4.2863 E564.85637 ; EInc=18.54670 cartesianDistance=9.45882 angle=0.000 pulseDistance=0.51000 => originalEInc=18.54670 adjustedEInc=9.27335 density=0.5
; 
; feature travel
PRIO_OFF
G0 X24.4947 Y3.82365 ; cartesianDistance=0.54119 (Travel)
; 
; feature fill
PRIO_ON
G1 X20.71297 Y-4.2863 E573.62925 ; EInc=17.54576 cartesianDistance=8.94834 angle=0.000 pulseDistance=0.51000 => originalEInc=17.54576 adjustedEInc=8.77288 density=0.5
; 
; feature travel
PRIO_OFF
G0 X21.20949 Y-4.2863 ; cartesianDistance=0.49652 (Travel)
; 
; feature fill
PRIO_ON
G1 X24.49470 Y2.7589 E581.25030 ; EInc=15.24210 cartesianDistance=7.77347 angle=0.000 pulseDistance=0.51000 => originalEInc=15.24210 adjustedEInc=7.62105 density=0.5
; 
; feature travel
PRIO_OFF
G0 X24.4947 Y1.69407 ; cartesianDistance=1.06479 (Travel)
; 
; feature fill
PRIO_ON
G1 X21.70601 Y-4.2863 E587.71952 ; EInc=12.93844 cartesianDistance=6.59860 angle=0.000 pulseDistance=0.51000 => originalEInc=12.93844 adjustedEInc=6.46922 density=0.5
; 
; feature travel
PRIO_OFF
G0 X22.20253 Y-4.2863 ; cartesianDistance=0.49652 (Travel)
; 
; feature fill
PRIO_ON
G1 X24.49470 Y0.6293 E593.03691 ; EInc=10.63478 cartesianDistance=5.42374 angle=0.000 pulseDistance=0.51000 => originalEInc=10.63478 adjustedEInc=5.31739 density=0.5
; 
; feature travel
PRIO_OFF
G0 X24.4947 Y-0.43552 ; cartesianDistance=1.06479 (Travel)
; 
; feature fill
PRIO_ON
G1 X22.69905 Y-4.2863 E597.20247 ; EInc=8.33112 cartesianDistance=4.24887 angle=0.000 pulseDistance=0.51000 => originalEInc=8.33112 adjustedEInc=4.16556 density=0.5
; 
; feature travel
PRIO_OFF
G0 X23.19557 Y-4.2863 ; cartesianDistance=0.49652 (Travel)
; 
; feature fill
PRIO_ON
G1 X24.49470 Y-1.5003 E600.21619 ; EInc=6.02746 cartesianDistance=3.07400 angle=0.000 pulseDistance=0.51000 => originalEInc=6.02746 adjustedEInc=3.01373 density=0.5
; 
; feature travel
PRIO_OFF
G0 X24.4947 Y-2.5651 ; cartesianDistance=1.06479 (Travel)
; 
; feature fill
PRIO_ON
G1 X23.69209 Y-4.2863 E602.07810 ; EInc=3.72380 cartesianDistance=1.89914 angle=0.000 pulseDistance=0.51000 => originalEInc=3.72380 adjustedEInc=1.86190 density=0.5
; 
; feature travel
PRIO_OFF
G0 X24.18861 Y-4.2863 ; cartesianDistance=0.49652 (Travel)
; 
; feature fill
PRIO_ON
G1 X24.49470 Y-3.6299 E602.78816 ; EInc=1.42014 cartesianDistance=0.72427 angle=0.000 pulseDistance=0.51000 => originalEInc=1.42014 adjustedEInc=0.71007 density=0.5
; 
; feature travel
PRIO_OFF
G0 X16.24429 Y-4.2863 ; cartesianDistance=8.27648 (Travel)
; 
; feature fill
PRIO_ON
G1 X20.24176 Y4.2863 E612.06151 ; EInc=18.54670 cartesianDistance=9.45882 angle=0.000 pulseDistance=0.51000 => originalEInc=18.54670 adjustedEInc=9.27335 density=0.5
; 
; feature travel
PRIO_OFF
G0 X19.74524 Y4.2863 ; cartesianDistance=0.49652 (Travel)
; 
; feature fill
PRIO_ON
G1 X15.74777 Y-4.2863 E621.33487 ; EInc=18.54670 cartesianDistance=9.45882 angle=0.000 pulseDistance=0.51000 => originalEInc=18.54670 adjustedEInc=9.27335 density=0.5
; 
; feature travel
PRIO_OFF
G0 X15.25125 Y-4.2863 ; cartesianDistance=0.49652 (Travel)
; 
; feature fill
PRIO_ON
G1 X19.24872 Y4.2863 E630.60821 ; EInc=18.54670 cartesianDistance=9.45882 angle=0.000 pulseDistance=0.51000 => originalEInc=18.54670 adjustedEInc=9.27335 density=0.5
; 
; feature travel
PRIO_OFF
G0 X18.7522 Y4.2863 ; cartesianDistance=0.49652 (Travel)
; 
; feature fill
PRIO_ON
G1 X14.75473 Y-4.2863 E639.88156 ; EInc=18.54670 cartesianDistance=9.45882 angle=0.000 pulseDistance=0.51000 => originalEInc=18.54670 adjustedEInc=9.27335 density=0.5
; 
; feature travel
PRIO_OFF
G0 X14.25821 Y-4.2863 ; cartesianDistance=0.49652 (Travel)
; 
; feature fill
PRIO_ON
G1 X18.25568 Y4.2863 E649.15491 ; EInc=18.54670 cartesianDistance=9.45882 angle=0.000 pulseDistance=0.51000 => originalEInc=18.54670 adjustedEInc=9.27335 density=0.5
; 
; feature travel
PRIO_OFF
G0 X17.75916 Y4.2863 ; cartesianDistance=0.49652 (Travel)
; 
; feature fill
PRIO_ON
G1 X13.76169 Y-4.2863 E658.42827 ; EInc=18.54670 cartesianDistance=9.45882 angle=0.000 pulseDistance=0.51000 => originalEInc=18.54670 adjustedEInc=9.27335 density=0.5
; 
; feature travel
PRIO_OFF
G0 X13.26517 Y-4.2863 ; cartesianDistance=0.49652 (Travel)
; 
; feature fill
PRIO_ON
G1 X17.26264 Y4.2863 E667.70161 ; EInc=18.54670 cartesianDistance=9.45882 angle=0.000 pulseDistance=0.51000 => originalEInc=18.54670 adjustedEInc=9.27335 density=0.5
; 
; feature travel
PRIO_OFF
G0 X16.76612 Y4.2863 ; cartesianDistance=0.49652 (Travel)
; 
; feature fill
PRIO_ON
G1 X12.76865 Y-4.2863 E676.97496 ; EInc=18.54670 cartesianDistance=9.45882 angle=0.000 pulseDistance=0.51000 => originalEInc=18.54670 adjustedEInc=9.27335 density=0.5
; 
; feature travel
PRIO_OFF
G0 X12.27213 Y-4.2863 ; cartesianDistance=0.49652 (Travel)
; 
; feature fill
PRIO_ON
G1 X16.26960 Y4.2863 E686.24832 ; EInc=18.54670 cartesianDistance=9.45882 angle=0.000 pulseDistance=0.51000 => originalEInc=18.54670 adjustedEInc=9.27335 density=0.5
; 
; feature travel
PRIO_OFF
G0 X15.77308 Y4.2863 ; cartesianDistance=0.49652 (Travel)
; 
; feature fill
PRIO_ON
G1 X11.77561 Y-4.2863 E695.52167 ; EInc=18.54670 cartesianDistance=9.45882 angle=0.000 pulseDistance=0.51000 => originalEInc=18.54671 adjustedEInc=9.27336 density=0.5
; 
; feature travel
PRIO_OFF
G0 X11.27909 Y-4.2863 ; cartesianDistance=0.49652 (Travel)
; 
; feature fill
PRIO_ON
G1 X15.27656 Y4.2863 E704.79502 ; EInc=18.54670 cartesianDistance=9.45882 angle=0.000 pulseDistance=0.51000 => originalEInc=18.54670 adjustedEInc=9.27335 density=0.5
; 
; feature travel
PRIO_OFF
G0 X14.78004 Y4.2863 ; cartesianDistance=0.49652 (Travel)
; 
; feature fill
PRIO_ON
G1 X10.78257 Y-4.2863 E714.06837 ; EInc=18.54670 cartesianDistance=9.45882 angle=0.000 pulseDistance=0.51000 => originalEInc=18.54670 adjustedEInc=9.27335 density=0.5
; 
; feature travel
PRIO_OFF
G0 X10.28605 Y-4.2863 ; cartesianDistance=0.49652 (Travel)
; 
; feature fill
PRIO_ON
G1 X14.28352 Y4.2863 E723.34172 ; EInc=18.54670 cartesianDistance=9.45882 angle=0.000 pulseDistance=0.51000 => originalEInc=18.54670 adjustedEInc=9.27335 density=0.5
; 
; feature travel
PRIO_OFF
G0 X13.787 Y4.2863 ; cartesianDistance=0.49652 (Travel)
; 
; feature fill
PRIO_ON
G1 X9.78953 Y-4.2863 E732.61507 ; EInc=18.54670 cartesianDistance=9.45882 angle=0.000 pulseDistance=0.51000 => originalEInc=18.54670 adjustedEInc=9.27335 density=0.5
; 
; feature travel
PRIO_OFF
G0 X9.29301 Y-4.2863 ; cartesianDistance=0.49652 (Travel)
; 
; feature fill
PRIO_ON
G1 X13.29048 Y4.2863 E741.88842 ; EInc=18.54670 cartesianDistance=9.45882 angle=0.000 pulseDistance=0.51000 => originalEInc=18.54670 adjustedEInc=9.27335 density=0.5
; 
; feature travel
PRIO_OFF
G0 X12.79396 Y4.2863 ; cartesianDistance=0.49652 (Travel)
; 
; feature fill
PRIO_ON
G1 X8.79649 Y-4.2863 E751.16177 ; EInc=18.54670 cartesianDistance=9.45882 angle=0.000 pulseDistance=0.51000 => originalEInc=18.54670 adjustedEInc=9.27335 density=0.5
; 
; feature travel
PRIO_OFF
G0 X8.29997 Y-4.2863 ; cartesianDistance=0.49652 (Travel)
; 
; feature fill
PRIO_ON
G1 X12.29744 Y4.2863 E760.43512 ; EInc=18.54670 cartesianDistance=9.45882 angle=0.000 pulseDistance=0.51000 => originalEInc=18.54670 adjustedEInc=9.27335 density=0.5
; 
; feature travel
PRIO_OFF
G0 X11.80092 Y4.2863 ; cartesianDistance=0.49652 (Travel)
; 
; feature fill
PRIO_ON
G1 X7.80345 Y-4.2863 E769.70847 ; EInc=18.54670 cartesianDistance=9.45882 angle=0.000 pulseDistance=0.51000 => originalEInc=18.54670 adjustedEInc=9.27335 density=0.5
; 
; feature travel
PRIO_OFF
G0 X7.30693 Y-4.2863 ; cartesianDistance=0.49652 (Travel)
; 
; feature fill
PRIO_ON
G1 X11.30440 Y4.2863 E778.98183 ; EInc=18.54670 cartesianDistance=9.45882 angle=0.000 pulseDistance=0.51000 => originalEInc=18.54671 adjustedEInc=9.27336 density=0.5
; 
; feature travel
PRIO_OFF
G0 X10.80788 Y4.2863 ; cartesianDistance=0.49652 (Travel)
; 
; feature fill
PRIO_ON
G1 X6.81041 Y-4.2863 E788.25518 ; EInc=18.54670 cartesianDistance=9.45882 angle=0.000 pulseDistance=0.51000 => originalEInc=18.54670 adjustedEInc=9.27335 density=0.5
; 
; feature travel
PRIO_OFF
G0 X6.31389 Y-4.2863 ; cartesianDistance=0.49652 (Travel)
; 
; feature fill
PRIO_ON
G1 X10.31136 Y4.2863 E797.52853 ; EInc=18.54670 cartesianDistance=9.45882 angle=0.000 pulseDistance=0.51000 => originalEInc=18.54670 adjustedEInc=9.27335 density=0.5
; 
; feature travel
PRIO_OFF
G0 X9.81484 Y4.2863 ; cartesianDistance=0.49652 (Travel)
; 
; feature fill
PRIO_ON
G1 X5.81737 Y-4.2863 E806.80188 ; EInc=18.54670 cartesianDistance=9.45882 angle=0.000 pulseDistance=0.51000 => originalEInc=18.54670 adjustedEInc=9.27335 density=0.5
; 
; feature travel
PRIO_OFF
G0 X5.32085 Y-4.2863 ; cartesianDistance=0.49652 (Travel)
; 
; feature fill
PRIO_ON
G1 X9.31832 Y4.2863 E816.07523 ; EInc=18.54670 cartesianDistance=9.45882 angle=0.000 pulseDistance=0.51000 => originalEInc=18.54670 adjustedEInc=9.27335 density=0.5
; 
; feature travel
PRIO_OFF
G0 X8.8218 Y4.2863 ; cartesianDistance=0.49652 (Travel)
; 
; feature fill
PRIO_ON
G1 X4.82433 Y-4.2863 E825.34857 ; EInc=18.54670 cartesianDistance=9.45882 angle=0.000 pulseDistance=0.51000 => originalEInc=18.54670 adjustedEInc=9.27335 density=0.5
; 
; feature travel
PRIO_OFF
G0 X4.32781 Y-4.2863 ; cartesianDistance=0.49652 (Travel)
; 
; feature fill
PRIO_ON
G1 X8.32528 Y4.2863 E834.62193 ; EInc=18.54670 cartesianDistance=9.45882 angle=0.000 pulseDistance=0.51000 => originalEInc=18.54670 adjustedEInc=9.27335 density=0.5
; 
; feature travel
PRIO_OFF
G0 X7.82876 Y4.2863 ; cartesianDistance=0.49652 (Travel)
; 
; feature fill
PRIO_ON
G1 X3.83129 Y-4.2863 E843.89528 ; EInc=18.54670 cartesianDistance=9.45882 angle=0.000 pulseDistance=0.51000 => originalEInc=18.54670 adjustedEInc=9.27335 density=0.5
; 
; feature travel
PRIO_OFF
G0 X3.33477 Y-4.2863 ; cartesianDistance=0.49652 (Travel)
; 
; feature fill
PRIO_ON
G1 X7.33224 Y4.2863 E853.16863 ; EInc=18.54670 cartesianDistance=9.45882 angle=0.000 pulseDistance=0.51000 => originalEInc=18.54670 adjustedEInc=9.27335 density=0.5
; 
; feature travel
PRIO_OFF
G0 X6.83572 Y4.2863 ; cartesianDistance=0.49652 (Travel)
; 
; feature fill
PRIO_ON
G1 X2.83825 Y-4.2863 E862.44198 ; EInc=18.54670 cartesianDistance=9.45882 angle=0.000 pulseDistance=0.51000 => originalEInc=18.54671 adjustedEInc=9.27336 density=0.5
; 
; feature travel
PRIO_OFF
G0 X2.34173 Y-4.2863 ; cartesianDistance=0.49652 (Travel)
; 
; feature fill
PRIO_ON
G1 X6.33920 Y4.2863 E871.71533 ; EInc=18.54670 cartesianDistance=9.45882 angle=0.000 pulseDistance=0.51000 => originalEInc=18.54670 adjustedEInc=9.27335 density=0.5
; 
; feature travel
PRIO_OFF
G0 X5.84268 Y4.2863 ; cartesianDistance=0.49652 (Travel)
; 
; feature fill
PRIO_ON
G1 X1.84521 Y-4.2863 E880.98868 ; EInc=18.54670 cartesianDistance=9.45882 angle=0.000 pulseDistance=0.51000 => originalEInc=18.54670 adjustedEInc=9.27335 density=0.5
; 
; feature travel
PRIO_OFF
G0 X1.34869 Y-4.2863 ; cartesianDistance=0.49652 (Travel)
; 
; feature fill
PRIO_ON
G1 X5.34616 Y4.2863 E890.26203 ; EInc=18.54670 cartesianDistance=9.45882 angle=0.000 pulseDistance=0.51000 => originalEInc=18.54670 adjustedEInc=9.27335 density=0.5
; 
; feature travel
PRIO_OFF
G0 X4.84964 Y4.2863 ; cartesianDistance=0.49652 (Travel)
; 
; feature fill
PRIO_ON
G1 X0.85217 Y-4.2863 E899.53538 ; EInc=18.54670 cartesianDistance=9.45882 angle=0.000 pulseDistance=0.51000 => originalEInc=18.54670 adjustedEInc=9.27335 density=0.5
; 
; feature travel
PRIO_OFF
G0 X0.35565 Y-4.2863 ; cartesianDistance=0.49652 (Travel)
; 
; feature fill
PRIO_ON
G1 X4.35312 Y4.2863 E908.80873 ; EInc=18.54670 cartesianDistance=9.45882 angle=0.000 pulseDistance=0.51000 => originalEInc=18.54670 adjustedEInc=9.27335 density=0.5
; 
; feature travel
PRIO_OFF
G0 X3.8566 Y4.2863 ; cartesianDistance=0.49652 (Travel)
; 
; feature fill
PRIO_ON
G1 X0.00000 Y-3.9842 E917.75529 ; => originalEInc=17.89312 adjustedEInc=8.94656 density=0.5
G1 X-0.14087 Y-4.2863 E918.40887 ; EInc=18.54670 cartesianDistance=9.45882 angle=0.000 pulseDistance=0.51000
; 
; feature travel
PRIO_OFF
G0 X-0.63739 Y-4.2863 ; cartesianDistance=0.49652 (Travel)
; 
; feature fill
PRIO_ON
G1 X0.00000 Y-2.9194 E921.36611 
G1 X3.36008 Y4.2863 E929.16084 ; EInc=18.54670 cartesianDistance=9.45882 angle=0.000 pulseDistance=0.51000 => originalEInc=15.58946 adjustedEInc=7.79473 density=0.5
; 
; feature travel
PRIO_OFF
G0 X2.86356 Y4.2863 ; cartesianDistance=0.49652 (Travel)
; 
; feature fill
PRIO_ON
G1 X0.00000 Y-1.8546 E935.80374 ; => originalEInc=13.28580 adjustedEInc=6.64290 density=0.5
G1 X-1.13391 Y-4.2863 E941.06464 ; EInc=18.54670 cartesianDistance=9.45882 angle=0.000 pulseDistance=0.51000
; 
; feature travel
PRIO_OFF
G0 X-1.63043 Y-4.2863 ; cartesianDistance=0.49652 (Travel)
; 
; feature fill
PRIO_ON
G1 X0.00000 Y-0.7898 E948.62920 
G1 X2.36704 Y4.2863 E954.12027 ; EInc=18.54670 cartesianDistance=9.45882 angle=0.000 pulseDistance=0.51000 => originalEInc=10.98214 adjustedEInc=5.49107 density=0.5
; 
; feature travel
PRIO_OFF
G0 X1.87052 Y4.2863 ; cartesianDistance=0.49652 (Travel)
; 
; feature fill
PRIO_ON
G1 X0.00000 Y0.2750 E958.45951 ; => originalEInc=8.67849 adjustedEInc=4.33924 density=0.5
G1 X-2.12695 Y-4.2863 E968.32774 ; EInc=18.54670 cartesianDistance=9.45882 angle=0.000 pulseDistance=0.51000
; 
; feature travel
PRIO_OFF
G0 X-2.62347 Y-4.2863 ; cartesianDistance=0.49652 (Travel)
; 
; feature fill
PRIO_ON
G1 X0.00000 Y1.3397 E980.49961 
G1 X1.37400 Y4.2863 E983.68703 ; EInc=18.54670 cartesianDistance=9.45882 angle=0.000 pulseDistance=0.51000 => originalEInc=6.37482 adjustedEInc=3.18741 density=0.5
; 
; feature travel
PRIO_OFF
G0 X0.87748 Y4.2863 ; cartesianDistance=0.49652 (Travel)
; 
; feature fill
PRIO_ON
G1 X0.00000 Y2.4045 E985.72261 ; => originalEInc=4.07116 adjustedEInc=2.03558 density=0.5
G1 X-3.11999 Y-4.2863 E1000.19814 ; EInc=18.54670 cartesianDistance=9.45882 angle=0.000 pulseDistance=0.51000
; 
; feature travel
PRIO_OFF
G0 X-3.61651 Y-4.2863 ; cartesianDistance=0.49652 (Travel)
; 
; feature fill
PRIO_ON
G1 X0.00000 Y3.4693 E1016.97734 
G1 X0.38096 Y4.2863 E1017.86109 ; EInc=18.54670 cartesianDistance=9.45882 angle=0.000 pulseDistance=0.51000 => originalEInc=1.76751 adjustedEInc=0.88375 density=0.5
; 
; feature travel
PRIO_OFF
G0 X-0.11556 Y4.2863 ; cartesianDistance=0.49652 (Travel)
; 
; feature fill
PRIO_ON
G1 X-4.11303 Y-4.2863 E1036.40779 ; EInc=18.54670 cartesianDistance=9.45882 angle=0.000 pulseDistance=0.51000
; 
; feature travel
PRIO_OFF
G0 X-4.60955 Y-4.2863 ; cartesianDistance=0.49652 (Travel)
; 
; feature fill
PRIO_ON
G1 X-0.61208 Y4.2863 E1054.95449 ; EInc=18.54670 cartesianDistance=9.45882 angle=0.000 pulseDistance=0.51000
; 
; feature travel
PRIO_OFF
G0 X-1.10861 Y4.2863 ; cartesianDistance=0.49652 (Travel)
; 
; feature fill
PRIO_ON
G1 X-5.10607 Y-4.2863 E1073.50119 ; EInc=18.54670 cartesianDistance=9.45882 angle=0.000 pulseDistance=0.51000
; 
; feature travel
PRIO_OFF
G0 X-5.60259 Y-4.2863 ; cartesianDistance=0.49652 (Travel)
; 
; feature fill
PRIO_ON
G1 X-1.60513 Y4.2863 E1092.04789 ; EInc=18.54670 cartesianDistance=9.45882 angle=0.000 pulseDistance=0.51000
; 
; feature travel
PRIO_OFF
G0 X-2.10165 Y4.2863 ; cartesianDistance=0.49652 (Travel)
; 
; feature fill
PRIO_ON
G1 X-6.09911 Y-4.2863 E1110.59459 ; EInc=18.54670 cartesianDistance=9.45882 angle=0.000 pulseDistance=0.51000
; 
; feature travel
PRIO_OFF
G0 X-6.59563 Y-4.2863 ; cartesianDistance=0.49652 (Travel)
; 
; feature fill
PRIO_ON
G1 X-2.59817 Y4.2863 E1129.14130 ; EInc=18.54670 cartesianDistance=9.45882 angle=0.000 pulseDistance=0.51000
; 
; feature travel
PRIO_OFF
G0 X-3.09469 Y4.2863 ; cartesianDistance=0.49652 (Travel)
; 
; feature fill
PRIO_ON
G1 X-7.09215 Y-4.2863 E1147.68800 ; EInc=18.54670 cartesianDistance=9.45882 angle=0.000 pulseDistance=0.51000
; 
; feature travel
PRIO_OFF
G0 X-7.58867 Y-4.2863 ; cartesianDistance=0.49652 (Travel)
; 
; feature fill
PRIO_ON
G1 X-3.59121 Y4.2863 E1166.23470 ; EInc=18.54670 cartesianDistance=9.45882 angle=0.000 pulseDistance=0.51000
; 
; feature travel
PRIO_OFF
G0 X-4.08773 Y4.2863 ; cartesianDistance=0.49652 (Travel)
; 
; feature fill
PRIO_ON
G1 X-8.08519 Y-4.2863 E1184.78140 ; EInc=18.54670 cartesianDistance=9.45882 angle=0.000 pulseDistance=0.51000
; 
; feature travel
PRIO_OFF
G0 X-8.58171 Y-4.2863 ; cartesianDistance=0.49652 (Travel)
; 
; feature fill
PRIO_ON
G1 X-4.58425 Y4.2863 E1203.32810 ; EInc=18.54670 cartesianDistance=9.45882 angle=0.000 pulseDistance=0.51000
; 
; feature travel
PRIO_OFF
G0 X-5.08077 Y4.2863 ; cartesianDistance=0.49652 (Travel)
; 
; feature fill
PRIO_ON
G1 X-9.07823 Y-4.2863 E1221.87480 ; EInc=18.54670 cartesianDistance=9.45882 angle=0.000 pulseDistance=0.51000
; 
; feature travel
PRIO_OFF
G0 X-9.57475 Y-4.2863 ; cartesianDistance=0.49652 (Travel)
; 
; feature fill
PRIO_ON
G1 X-5.57729 Y4.2863 E1240.42150 ; EInc=18.54670 cartesianDistance=9.45882 angle=0.000 pulseDistance=0.51000
; 
; feature travel
PRIO_OFF
G0 X-6.07381 Y4.2863 ; cartesianDistance=0.49652 (Travel)
; 
; feature fill
PRIO_ON
G1 X-10.07127 Y-4.2863 E1258.96820 ; EInc=18.54670 cartesianDistance=9.45882 angle=0.000 pulseDistance=0.51000
; 
; feature travel
PRIO_OFF
G0 X-10.56779 Y-4.2863 ; cartesianDistance=0.49652 (Travel)
; 
; feature fill
PRIO_ON
G1 X-6.57033 Y4.2863 E1277.51490 ; EInc=18.54670 cartesianDistance=9.45882 angle=0.000 pulseDistance=0.51000
; 
; feature travel
PRIO_OFF
G0 X-7.06685 Y4.2863 ; cartesianDistance=0.49652 (Travel)
; 
; feature fill
PRIO_ON
G1 X-11.06431 Y-4.2863 E1296.06161 ; EInc=18.54670 cartesianDistance=9.45882 angle=0.000 pulseDistance=0.51000
; 
; feature travel
PRIO_OFF
G0 X-11.56083 Y-4.2863 ; cartesianDistance=0.49652 (Travel)
; 
; feature fill
PRIO_ON
G1 X-7.56337 Y4.2863 E1314.60831 ; EInc=18.54670 cartesianDistance=9.45882 angle=0.000 pulseDistance=0.51000
; 
; feature travel
PRIO_OFF
G0 X-8.05989 Y4.2863 ; cartesianDistance=0.49652 (Travel)
; 
; feature fill
PRIO_ON
G1 X-12.05735 Y-4.2863 E1333.15501 ; EInc=18.54670 cartesianDistance=9.45882 angle=0.000 pulseDistance=0.51000
; 
; feature travel
PRIO_OFF
G0 X-12.55387 Y-4.2863 ; cartesianDistance=0.49652 (Travel)
; 
; feature fill
PRIO_ON
G1 X-8.55641 Y4.2863 E1351.70171 ; EInc=18.54670 cartesianDistance=9.45882 angle=0.000 pulseDistance=0.51000
; 
; feature travel
PRIO_OFF
G0 X-9.05293 Y4.2863 ; cartesianDistance=0.49652 (Travel)
; 
; feature fill
PRIO_ON
G1 X-13.05040 Y-4.2863 E1370.24841 ; EInc=18.54670 cartesianDistance=9.45882 angle=0.000 pulseDistance=0.51000
; 
; feature travel
PRIO_OFF
G0 X-13.54692 Y-4.2863 ; cartesianDistance=0.49652 (Travel)
; 
; feature fill
PRIO_ON
G1 X-9.54945 Y4.2863 E1388.79511 ; EInc=18.54670 cartesianDistance=9.45882 angle=0.000 pulseDistance=0.51000
; 
; feature travel
PRIO_OFF
G0 X-10.04597 Y4.2863 ; cartesianDistance=0.49652 (Travel)
; 
; feature fill
PRIO_ON
G1 X-14.04344 Y-4.2863 E1407.34181 ; EInc=18.54670 cartesianDistance=9.45882 angle=0.000 pulseDistance=0.51000
; 
; feature travel
PRIO_OFF
G0 X-14.53996 Y-4.2863 ; cartesianDistance=0.49652 (Travel)
; 
; feature fill
PRIO_ON
G1 X-10.54249 Y4.2863 E1425.88851 ; EInc=18.54670 cartesianDistance=9.45882 angle=0.000 pulseDistance=0.51000
; 
; feature travel
PRIO_OFF
G0 X-11.03901 Y4.2863 ; cartesianDistance=0.49652 (Travel)
; 
; feature fill
PRIO_ON
G1 X-15.03648 Y-4.2863 E1444.43521 ; EInc=18.54670 cartesianDistance=9.45882 angle=0.000 pulseDistance=0.51000
; 
; feature travel
PRIO_OFF
G0 X-15.533 Y-4.2863 ; cartesianDistance=0.49652 (Travel)
; 
; feature fill
PRIO_ON
G1 X-11.53553 Y4.2863 E1462.98192 ; EInc=18.54670 cartesianDistance=9.45882 angle=0.000 pulseDistance=0.51000
; 
; feature travel
PRIO_OFF
G0 X-12.03205 Y4.2863 ; cartesianDistance=0.49652 (Travel)
; 
; feature fill
PRIO_ON
G1 X-16.02952 Y-4.2863 E1481.52862 ; EInc=18.54670 cartesianDistance=9.45882 angle=0.000 pulseDistance=0.51000
; 
; feature travel
PRIO_OFF
G0 X-16.52604 Y-4.2863 ; cartesianDistance=0.49652 (Travel)
; 
; feature fill
PRIO_ON
G1 X-12.52857 Y4.2863 E1500.07532 ; EInc=18.54670 cartesianDistance=9.45882 angle=0.000 pulseDistance=0.51000
; 
; feature travel
PRIO_OFF
G0 X-13.02509 Y4.2863 ; cartesianDistance=0.49652 (Travel)
; 
; feature fill
PRIO_ON
G1 X-17.02256 Y-4.2863 E1518.62202 ; EInc=18.54670 cartesianDistance=9.45882 angle=0.000 pulseDistance=0.51000
; 
; feature travel
PRIO_OFF
G0 X-17.51908 Y-4.2863 ; cartesianDistance=0.49652 (Travel)
; 
; feature fill
PRIO_ON
G1 X-13.52161 Y4.2863 E1537.16872 ; EInc=18.54670 cartesianDistance=9.45882 angle=0.000 pulseDistance=0.51000
; 
; feature travel
PRIO_OFF
G0 X-14.01813 Y4.2863 ; cartesianDistance=0.49652 (Travel)
; 
; feature fill
PRIO_ON
G1 X-18.01560 Y-4.2863 E1555.71542 ; EInc=18.54670 cartesianDistance=9.45882 angle=0.000 pulseDistance=0.51000
; 
; feature travel
PRIO_OFF
G0 X-18.51212 Y-4.2863 ; cartesianDistance=0.49652 (Travel)
; 
; feature fill
PRIO_ON
G1 X-14.51465 Y4.2863 E1574.26212 ; EInc=18.54670 cartesianDistance=9.45882 angle=0.000 pulseDistance=0.51000
; 
; feature travel
PRIO_OFF
G0 X-15.01117 Y4.2863 ; cartesianDistance=0.49652 (Travel)
; 
; feature fill
PRIO_ON
G1 X-19.00864 Y-4.2863 E1592.80882 ; EInc=18.54670 cartesianDistance=9.45882 angle=0.000 pulseDistance=0.51000
; 
; feature travel
PRIO_OFF
G0 X-19.50516 Y-4.2863 ; cartesianDistance=0.49652 (Travel)
; 
; feature fill
PRIO_ON
G1 X-15.50769 Y4.2863 E1611.35552 ; EInc=18.54670 cartesianDistance=9.45882 angle=0.000 pulseDistance=0.51000
; 
; feature travel
PRIO_OFF
G0 X-16.00421 Y4.2863 ; cartesianDistance=0.49652 (Travel)
; 
; feature fill
PRIO_ON
G1 X-20.00168 Y-4.2863 E1629.90222 ; EInc=18.54670 cartesianDistance=9.45882 angle=0.000 pulseDistance=0.51000
; 
; feature travel
PRIO_OFF
G0 X-20.4982 Y-4.2863 ; cartesianDistance=0.49652 (Travel)
; 
; feature fill
PRIO_ON
G1 X-16.50073 Y4.2863 E1648.44893 ; EInc=18.54670 cartesianDistance=9.45882 angle=0.000 pulseDistance=0.51000
; 
; feature travel
PRIO_OFF
G0 X-16.99725 Y4.2863 ; cartesianDistance=0.49652 (Travel)
; 
; feature fill
PRIO_ON
G1 X-20.99472 Y-4.2863 E1666.99563 ; EInc=18.54670 cartesianDistance=9.45882 angle=0.000 pulseDistance=0.51000
; 
; feature travel
PRIO_OFF
G0 X-21.49124 Y-4.2863 ; cartesianDistance=0.49652 (Travel)
; 
; feature fill
PRIO_ON
G1 X-17.49377 Y4.2863 E1685.54233 ; EInc=18.54670 cartesianDistance=9.45882 angle=0.000 pulseDistance=0.51000
; 
; feature travel
PRIO_OFF
G0 X-17.99029 Y4.2863 ; cartesianDistance=0.49652 (Travel)
; 
; feature fill
PRIO_ON
G1 X-21.98776 Y-4.2863 E1704.08903 ; EInc=18.54670 cartesianDistance=9.45882 angle=0.000 pulseDistance=0.51000
; 
; feature travel
PRIO_OFF
G0 X-22.48428 Y-4.2863 ; cartesianDistance=0.49652 (Travel)
; 
; feature fill
PRIO_ON
G1 X-18.48681 Y4.2863 E1722.63573 ; EInc=18.54670 cartesianDistance=9.45882 angle=0.000 pulseDistance=0.51000
; 
; feature travel
PRIO_OFF
G0 X-18.98333 Y4.2863 ; cartesianDistance=0.49652 (Travel)
; 
; feature fill
PRIO_ON
G1 X-22.98080 Y-4.2863 E1741.18243 ; EInc=18.54670 cartesianDistance=9.45882 angle=0.000 pulseDistance=0.51000
; 
; feature travel
PRIO_OFF
G0 X-23.47732 Y-4.2863 ; cartesianDistance=0.49652 (Travel)
; 
; feature fill
PRIO_ON
G1 X-19.47985 Y4.2863 E1759.72913 ; EInc=18.54670 cartesianDistance=9.45882 angle=0.000 pulseDistance=0.51000
; 
; feature travel
PRIO_OFF
G0 X-19.97637 Y4.2863 ; cartesianDistance=0.49652 (Travel)
; 
; feature fill
PRIO_ON
G1 X-23.97384 Y-4.2863 E1778.27583 ; EInc=18.54670 cartesianDistance=9.45882 angle=0.000 pulseDistance=0.51000
; 
; feature travel
PRIO_OFF
G0 X-24.47036 Y-4.2863 ; cartesianDistance=0.49652 (Travel)
; 
; feature fill
PRIO_ON
G1 X-20.47289 Y4.2863 E1796.82253 ; EInc=18.54670 cartesianDistance=9.45882 angle=0.000 pulseDistance=0.51000
; 
; feature travel
PRIO_OFF
G0 X-20.96941 Y4.2863 ; cartesianDistance=0.49652 (Travel)
; 
; feature fill
PRIO_ON
G1 X-24.49470 Y-3.2737 E1813.17852 ; EInc=16.35599 cartesianDistance=8.34155 angle=0.000 pulseDistance=0.51000
; 
; feature travel
PRIO_OFF
G0 X-24.4947 Y-2.20892 ; cartesianDistance=1.06479 (Travel)
; 
; feature fill
PRIO_ON
G1 X-21.46593 Y4.2863 E1827.23085 ; EInc=14.05233 cartesianDistance=7.16669 angle=0.000 pulseDistance=0.51000
; 
; feature travel
PRIO_OFF
G0 X-21.96245 Y4.2863 ; cartesianDistance=0.49652 (Travel)
; 
; feature fill
PRIO_ON
G1 X-24.49470 Y-1.1441 E1838.97951 ; EInc=11.74867 cartesianDistance=5.99182 angle=0.000 pulseDistance=0.51000
; 
; feature travel
PRIO_OFF
G0 X-24.4947 Y-0.07934 ; cartesianDistance=1.06479 (Travel)
; 
; feature fill
PRIO_ON
G1 X-22.45897 Y4.2863 E1848.42452 ; EInc=9.44501 cartesianDistance=4.81695 angle=0.000 pulseDistance=0.51000
; 
; feature travel
PRIO_OFF
G0 X-22.95549 Y4.2863 ; cartesianDistance=0.49652 (Travel)
; 
; feature fill
PRIO_ON
G1 X-24.49470 Y0.9855 E1855.56586 ; EInc=7.14135 cartesianDistance=3.64209 angle=0.000 pulseDistance=0.51000
; 
; feature travel
PRIO_OFF
G0 X-24.4947 Y2.05024 ; cartesianDistance=1.06479 (Travel)
; 
; feature fill
PRIO_ON
G1 X-23.45201 Y4.2863 E1860.40355 ; EInc=4.83769 cartesianDistance=2.46722 angle=0.000 pulseDistance=0.51000
; 
; feature travel
PRIO_OFF
G0 X-23.94853 Y4.2863 ; cartesianDistance=0.49652 (Travel)
; 
; feature fill
PRIO_ON
G1 X-24.49470 Y3.1150 E1862.93757 ; EInc=2.53403 cartesianDistance=1.29235 angle=0.000 pulseDistance=0.51000
; 
; feature travel
PRIO_OFF
G0 X-24.4947 Y4.17982 ; cartesianDistance=1.06479 (Travel)
; 
; feature fill
PRIO_ON
G1 X-24.44505 Y4.2863 E1863.16794 ; EInc=0.23037 cartesianDistance=0.11749 angle=0.000 pulseDistance=0.51000
PRIO_OFF
LayersCompleted=2
M1
; 
;========================
; layer 2, Z = 0.7200
; 
; reset extrusion
STOPRE
PRESETON(E, 0)
DO PRIO_PULSE_DISTANCE=DROP_SCALE
DO PRIO_ON_PATH_OFFSET=0.5*PRIO_PULSE_DISTANCE
;outer: (25.2604,-5.0521) (25.2604,5.0521) (-25.2604,5.0521) (-25.2604,-5.0521) (22.2604,-5.0521) holes: !
;overhangs:!
; 
; feature plane change
G0 X-24.44505 Y4.2863 Z0.72 ; cartesianDistance=0.00000 (Plane Change)
; 
; feature travel
G0 X24.8454 Y-3.10697 ; cartesianDistance=49.84184 (Travel)
; 
; feature outer perimeter
G1 F24000 FL[E] = OuterPerimeterFrequency * DROP_SCALE * 60
PRIO_ON
G1 X24.84540 Y4.6370 E18.22111 ; EInc=18.22111 cartesianDistance=7.74397 angle=90.000 pulseDistance=0.42500
G1 X-24.84540 Y4.6370 E135.14064 ; EInc=116.91953 cartesianDistance=49.69080 angle=90.000 pulseDistance=0.42500
G1 X-24.84540 Y-4.6370 E156.96182 ; EInc=21.82118 cartesianDistance=9.27400 angle=90.000 pulseDistance=0.42500
G1 X24.84540 Y-4.6370 E273.88135 ; EInc=116.91953 cartesianDistance=49.69080 angle=90.000 pulseDistance=0.42500
G1 X24.84540 Y-3.1070 E277.48141 ; EInc=3.60006 cartesianDistance=1.53003 angle=180.000 pulseDistance=0.42500
; 
; feature travel
PRIO_OFF
G0 X24.4944 Y-3.10697 ; cartesianDistance=0.35100 (Travel)
; 
; feature inner perimeter
G1 F24000 FL[E] = InnerPerimeterFrequency * DROP_SCALE * 60
PRIO_ON
G1 X24.49440 Y-4.2860 E279.66479 ; EInc=2.18338 cartesianDistance=1.17903 angle=90.000 pulseDistance=0.54000
G1 X-24.49440 Y-4.2860 E370.38479 ; EInc=90.72000 cartesianDistance=48.98880 angle=90.000 pulseDistance=0.54000
G1 X-24.49440 Y4.2860 E386.25887 ; EInc=15.87407 cartesianDistance=8.57200 angle=90.000 pulseDistance=0.54000
G1 X24.49440 Y4.2860 E476.97887 ; EInc=90.72000 cartesianDistance=48.98880 angle=90.000 pulseDistance=0.54000
G1 X24.49440 Y-3.1070 E490.66956 ; EInc=13.69069 cartesianDistance=7.39297 angle=180.000 pulseDistance=0.54000
; 
; feature travel
PRIO_OFF
G0 X24.4947 Y-3.23367 ; cartesianDistance=0.12669 (Travel)
; 
; feature fill
G1 F24000 FL[E] = FillFrequency * DROP_SCALE * 60
PRIO_ON
G1 X21.75766 Y4.2863 E498.51522 ; EInc=15.69133 cartesianDistance=8.00258 angle=0.000 pulseDistance=0.51000 => originalEInc=15.69133 adjustedEInc=7.84566 density=0.5
; 
; feature travel
PRIO_OFF
G0 X22.23654 Y4.2863 ; cartesianDistance=0.47888 (Travel)
; 
; feature fill
PRIO_ON
G1 X24.49470 Y-1.9180 E504.98819 ; EInc=12.94594 cartesianDistance=6.60243 angle=0.000 pulseDistance=0.51000 => originalEInc=12.94594 adjustedEInc=6.47297 density=0.5
; 
; feature travel
PRIO_OFF
G0 X24.4947 Y-0.60224 ; cartesianDistance=1.31571 (Travel)
; 
; feature fill
PRIO_ON
G1 X22.71542 Y4.2863 E510.08846 ; EInc=10.20054 cartesianDistance=5.20228 angle=0.000 pulseDistance=0.51000 => originalEInc=10.20054 adjustedEInc=5.10027 density=0.5
; 
; feature travel
PRIO_OFF
G0 X23.1943 Y4.2863 ; cartesianDistance=0.47888 (Travel)
; 
; feature fill
PRIO_ON
G1 X24.49470 Y0.7135 E513.81604 ; EInc=7.45515 cartesianDistance=3.80213 angle=0.000 pulseDistance=0.51000 => originalEInc=7.45515 adjustedEInc=3.72758 density=0.5
; 
; feature travel
PRIO_OFF
G0 X24.4947 Y2.02918 ; cartesianDistance=1.31571 (Travel)
; 
; feature fill
PRIO_ON
G1 X23.67318 Y4.2863 E516.17091 ; EInc=4.70975 cartesianDistance=2.40197 angle=0.000 pulseDistance=0.51000 => originalEInc=4.70975 adjustedEInc=2.35487 density=0.5
; 
; feature travel
PRIO_OFF
G0 X24.15206 Y4.2863 ; cartesianDistance=0.47888 (Travel)
; 
; feature fill
PRIO_ON
G1 X24.49470 Y3.3449 E517.15309 ; EInc=1.96436 cartesianDistance=1.00182 angle=0.000 pulseDistance=0.51000 => originalEInc=1.96436 adjustedEInc=0.98218 density=0.5
; 
; feature travel
PRIO_OFF
G0 X21.27878 Y4.2863 ; cartesianDistance=3.35088 (Travel)
; 
; feature fill
PRIO_ON
G1 X24.39895 Y-4.2863 E526.09699 ; EInc=17.88779 cartesianDistance=9.12277 angle=0.000 pulseDistance=0.51000 => originalEInc=17.88779 adjustedEInc=8.94389 density=0.5
; 
; feature travel
PRIO_OFF
G0 X23.92007 Y-4.2863 ; cartesianDistance=0.47888 (Travel)
; 
; feature fill
PRIO_ON
G1 X20.79990 Y4.2863 E535.04088 ; EInc=17.88779 cartesianDistance=9.12277 angle=0.000 pulseDistance=0.51000 => originalEInc=17.88778 adjustedEInc=8.94389 density=0.5
; 
; feature travel
PRIO_OFF
G0 X20.32102 Y4.2863 ; cartesianDistance=0.47888 (Travel)
; 
; feature fill
PRIO_ON
G1 X23.44119 Y-4.2863 E543.98477 ; EInc=17.88779 cartesianDistance=9.12277 angle=0.000 pulseDistance=0.51000 => originalEInc=17.88779 adjustedEInc=8.94389 density=0.5
; 
; feature travel
PRIO_OFF
G0 X22.96231 Y-4.2863 ; cartesianDistance=0.47888 (Travel)
; 
; feature fill
PRIO_ON
G1 X19.84214 Y4.2863 E552.92866 ; EInc=17.88779 cartesianDistance=9.12277 angle=0.000 pulseDistance=0.51000 => originalEInc=17.88778 adjustedEInc=8.94389 density=0.5
; 
; feature travel
PRIO_OFF
G0 X19.36326 Y4.2863 ; cartesianDistance=0.47888 (Travel)
; 
; feature fill
PRIO_ON
G1 X22.48343 Y-4.2863 E561.87256 ; EInc=17.88779 cartesianDistance=9.12277 angle=0.000 pulseDistance=0.51000 => originalEInc=17.88779 adjustedEInc=8.94389 density=0.5
; 
; feature travel
PRIO_OFF
G0 X22.00455 Y-4.2863 ; cartesianDistance=0.47888 (Travel)
; 
; feature fill
PRIO_ON
G1 X18.88438 Y4.2863 E570.81645 ; EInc=17.88779 cartesianDistance=9.12277 angle=0.000 pulseDistance=0.51000 => originalEInc=17.88778 adjustedEInc=8.94389 density=0.5
; 
; feature travel
PRIO_OFF
G0 X18.4055 Y4.2863 ; cartesianDistance=0.47888 (Travel)
; 
; feature fill
PRIO_ON
G1 X21.52567 Y-4.2863 E579.76034 ; EInc=17.88779 cartesianDistance=9.12277 angle=0.000 pulseDistance=0.51000 => originalEInc=17.88779 adjustedEInc=8.94389 density=0.5
; 
; feature travel
PRIO_OFF
G0 X21.04679 Y-4.2863 ; cartesianDistance=0.47888 (Travel)
; 
; feature fill
PRIO_ON
G1 X17.92662 Y4.2863 E588.70423 ; EInc=17.88779 cartesianDistance=9.12277 angle=0.000 pulseDistance=0.51000 => originalEInc=17.88778 adjustedEInc=8.94389 density=0.5
; 
; feature travel
PRIO_OFF
G0 X17.44774 Y4.2863 ; cartesianDistance=0.47888 (Travel)
; 
; feature fill
PRIO_ON
G1 X20.56791 Y-4.2863 E597.64813 ; EInc=17.88779 cartesianDistance=9.12277 angle=0.000 pulseDistance=0.51000 => originalEInc=17.88779 adjustedEInc=8.94389 density=0.5
; 
; feature travel
PRIO_OFF
G0 X20.08903 Y-4.2863 ; cartesianDistance=0.47888 (Travel)
; 
; feature fill
PRIO_ON
G1 X16.96886 Y4.2863 E606.59202 ; EInc=17.88779 cartesianDistance=9.12277 angle=0.000 pulseDistance=0.51000 => originalEInc=17.88778 adjustedEInc=8.94389 density=0.5
; 
; feature travel
PRIO_OFF
G0 X16.48998 Y4.2863 ; cartesianDistance=0.47888 (Travel)
; 
; feature fill
PRIO_ON
G1 X19.61015 Y-4.2863 E615.53591 ; EInc=17.88779 cartesianDistance=9.12277 angle=0.000 pulseDistance=0.51000 => originalEInc=17.88779 adjustedEInc=8.94389 density=0.5
; 
; feature travel
PRIO_OFF
G0 X19.13127 Y-4.2863 ; cartesianDistance=0.47888 (Travel)
; 
; feature fill
PRIO_ON
G1 X16.01110 Y4.2863 E624.47980 ; EInc=17.88779 cartesianDistance=9.12277 angle=0.000 pulseDistance=0.51000 => originalEInc=17.88778 adjustedEInc=8.94389 density=0.5
; 
; feature travel
PRIO_OFF
G0 X15.53222 Y4.2863 ; cartesianDistance=0.47888 (Travel)
; 
; feature fill
PRIO_ON
G1 X18.65239 Y-4.2863 E633.42370 ; EInc=17.88779 cartesianDistance=9.12277 angle=0.000 pulseDistance=0.51000 => originalEInc=17.88779 adjustedEInc=8.94389 density=0.5
; 
; feature travel
PRIO_OFF
G0 X18.17351 Y-4.2863 ; cartesianDistance=0.47888 (Travel)
; 
; feature fill
PRIO_ON
G1 X15.05334 Y4.2863 E642.36759 ; EInc=17.88779 cartesianDistance=9.12277 angle=0.000 pulseDistance=0.51000 => originalEInc=17.88778 adjustedEInc=8.94389 density=0.5
; 
; feature travel
PRIO_OFF
G0 X14.57446 Y4.2863 ; cartesianDistance=0.47888 (Travel)
; 
; feature fill
PRIO_ON
G1 X17.69463 Y-4.2863 E651.31148 ; EInc=17.88779 cartesianDistance=9.12277 angle=0.000 pulseDistance=0.51000 => originalEInc=17.88779 adjustedEInc=8.94389 density=0.5
; 
; feature travel
PRIO_OFF
G0 X17.21575 Y-4.2863 ; cartesianDistance=0.47888 (Travel)
; 
; feature fill
PRIO_ON
G1 X14.09558 Y4.2863 E660.25537 ; EInc=17.88779 cartesianDistance=9.12277 angle=0.000 pulseDistance=0.51000 => originalEInc=17.88778 adjustedEInc=8.94389 density=0.5
; 
; feature travel
PRIO_OFF
G0 X13.6167 Y4.2863 ; cartesianDistance=0.47888 (Travel)
; 
; feature fill
PRIO_ON
G1 X16.73687 Y-4.2863 E669.19927 ; EInc=17.88779 cartesianDistance=9.12277 angle=0.000 pulseDistance=0.51000 => originalEInc=17.88779 adjustedEInc=8.94389 density=0.5
; 
; feature travel
PRIO_OFF
G0 X16.25799 Y-4.2863 ; cartesianDistance=0.47888 (Travel)
; 
; feature fill
PRIO_ON
G1 X13.13782 Y4.2863 E678.14316 ; EInc=17.88779 cartesianDistance=9.12277 angle=0.000 pulseDistance=0.51000 => originalEInc=17.88778 adjustedEInc=8.94389 density=0.5
; 
; feature travel
PRIO_OFF
G0 X12.65894 Y4.2863 ; cartesianDistance=0.47888 (Travel)
; 
; feature fill
PRIO_ON
G1 X15.77911 Y-4.2863 E687.08705 ; EInc=17.88779 cartesianDistance=9.12277 angle=0.000 pulseDistance=0.51000 => originalEInc=17.88779 adjustedEInc=8.94389 density=0.5
; 
; feature travel
PRIO_OFF
G0 X15.30023 Y-4.2863 ; cartesianDistance=0.47888 (Travel)
; 
; feature fill
PRIO_ON
G1 X12.18006 Y4.2863 E696.03094 ; EInc=17.88779 cartesianDistance=9.12277 angle=0.000 pulseDistance=0.51000 => originalEInc=17.88778 adjustedEInc=8.94389 density=0.5
; 
; feature travel
PRIO_OFF
G0 X11.70118 Y4.2863 ; cartesianDistance=0.47888 (Travel)
; 
; feature fill
PRIO_ON
G1 X14.82135 Y-4.2863 E704.97484 ; EInc=17.88779 cartesianDistance=9.12277 angle=0.000 pulseDistance=0.51000 => originalEInc=17.88779 adjustedEInc=8.94389 density=0.5
; 
; feature travel
PRIO_OFF
G0 X14.34247 Y-4.2863 ; cartesianDistance=0.47888 (Travel)
; 
; feature fill
PRIO_ON
G1 X11.22230 Y4.2863 E713.91873 ; EInc=17.88779 cartesianDistance=9.12277 angle=0.000 pulseDistance=0.51000 => originalEInc=17.88778 adjustedEInc=8.94389 density=0.5
; 
; feature travel
PRIO_OFF
G0 X10.74342 Y4.2863 ; cartesianDistance=0.47888 (Travel)
; 
; feature fill
PRIO_ON
G1 X13.86359 Y-4.2863 E722.86262 ; EInc=17.88779 cartesianDistance=9.12277 angle=0.000 pulseDistance=0.51000 => originalEInc=17.88779 adjustedEInc=8.94389 density=0.5
; 
; feature travel
PRIO_OFF
G0 X13.38471 Y-4.2863 ; cartesianDistance=0.47888 (Travel)
; 
; feature fill
PRIO_ON
G1 X10.26454 Y4.2863 E731.80651 ; EInc=17.88779 cartesianDistance=9.12277 angle=0.000 pulseDistance=0.51000 => originalEInc=17.88778 adjustedEInc=8.94389 density=0.5
; 
; feature travel
PRIO_OFF
G0 X9.78566 Y4.2863 ; cartesianDistance=0.47888 (Travel)
; 
; feature fill
PRIO_ON
G1 X12.90583 Y-4.2863 E740.75041 ; EInc=17.88779 cartesianDistance=9.12277 angle=0.000 pulseDistance=0.51000 => originalEInc=17.88779 adjustedEInc=8.94389 density=0.5
; 
; feature travel
PRIO_OFF
G0 X12.42695 Y-4.2863 ; cartesianDistance=0.47888 (Travel)
; 
; feature fill
PRIO_ON
G1 X9.30678 Y4.2863 E749.69430 ; EInc=17.88779 cartesianDistance=9.12277 angle=0.000 pulseDistance=0.51000 => originalEInc=17.88778 adjustedEInc=8.94389 density=0.5
; 
; feature travel
PRIO_OFF
G0 X8.8279 Y4.2863 ; cartesianDistance=0.47888 (Travel)
; 
; feature fill
PRIO_ON
G1 X11.94807 Y-4.2863 E758.63819 ; EInc=17.88779 cartesianDistance=9.12277 angle=0.000 pulseDistance=0.51000 => originalEInc=17.88779 adjustedEInc=8.94389 density=0.5
; 
; feature travel
PRIO_OFF
G0 X11.46919 Y-4.2863 ; cartesianDistance=0.47888 (Travel)
; 
; feature fill
PRIO_ON
G1 X8.34902 Y4.2863 E767.58209 ; EInc=17.88779 cartesianDistance=9.12277 angle=0.000 pulseDistance=0.51000 => originalEInc=17.88778 adjustedEInc=8.94389 density=0.5
; 
; feature travel
PRIO_OFF
G0 X7.87014 Y4.2863 ; cartesianDistance=0.47888 (Travel)
; 
; feature fill
PRIO_ON
G1 X10.99031 Y-4.2863 E776.52598 ; EInc=17.88779 cartesianDistance=9.12277 angle=0.000 pulseDistance=0.51000 => originalEInc=17.88779 adjustedEInc=8.94390 density=0.5
; 
; feature travel
PRIO_OFF
G0 X10.51143 Y-4.2863 ; cartesianDistance=0.47888 (Travel)
; 
; feature fill
PRIO_ON
G1 X7.39126 Y4.2863 E785.46987 ; EInc=17.88779 cartesianDistance=9.12277 angle=0.000 pulseDistance=0.51000 => originalEInc=17.88778 adjustedEInc=8.94389 density=0.5
; 
; feature travel
PRIO_OFF
G0 X6.91238 Y4.2863 ; cartesianDistance=0.47888 (Travel)
; 
; feature fill
PRIO_ON
G1 X10.03255 Y-4.2863 E794.41377 ; EInc=17.88779 cartesianDistance=9.12277 angle=0.000 pulseDistance=0.51000 => originalEInc=17.88779 adjustedEInc=8.94389 density=0.5
; 
; feature travel
PRIO_OFF
G0 X9.55367 Y-4.2863 ; cartesianDistance=0.47888 (Travel)
; 
; feature fill
PRIO_ON
G1 X6.43350 Y4.2863 E803.35766 ; EInc=17.88779 cartesianDistance=9.12277 angle=0.000 pulseDistance=0.51000 => originalEInc=17.88778 adjustedEInc=8.94389 density=0.5
; 
; feature travel
PRIO_OFF
G0 X5.95462 Y4.2863 ; cartesianDistance=0.47888 (Travel)
; 
; feature fill
PRIO_ON
G1 X9.07479 Y-4.2863 E812.30155 ; EInc=17.88779 cartesianDistance=9.12277 angle=0.000 pulseDistance=0.51000 => originalEInc=17.88779 adjustedEInc=8.94390 density=0.5
; 
; feature travel
PRIO_OFF
G0 X8.59591 Y-4.2863 ; cartesianDistance=0.47888 (Travel)
; 
; feature fill
PRIO_ON
G1 X5.47574 Y4.2863 E821.24544 ; EInc=17.88779 cartesianDistance=9.12277 angle=0.000 pulseDistance=0.51000 => originalEInc=17.88778 adjustedEInc=8.94389 density=0.5
; 
; feature travel
PRIO_OFF
G0 X4.99686 Y4.2863 ; cartesianDistance=0.47888 (Travel)
; 
; feature fill
PRIO_ON
G1 X8.11703 Y-4.2863 E830.18934 ; EInc=17.88779 cartesianDistance=9.12277 angle=0.000 pulseDistance=0.51000 => originalEInc=17.88779 adjustedEInc=8.94389 density=0.5
; 
; feature travel
PRIO_OFF
G0 X7.63815 Y-4.2863 ; cartesianDistance=0.47888 (Travel)
; 
; feature fill
PRIO_ON
G1 X4.51798 Y4.2863 E839.13323 ; EInc=17.88779 cartesianDistance=9.12277 angle=0.000 pulseDistance=0.51000 => originalEInc=17.88778 adjustedEInc=8.94389 density=0.5
; 
; feature travel
PRIO_OFF
G0 X4.0391 Y4.2863 ; cartesianDistance=0.47888 (Travel)
; 
; feature fill
PRIO_ON
G1 X7.15927 Y-4.2863 E848.07712 ; EInc=17.88779 cartesianDistance=9.12277 angle=0.000 pulseDistance=0.51000 => originalEInc=17.88779 adjustedEInc=8.94390 density=0.5
; 
; feature travel
PRIO_OFF
G0 X6.68039 Y-4.2863 ; cartesianDistance=0.47888 (Travel)
; 
; feature fill
PRIO_ON
G1 X3.56022 Y4.2863 E857.02101 ; EInc=17.88779 cartesianDistance=9.12277 angle=0.000 pulseDistance=0.51000 => originalEInc=17.88778 adjustedEInc=8.94389 density=0.5
; 
; feature travel
PRIO_OFF
G0 X3.08134 Y4.2863 ; cartesianDistance=0.47888 (Travel)
; 
; feature fill
PRIO_ON
G1 X6.20151 Y-4.2863 E865.96491 ; EInc=17.88779 cartesianDistance=9.12277 angle=0.000 pulseDistance=0.51000 => originalEInc=17.88779 adjustedEInc=8.94389 density=0.5
; 
; feature travel
PRIO_OFF
G0 X5.72263 Y-4.2863 ; cartesianDistance=0.47888 (Travel)
; 
; feature fill
PRIO_ON
G1 X2.60246 Y4.2863 E874.90880 ; EInc=17.88779 cartesianDistance=9.12277 angle=0.000 pulseDistance=0.51000 => originalEInc=17.88778 adjustedEInc=8.94389 density=0.5
; 
; feature travel
PRIO_OFF
G0 X2.12358 Y4.2863 ; cartesianDistance=0.47888 (Travel)
; 
; feature fill
PRIO_ON
G1 X5.24375 Y-4.2863 E883.85269 ; EInc=17.88779 cartesianDistance=9.12277 angle=0.000 pulseDistance=0.51000 => originalEInc=17.88779 adjustedEInc=8.94390 density=0.5
; 
; feature travel
PRIO_OFF
G0 X4.76487 Y-4.2863 ; cartesianDistance=0.47888 (Travel)
; 
; feature fill
PRIO_ON
G1 X1.64470 Y4.2863 E892.79658 ; EInc=17.88779 cartesianDistance=9.12277 angle=0.000 pulseDistance=0.51000 => originalEInc=17.88778 adjustedEInc=8.94389 density=0.5
; 
; feature travel
PRIO_OFF
G0 X1.16582 Y4.2863 ; cartesianDistance=0.47888 (Travel)
; 
; feature fill
PRIO_ON
G1 X4.28599 Y-4.2863 E901.74048 ; EInc=17.88779 cartesianDistance=9.12277 angle=0.000 pulseDistance=0.51000 => originalEInc=17.88779 adjustedEInc=8.94389 density=0.5
; 
; feature travel
PRIO_OFF
G0 X3.80711 Y-4.2863 ; cartesianDistance=0.47888 (Travel)
; 
; feature fill
PRIO_ON
G1 X0.68694 Y4.2863 E910.68437 ; EInc=17.88779 cartesianDistance=9.12277 angle=0.000 pulseDistance=0.51000 => originalEInc=17.88778 adjustedEInc=8.94389 density=0.5
; 
; feature travel
PRIO_OFF
G0 X0.20806 Y4.2863 ; cartesianDistance=0.47888 (Travel)
; 
; feature fill
PRIO_ON
G1 X3.32823 Y-4.2863 E919.62826 ; EInc=17.88779 cartesianDistance=9.12277 angle=0.000 pulseDistance=0.51000 => originalEInc=17.88779 adjustedEInc=8.94390 density=0.5
; 
; feature travel
PRIO_OFF
G0 X2.84935 Y-4.2863 ; cartesianDistance=0.47888 (Travel)
; 
; feature fill
PRIO_ON
G1 X0.00000 Y3.5422 E927.79585 ; => originalEInc=16.33518 adjustedEInc=8.16759 density=0.5
G1 X-0.27082 Y4.2863 E929.34845 ; EInc=17.88779 cartesianDistance=9.12277 angle=0.000 pulseDistance=0.51000
; 
; feature travel
PRIO_OFF
G0 X-0.7497 Y4.2863 ; cartesianDistance=0.47888 (Travel)
; 
; feature fill
PRIO_ON
G1 X0.00000 Y2.2265 E933.64644 
G1 X2.37047 Y-4.2863 E940.44134 ; EInc=17.88779 cartesianDistance=9.12277 angle=0.000 pulseDistance=0.51000 => originalEInc=13.58979 adjustedEInc=6.79490 density=0.5
; 
; feature travel
PRIO_OFF
G0 X1.89159 Y-4.2863 ; cartesianDistance=0.47888 (Travel)
; 
; feature fill
PRIO_ON
G1 X0.00000 Y0.9108 E945.86354 ; => originalEInc=10.84439 adjustedEInc=5.42220 density=0.5
G1 X-1.22858 Y4.2863 E952.90693 ; EInc=17.88779 cartesianDistance=9.12277 angle=0.000 pulseDistance=0.51000
; 
; feature travel
PRIO_OFF
G0 X-1.70746 Y4.2863 ; cartesianDistance=0.47888 (Travel)
; 
; feature fill
PRIO_ON
G1 X0.00000 Y-0.4049 E962.69571 
G1 X1.41271 Y-4.2863 E966.74522 ; EInc=17.88779 cartesianDistance=9.12277 angle=0.000 pulseDistance=0.51000 => originalEInc=8.09900 adjustedEInc=4.04950 density=0.5
; 
; feature travel
PRIO_OFF
G0 X0.93383 Y-4.2863 ; cartesianDistance=0.47888 (Travel)
; 
; feature fill
PRIO_ON
G1 X0.00000 Y-1.7206 E969.42202 ; => originalEInc=5.35360 adjustedEInc=2.67680 density=0.5
G1 X-2.18634 Y4.2863 E981.95619 ; EInc=17.88779 cartesianDistance=9.12277 angle=0.000 pulseDistance=0.51000
; 
; feature travel
PRIO_OFF
G0 X-2.66522 Y4.2863 ; cartesianDistance=0.47888 (Travel)
; 
; feature fill
PRIO_ON
G1 X0.00000 Y-3.0363 E997.23578 
G1 X0.45495 Y-4.2863 E998.53988 ; EInc=17.88779 cartesianDistance=9.12277 angle=0.000 pulseDistance=0.51000 => originalEInc=2.60821 adjustedEInc=1.30410 density=0.5
; 
; feature travel
PRIO_OFF
G0 X-0.02393 Y-4.2863 ; cartesianDistance=0.47888 (Travel)
; 
; feature fill
PRIO_ON
G1 X-3.14410 Y4.2863 E1016.42766 ; EInc=17.88779 cartesianDistance=9.12277 angle=0.000 pulseDistance=0.51000
; 
; feature travel
PRIO_OFF
G0 X-3.62298 Y4.2863 ; cartesianDistance=0.47888 (Travel)
; 
; feature fill
PRIO_ON
G1 X-0.50281 Y-4.2863 E1034.31545 ; EInc=17.88779 cartesianDistance=9.12277 angle=0.000 pulseDistance=0.51000
; 
; feature travel
PRIO_OFF
G0 X-0.98169 Y-4.2863 ; cartesianDistance=0.47888 (Travel)
; 
; feature fill
PRIO_ON
G1 X-4.10186 Y4.2863 E1052.20323 ; EInc=17.88779 cartesianDistance=9.12277 angle=0.000 pulseDistance=0.51000
; 
; feature travel
PRIO_OFF
G0 X-4.58074 Y4.2863 ; cartesianDistance=0.47888 (Travel)
; 
; feature fill
PRIO_ON
G1 X-1.46057 Y-4.2863 E1070.09102 ; EInc=17.88779 cartesianDistance=9.12277 angle=0.000 pulseDistance=0.51000
; 
; feature travel
PRIO_OFF
G0 X-1.93945 Y-4.2863 ; cartesianDistance=0.47888 (Travel)
; 
; feature fill
PRIO_ON
G1 X-5.05962 Y4.2863 E1087.97880 ; EInc=17.88779 cartesianDistance=9.12277 angle=0.000 pulseDistance=0.51000
; 
; feature travel
PRIO_OFF
G0 X-5.5385 Y4.2863 ; cartesianDistance=0.47888 (Travel)
; 
; feature fill
PRIO_ON
G1 X-2.41833 Y-4.2863 E1105.86659 ; EInc=17.88779 cartesianDistance=9.12277 angle=0.000 pulseDistance=0.51000
; 
; feature travel
PRIO_OFF
G0 X-2.89721 Y-4.2863 ; cartesianDistance=0.47888 (Travel)
; 
; feature fill
PRIO_ON
G1 X-6.01738 Y4.2863 E1123.75437 ; EInc=17.88779 cartesianDistance=9.12277 angle=0.000 pulseDistance=0.51000
; 
; feature travel
PRIO_OFF
G0 X-6.49626 Y4.2863 ; cartesianDistance=0.47888 (Travel)
; 
; feature fill
PRIO_ON
G1 X-3.37609 Y-4.2863 E1141.64216 ; EInc=17.88779 cartesianDistance=9.12277 angle=0.000 pulseDistance=0.51000
; 
; feature travel
PRIO_OFF
G0 X-3.85497 Y-4.2863 ; cartesianDistance=0.47888 (Travel)
; 
; feature fill
PRIO_ON
G1 X-6.97514 Y4.2863 E1159.52994 ; EInc=17.88779 cartesianDistance=9.12277 angle=0.000 pulseDistance=0.51000
; 
; feature travel
PRIO_OFF
G0 X-7.45402 Y4.2863 ; cartesianDistance=0.47888 (Travel)
; 
; feature fill
PRIO_ON
G1 X-4.33385 Y-4.2863 E1177.41773 ; EInc=17.88779 cartesianDistance=9.12277 angle=0.000 pulseDistance=0.51000
; 
; feature travel
PRIO_OFF
G0 X-4.81273 Y-4.2863 ; cartesianDistance=0.47888 (Travel)
; 
; feature fill
PRIO_ON
G1 X-7.93290 Y4.2863 E1195.30551 ; EInc=17.88779 cartesianDistance=9.12277 angle=0.000 pulseDistance=0.51000
; 
; feature travel
PRIO_OFF
G0 X-8.41178 Y4.2863 ; cartesianDistance=0.47888 (Travel)
; 
; feature fill
PRIO_ON
G1 X-5.29161 Y-4.2863 E1213.19330 ; EInc=17.88779 cartesianDistance=9.12277 angle=0.000 pulseDistance=0.51000
; 
; feature travel
PRIO_OFF
G0 X-5.77049 Y-4.2863 ; cartesianDistance=0.47888 (Travel)
; 
; feature fill
PRIO_ON
G1 X-8.89066 Y4.2863 E1231.08109 ; EInc=17.88779 cartesianDistance=9.12277 angle=0.000 pulseDistance=0.51000
; 
; feature travel
PRIO_OFF
G0 X-9.36954 Y4.2863 ; cartesianDistance=0.47888 (Travel)
; 
; feature fill
PRIO_ON
G1 X-6.24937 Y-4.2863 E1248.96887 ; EInc=17.88779 cartesianDistance=9.12277 angle=0.000 pulseDistance=0.51000
; 
; feature travel
PRIO_OFF
G0 X-6.72825 Y-4.2863 ; cartesianDistance=0.47888 (Travel)
; 
; feature fill
PRIO_ON
G1 X-9.84842 Y4.2863 E1266.85666 ; EInc=17.88779 cartesianDistance=9.12277 angle=0.000 pulseDistance=0.51000
; 
; feature travel
PRIO_OFF
G0 X-10.3273 Y4.2863 ; cartesianDistance=0.47888 (Travel)
; 
; feature fill
PRIO_ON
G1 X-7.20713 Y-4.2863 E1284.74444 ; EInc=17.88779 cartesianDistance=9.12277 angle=0.000 pulseDistance=0.51000
; 
; feature travel
PRIO_OFF
G0 X-7.68601 Y-4.2863 ; cartesianDistance=0.47888 (Travel)
; 
; feature fill
PRIO_ON
G1 X-10.80618 Y4.2863 E1302.63223 ; EInc=17.88779 cartesianDistance=9.12277 angle=0.000 pulseDistance=0.51000
; 
; feature travel
PRIO_OFF
G0 X-11.28506 Y4.2863 ; cartesianDistance=0.47888 (Travel)
; 
; feature fill
PRIO_ON
G1 X-8.16489 Y-4.2863 E1320.52001 ; EInc=17.88779 cartesianDistance=9.12277 angle=0.000 pulseDistance=0.51000
; 
; feature travel
PRIO_OFF
G0 X-8.64377 Y-4.2863 ; cartesianDistance=0.47888 (Travel)
; 
; feature fill
PRIO_ON
G1 X-11.76394 Y4.2863 E1338.40780 ; EInc=17.88779 cartesianDistance=9.12277 angle=0.000 pulseDistance=0.51000
; 
; feature travel
PRIO_OFF
G0 X-12.24282 Y4.2863 ; cartesianDistance=0.47888 (Travel)
; 
; feature fill
PRIO_ON
G1 X-9.12265 Y-4.2863 E1356.29558 ; EInc=17.88779 cartesianDistance=9.12277 angle=0.000 pulseDistance=0.51000
; 
; feature travel
PRIO_OFF
G0 X-9.60153 Y-4.2863 ; cartesianDistance=0.47888 (Travel)
; 
; feature fill
PRIO_ON
G1 X-12.72170 Y4.2863 E1374.18337 ; EInc=17.88779 cartesianDistance=9.12277 angle=0.000 pulseDistance=0.51000
; 
; feature travel
PRIO_OFF
G0 X-13.20058 Y4.2863 ; cartesianDistance=0.47888 (Travel)
; 
; feature fill
PRIO_ON
G1 X-10.08041 Y-4.2863 E1392.07115 ; EInc=17.88779 cartesianDistance=9.12277 angle=0.000 pulseDistance=0.51000
; 
; feature travel
PRIO_OFF
G0 X-10.55929 Y-4.2863 ; cartesianDistance=0.47888 (Travel)
; 
; feature fill
PRIO_ON
G1 X-13.67946 Y4.2863 E1409.95894 ; EInc=17.88779 cartesianDistance=9.12277 angle=0.000 pulseDistance=0.51000
; 
; feature travel
PRIO_OFF
G0 X-14.15834 Y4.2863 ; cartesianDistance=0.47888 (Travel)
; 
; feature fill
PRIO_ON
G1 X-11.03817 Y-4.2863 E1427.84672 ; EInc=17.88779 cartesianDistance=9.12277 angle=0.000 pulseDistance=0.51000
; 
; feature travel
PRIO_OFF
G0 X-11.51705 Y-4.2863 ; cartesianDistance=0.47888 (Travel)
; 
; feature fill
PRIO_ON
G1 X-14.63722 Y4.2863 E1445.73451 ; EInc=17.88779 cartesianDistance=9.12277 angle=0.000 pulseDistance=0.51000
; 
; feature travel
PRIO_OFF
G0 X-15.1161 Y4.2863 ; cartesianDistance=0.47888 (Travel)
; 
; feature fill
PRIO_ON
G1 X-11.99593 Y-4.2863 E1463.62229 ; EInc=17.88779 cartesianDistance=9.12277 angle=0.000 pulseDistance=0.51000
; 
; feature travel
PRIO_OFF
G0 X-12.47481 Y-4.2863 ; cartesianDistance=0.47888 (Travel)
; 
; feature fill
PRIO_ON
G1 X-15.59498 Y4.2863 E1481.51008 ; EInc=17.88779 cartesianDistance=9.12277 angle=0.000 pulseDistance=0.51000
; 
; feature travel
PRIO_OFF
G0 X-16.07386 Y4.2863 ; cartesianDistance=0.47888 (Travel)
; 
; feature fill
PRIO_ON
G1 X-12.95369 Y-4.2863 E1499.39786 ; EInc=17.88779 cartesianDistance=9.12277 angle=0.000 pulseDistance=0.51000
; 
; feature travel
PRIO_OFF
G0 X-13.43257 Y-4.2863 ; cartesianDistance=0.47888 (Travel)
; 
; feature fill
PRIO_ON
G1 X-16.55274 Y4.2863 E1517.28565 ; EInc=17.88779 cartesianDistance=9.12277 angle=0.000 pulseDistance=0.51000
; 
; feature travel
PRIO_OFF
G0 X-17.03162 Y4.2863 ; cartesianDistance=0.47888 (Travel)
; 
; feature fill
PRIO_ON
G1 X-13.91145 Y-4.2863 E1535.17343 ; EInc=17.88779 cartesianDistance=9.12277 angle=0.000 pulseDistance=0.51000
; 
; feature travel
PRIO_OFF
G0 X-14.39033 Y-4.2863 ; cartesianDistance=0.47888 (Travel)
; 
; feature fill
PRIO_ON
G1 X-17.51050 Y4.2863 E1553.06122 ; EInc=17.88779 cartesianDistance=9.12277 angle=0.000 pulseDistance=0.51000
; 
; feature travel
PRIO_OFF
G0 X-17.98938 Y4.2863 ; cartesianDistance=0.47888 (Travel)
; 
; feature fill
PRIO_ON
G1 X-14.86921 Y-4.2863 E1570.94900 ; EInc=17.88779 cartesianDistance=9.12277 angle=0.000 pulseDistance=0.51000
; 
; feature travel
PRIO_OFF
G0 X-15.34809 Y-4.2863 ; cartesianDistance=0.47888 (Travel)
; 
; feature fill
PRIO_ON
G1 X-18.46826 Y4.2863 E1588.83679 ; EInc=17.88779 cartesianDistance=9.12277 angle=0.000 pulseDistance=0.51000
; 
; feature travel
PRIO_OFF
G0 X-18.94714 Y4.2863 ; cartesianDistance=0.47888 (Travel)
; 
; feature fill
PRIO_ON
G1 X-15.82697 Y-4.2863 E1606.72457 ; EInc=17.88779 cartesianDistance=9.12277 angle=0.000 pulseDistance=0.51000
; 
; feature travel
PRIO_OFF
G0 X-16.30585 Y-4.2863 ; cartesianDistance=0.47888 (Travel)
; 
; feature fill
PRIO_ON
G1 X-19.42602 Y4.2863 E1624.61236 ; EInc=17.88779 cartesianDistance=9.12277 angle=0.000 pulseDistance=0.51000
; 
; feature travel
PRIO_OFF
G0 X-19.9049 Y4.2863 ; cartesianDistance=0.47888 (Travel)
; 
; feature fill
PRIO_ON
G1 X-16.78473 Y-4.2863 E1642.50014 ; EInc=17.88779 cartesianDistance=9.12277 angle=0.000 pulseDistance=0.51000
; 
; feature travel
PRIO_OFF
G0 X-17.26361 Y-4.2863 ; cartesianDistance=0.47888 (Travel)
; 
; feature fill
PRIO_ON
G1 X-20.38378 Y4.2863 E1660.38793 ; EInc=17.88779 cartesianDistance=9.12277 angle=0.000 pulseDistance=0.51000
; 
; feature travel
PRIO_OFF
G0 X-20.86266 Y4.2863 ; cartesianDistance=0.47888 (Travel)
; 
; feature fill
PRIO_ON
G1 X-17.74249 Y-4.2863 E1678.27571 ; EInc=17.88779 cartesianDistance=9.12277 angle=0.000 pulseDistance=0.51000
; 
; feature travel
PRIO_OFF
G0 X-18.22137 Y-4.2863 ; cartesianDistance=0.47888 (Travel)
; 
; feature fill
PRIO_ON
G1 X-21.34154 Y4.2863 E1696.16350 ; EInc=17.88779 cartesianDistance=9.12277 angle=0.000 pulseDistance=0.51000
; 
; feature travel
PRIO_OFF
G0 X-21.82042 Y4.2863 ; cartesianDistance=0.47888 (Travel)
; 
; feature fill
PRIO_ON
G1 X-18.70025 Y-4.2863 E1714.05128 ; EInc=17.88779 cartesianDistance=9.12277 angle=0.000 pulseDistance=0.51000
; 
; feature travel
PRIO_OFF
G0 X-19.17913 Y-4.2863 ; cartesianDistance=0.47888 (Travel)
; 
; feature fill
PRIO_ON
G1 X-22.29930 Y4.2863 E1731.93907 ; EInc=17.88779 cartesianDistance=9.12277 angle=0.000 pulseDistance=0.51000
; 
; feature travel
PRIO_OFF
G0 X-22.77818 Y4.2863 ; cartesianDistance=0.47888 (Travel)
; 
; feature fill
PRIO_ON
G1 X-19.65801 Y-4.2863 E1749.82685 ; EInc=17.88779 cartesianDistance=9.12277 angle=0.000 pulseDistance=0.51000
; 
; feature travel
PRIO_OFF
G0 X-20.13689 Y-4.2863 ; cartesianDistance=0.47888 (Travel)
; 
; feature fill
PRIO_ON
G1 X-23.25706 Y4.2863 E1767.71464 ; EInc=17.88779 cartesianDistance=9.12277 angle=0.000 pulseDistance=0.51000
; 
; feature travel
PRIO_OFF
G0 X-23.73594 Y4.2863 ; cartesianDistance=0.47888 (Travel)
; 
; feature fill
PRIO_ON
G1 X-20.61577 Y-4.2863 E1785.60242 ; EInc=17.88779 cartesianDistance=9.12277 angle=0.000 pulseDistance=0.51000
; 
; feature travel
PRIO_OFF
G0 X-21.09465 Y-4.2863 ; cartesianDistance=0.47888 (Travel)
; 
; feature fill
PRIO_ON
G1 X-24.21482 Y4.2863 E1803.49021 ; EInc=17.88779 cartesianDistance=9.12277 angle=0.000 pulseDistance=0.51000
; 
; feature travel
PRIO_OFF
G0 X-24.4947 Y3.73954 ; cartesianDistance=0.61423 (Travel)
; 
; feature fill
PRIO_ON
G1 X-21.57353 Y-4.2863 E1820.23712 ; EInc=16.74691 cartesianDistance=8.54092 angle=0.000 pulseDistance=0.51000
; 
; feature travel
PRIO_OFF
G0 X-22.05241 Y-4.2863 ; cartesianDistance=0.47888 (Travel)
; 
; feature fill
PRIO_ON
G1 X-24.49470 Y2.4238 E1834.23863 ; EInc=14.00151 cartesianDistance=7.14077 angle=0.000 pulseDistance=0.51000
; 
; feature travel
PRIO_OFF
G0 X-24.4947 Y1.10812 ; cartesianDistance=1.31571 (Travel)
; 
; feature fill
PRIO_ON
G1 X-22.53129 Y-4.2863 E1845.49475 ; EInc=11.25612 cartesianDistance=5.74062 angle=0.000 pulseDistance=0.51000
; 
; feature travel
PRIO_OFF
G0 X-23.01017 Y-4.2863 ; cartesianDistance=0.47888 (Travel)
; 
; feature fill
PRIO_ON
G1 X-24.49470 Y-0.2076 E1854.00547 ; EInc=8.51072 cartesianDistance=4.34047 angle=0.000 pulseDistance=0.51000
; 
; feature travel
PRIO_OFF
G0 X-24.4947 Y-1.5233 ; cartesianDistance=1.31571 (Travel)
; 
; feature fill
PRIO_ON
G1 X-23.48905 Y-4.2863 E1859.77080 ; EInc=5.76533 cartesianDistance=2.94032 angle=0.000 pulseDistance=0.51000
; 
; feature travel
PRIO_OFF
G0 X-23.96793 Y-4.2863 ; cartesianDistance=0.47888 (Travel)
; 
; feature fill
PRIO_ON
G1 X-24.49470 Y-2.8390 E1862.79074 ; EInc=3.01993 cartesianDistance=1.54017 angle=0.000 pulseDistance=0.51000
; 
; feature travel
PRIO_OFF
G0 X-24.4947 Y-4.15473 ; cartesianDistance=1.31571 (Travel)
; 
; feature fill
PRIO_ON
G1 X-24.44681 Y-4.2863 E1863.06528 ; EInc=0.27454 cartesianDistance=0.14002 angle=0.000 pulseDistance=0.51000
PRIO_OFF
LayersCompleted=3
M1
; 
;========================
; layer 3, Z = 0.9600
; 
; reset extrusion
STOPRE
PRESETON(E, 0)
DO PRIO_PULSE_DISTANCE=DROP_SCALE
DO PRIO_ON_PATH_OFFSET=0.5*PRIO_PULSE_DISTANCE
;outer: (25.2604,-5.0521) (25.2604,5.0521) (-25.2604,5.0521) (-25.2604,-5.0521) (21.0604,-5.0521) holes: !
;overhangs:!
; 
; feature plane change
G0 X-24.44681 Y-4.2863 Z0.96 ; cartesianDistance=0.00000 (Plane Change)
; 
; feature travel
G0 X4.1599 Y-4.637 ; cartesianDistance=28.60886 (Travel)
; 
; feature outer perimeter
G1 F24000 FL[E] = OuterPerimeterFrequency * DROP_SCALE * 60
PRIO_ON
G1 X-24.84540 Y-4.6370 E68.24776 ; EInc=68.24776 cartesianDistance=29.00530 angle=90.000 pulseDistance=0.42500
G1 X-24.84540 Y4.6370 E90.06893 ; EInc=21.82118 cartesianDistance=9.27400 angle=90.000 pulseDistance=0.42500
G1 X24.84540 Y4.6370 E206.98846 ; EInc=116.91953 cartesianDistance=49.69080 angle=90.000 pulseDistance=0.42500
G1 X24.84540 Y-4.6370 E228.80964 ; EInc=21.82118 cartesianDistance=9.27400 angle=90.000 pulseDistance=0.42500
G1 X4.15990 Y-4.6370 E277.48141 ; EInc=48.67177 cartesianDistance=20.68550 angle=180.000 pulseDistance=0.42500
; 
; feature travel
PRIO_OFF
G0 X4.1599 Y-4.286 ; cartesianDistance=0.35100 (Travel)
; 
; feature inner perimeter
G1 F24000 FL[E] = InnerPerimeterFrequency * DROP_SCALE * 60
PRIO_ON
G1 X24.49440 Y-4.2860 E315.13790 ; EInc=37.65649 cartesianDistance=20.33450 angle=90.000 pulseDistance=0.54000
G1 X24.49440 Y4.2860 E331.01197 ; EInc=15.87407 cartesianDistance=8.57200 angle=90.000 pulseDistance=0.54000
G1 X-24.49440 Y4.2860 E421.73197 ; EInc=90.72000 cartesianDistance=48.98880 angle=90.000 pulseDistance=0.54000
G1 X-24.49440 Y-4.2860 E437.60605 ; EInc=15.87407 cartesianDistance=8.57200 angle=90.000 pulseDistance=0.54000
G1 X4.15990 Y-4.2860 E490.66956 ; EInc=53.06351 cartesianDistance=28.65430 angle=180.000 pulseDistance=0.54000
; 
; feature travel
PRIO_OFF
G0 X4.36113 Y-4.2863 ; cartesianDistance=0.20123 (Travel)
; 
; feature fill
G1 F24000 FL[E] = FillFrequency * DROP_SCALE * 60
PRIO_ON
G1 X0.00000 Y-2.2527 E495.38718 ; => originalEInc=9.43524 adjustedEInc=4.71762 density=0.5
G1 X-14.02287 Y4.2863 E525.72547 ; EInc=39.77353 cartesianDistance=20.28450 angle=0.000 pulseDistance=0.51000
; 
; feature travel
PRIO_OFF
G0 X-12.95808 Y4.2863 ; cartesianDistance=1.06479 (Travel)
; 
; feature fill
PRIO_ON
G1 X0.00000 Y-1.7562 E553.76009 
G1 X5.42592 Y-4.2863 E559.62955 ; EInc=39.77353 cartesianDistance=20.28450 angle=0.000 pulseDistance=0.51000 => originalEInc=11.73890 adjustedEInc=5.86945 density=0.5
; 
; feature travel
PRIO_OFF
G0 X6.49071 Y-4.2863 ; cartesianDistance=1.06479 (Travel)
; 
; feature fill
PRIO_ON
G1 X0.00000 Y-1.2596 E566.65083 ; => originalEInc=14.04256 adjustedEInc=7.02128 density=0.5
G1 X-11.89329 Y4.2863 E592.38180 ; EInc=39.77353 cartesianDistance=20.28450 angle=0.000 pulseDistance=0.51000
; 
; feature travel
PRIO_OFF
G0 X-10.8285 Y4.2863 ; cartesianDistance=1.06479 (Travel)
; 
; feature fill
PRIO_ON
G1 X0.00000 Y-0.7631 E615.80911 
G1 X7.55550 Y-4.2863 E623.98222 ; EInc=39.77353 cartesianDistance=20.28450 angle=0.000 pulseDistance=0.51000 => originalEInc=16.34622 adjustedEInc=8.17311 density=0.5
; 
; feature travel
PRIO_OFF
G0 X8.62029 Y-4.2863 ; cartesianDistance=1.06479 (Travel)
; 
; feature fill
PRIO_ON
G1 X0.00000 Y-0.2666 E633.30715 ; => originalEInc=18.64987 adjustedEInc=9.32494 density=0.5
G1 X-9.76371 Y4.2863 E654.43080 ; EInc=39.77353 cartesianDistance=20.28450 angle=0.000 pulseDistance=0.51000
; 
; feature travel
PRIO_OFF
G0 X-8.69892 Y4.2863 ; cartesianDistance=1.06479 (Travel)
; 
; feature fill
PRIO_ON
G1 X0.00000 Y0.2299 E673.25079 
G1 X9.68508 Y-4.2863 E683.72756 ; EInc=39.77353 cartesianDistance=20.28450 angle=0.000 pulseDistance=0.51000 => originalEInc=20.95354 adjustedEInc=10.47677 density=0.5
; 
; feature travel
PRIO_OFF
G0 X10.74987 Y-4.2863 ; cartesianDistance=1.06479 (Travel)
; 
; feature fill
PRIO_ON
G1 X-0.00000 Y0.7264 E695.35616 ; => originalEInc=23.25720 adjustedEInc=11.62860 density=0.5
G1 X-7.63413 Y4.2863 E711.87249 ; EInc=39.77353 cartesianDistance=20.28450 angle=0.000 pulseDistance=0.51000
; 
; feature travel
PRIO_OFF
G0 X-6.56934 Y4.2863 ; cartesianDistance=1.06479 (Travel)
; 
; feature fill
PRIO_ON
G1 X-0.00000 Y1.2230 E726.08517 
G1 X11.81466 Y-4.2863 E738.86560 ; EInc=39.77353 cartesianDistance=20.28450 angle=0.000 pulseDistance=0.51000 => originalEInc=25.56085 adjustedEInc=12.78043 density=0.5
; 
; feature travel
PRIO_OFF
G0 X12.87945 Y-4.2863 ; cartesianDistance=1.06479 (Travel)
; 
; feature fill
PRIO_ON
G1 X0.00000 Y1.7195 E752.79785 ; => originalEInc=27.86451 adjustedEInc=13.93226 density=0.5
G1 X-5.50455 Y4.2863 E764.70687 ; EInc=39.77353 cartesianDistance=20.28450 angle=0.000 pulseDistance=0.51000
; 
; feature travel
PRIO_OFF
G0 X-4.43976 Y4.2863 ; cartesianDistance=1.06479 (Travel)
; 
; feature fill
PRIO_ON
G1 X0.00000 Y2.2160 E774.31223 
G1 X13.94424 Y-4.2863 E789.39631 ; EInc=39.77353 cartesianDistance=20.28450 angle=0.000 pulseDistance=0.51000 => originalEInc=30.16817 adjustedEInc=15.08409 density=0.5
; 
; feature travel
PRIO_OFF
G0 X15.00904 Y-4.2863 ; cartesianDistance=1.06479 (Travel)
; 
; feature fill
PRIO_ON
G1 X-0.00000 Y2.7125 E805.63224 ; => originalEInc=32.47185 adjustedEInc=16.23593 density=0.5
G1 X-3.37496 Y4.2863 E812.93392 ; EInc=39.77353 cartesianDistance=20.28450 angle=0.000 pulseDistance=0.51000
; 
; feature travel
PRIO_OFF
G0 X-2.31017 Y4.2863 ; cartesianDistance=1.06479 (Travel)
; 
; feature fill
PRIO_ON
G1 X0.00000 Y3.2091 E817.93194 
G1 X16.07383 Y-4.2863 E835.31969 ; EInc=39.77353 cartesianDistance=20.28450 angle=0.000 pulseDistance=0.51000 => originalEInc=34.77551 adjustedEInc=17.38775 density=0.5
; 
; feature travel
PRIO_OFF
G0 X17.13862 Y-4.2863 ; cartesianDistance=1.06479 (Travel)
; 
; feature fill
PRIO_ON
G1 X0.00000 Y3.7056 E853.85927 ; => originalEInc=37.07916 adjustedEInc=18.53958 density=0.5
G1 X-1.24538 Y4.2863 E856.55364 ; EInc=39.77353 cartesianDistance=20.28450 angle=0.000 pulseDistance=0.51000
; 
; feature travel
PRIO_OFF
G0 X-0.18059 Y4.2863 ; cartesianDistance=1.06479 (Travel)
; 
; feature fill
PRIO_ON
G1 X0.00000 Y4.2021 E856.94434 
G1 X18.20341 Y-4.2863 E876.63575 ; EInc=39.77353 cartesianDistance=20.28450 angle=0.000 pulseDistance=0.51000 => originalEInc=39.38283 adjustedEInc=19.69141 density=0.5
; 
; feature travel
PRIO_OFF
G0 X19.2682 Y-4.2863 ; cartesianDistance=1.06479 (Travel)
; 
; feature fill
PRIO_ON
G1 X0.88420 Y4.2863 E896.52252 ; EInc=39.77353 cartesianDistance=20.28450 angle=0.000 pulseDistance=0.51000 => originalEInc=39.77353 adjustedEInc=19.88677 density=0.5
; 
; feature travel
PRIO_OFF
G0 X1.94899 Y4.2863 ; cartesianDistance=1.06479 (Travel)
; 
; feature fill
PRIO_ON
G1 X20.33299 Y-4.2863 E916.40928 ; EInc=39.77353 cartesianDistance=20.28450 angle=0.000 pulseDistance=0.51000 => originalEInc=39.77353 adjustedEInc=19.88676 density=0.5
; 
; feature travel
PRIO_OFF
G0 X21.39778 Y-4.2863 ; cartesianDistance=1.06479 (Travel)
; 
; feature fill
PRIO_ON
G1 X3.01378 Y4.2863 E936.29605 ; EInc=39.77353 cartesianDistance=20.28450 angle=0.000 pulseDistance=0.51000 => originalEInc=39.77353 adjustedEInc=19.88676 density=0.5
; 
; feature travel
PRIO_OFF
G0 X4.07857 Y4.2863 ; cartesianDistance=1.06479 (Travel)
; 
; feature fill
PRIO_ON
G1 X22.46257 Y-4.2863 E956.18281 ; EInc=39.77353 cartesianDistance=20.28450 angle=0.000 pulseDistance=0.51000 => originalEInc=39.77353 adjustedEInc=19.88676 density=0.5
; 
; feature travel
PRIO_OFF
G0 X23.52736 Y-4.2863 ; cartesianDistance=1.06479 (Travel)
; 
; feature fill
PRIO_ON
G1 X5.14336 Y4.2863 E976.06958 ; EInc=39.77353 cartesianDistance=20.28450 angle=0.000 pulseDistance=0.51000 => originalEInc=39.77353 adjustedEInc=19.88676 density=0.5
; 
; feature travel
PRIO_OFF
G0 X6.20815 Y4.2863 ; cartesianDistance=1.06479 (Travel)
; 
; feature fill
PRIO_ON
G1 X24.49470 Y-4.2409 E995.85092 ; EInc=39.56269 cartesianDistance=20.17697 angle=0.000 pulseDistance=0.51000 => originalEInc=39.56269 adjustedEInc=19.78134 density=0.5
; 
; feature travel
PRIO_OFF
G0 X24.4947 Y-3.74434 ; cartesianDistance=0.49652 (Travel)
; 
; feature fill
PRIO_ON
G1 X7.27294 Y4.2863 E1014.48044 ; EInc=37.25903 cartesianDistance=19.00211 angle=0.000 pulseDistance=0.51000 => originalEInc=37.25903 adjustedEInc=18.62951 density=0.5
; 
; feature travel
PRIO_OFF
G0 X8.33773 Y4.2863 ; cartesianDistance=1.06479 (Travel)
; 
; feature fill
PRIO_ON
G1 X24.49470 Y-3.2478 E1031.95813 ; EInc=34.95537 cartesianDistance=17.82724 angle=0.000 pulseDistance=0.51000 => originalEInc=34.95538 adjustedEInc=17.47769 density=0.5
; 
; feature travel
PRIO_OFF
G0 X24.4947 Y-2.7513 ; cartesianDistance=0.49652 (Travel)
; 
; feature fill
PRIO_ON
G1 X9.40252 Y4.2863 E1048.28398 ; EInc=32.65171 cartesianDistance=16.65237 angle=0.000 pulseDistance=0.51000 => originalEInc=32.65171 adjustedEInc=16.32585 density=0.5
; 
; feature travel
PRIO_OFF
G0 X10.46731 Y4.2863 ; cartesianDistance=1.06479 (Travel)
; 
; feature fill
PRIO_ON
G1 X24.49470 Y-2.2548 E1063.45801 ; EInc=30.34805 cartesianDistance=15.47751 angle=0.000 pulseDistance=0.51000 => originalEInc=30.34805 adjustedEInc=15.17403 density=0.5
; 
; feature travel
PRIO_OFF
G0 X24.4947 Y-1.75826 ; cartesianDistance=0.49652 (Travel)
; 
; feature fill
PRIO_ON
G1 X11.53211 Y4.2863 E1077.48021 ; EInc=28.04439 cartesianDistance=14.30264 angle=0.000 pulseDistance=0.51000 => originalEInc=28.04440 adjustedEInc=14.02220 density=0.5
; 
; feature travel
PRIO_OFF
G0 X12.5969 Y4.2863 ; cartesianDistance=1.06479 (Travel)
; 
; feature fill
PRIO_ON
G1 X24.49470 Y-1.2617 E1090.35057 ; EInc=25.74073 cartesianDistance=13.12777 angle=0.000 pulseDistance=0.51000 => originalEInc=25.74073 adjustedEInc=12.87036 density=0.5
; 
; feature travel
PRIO_OFF
G0 X24.4947 Y-0.76522 ; cartesianDistance=0.49652 (Travel)
; 
; feature fill
PRIO_ON
G1 X13.66169 Y4.2863 E1102.06911 ; EInc=23.43707 cartesianDistance=11.95291 angle=0.000 pulseDistance=0.51000 => originalEInc=23.43707 adjustedEInc=11.71853 density=0.5
; 
; feature travel
PRIO_OFF
G0 X14.72648 Y4.2863 ; cartesianDistance=1.06479 (Travel)
; 
; feature fill
PRIO_ON
G1 X24.49470 Y-0.2687 E1112.63582 ; EInc=21.13341 cartesianDistance=10.77804 angle=0.000 pulseDistance=0.51000 => originalEInc=21.13342 adjustedEInc=10.56671 density=0.5
; 
; feature travel
PRIO_OFF
G0 X24.4947 Y0.22782 ; cartesianDistance=0.49652 (Travel)
; 
; feature fill
PRIO_ON
G1 X15.79127 Y4.2863 E1122.05069 ; EInc=18.82975 cartesianDistance=9.60317 angle=0.000 pulseDistance=0.51000 => originalEInc=18.82975 adjustedEInc=9.41487 density=0.5
; 
; feature travel
PRIO_OFF
G0 X16.85606 Y4.2863 ; cartesianDistance=1.06479 (Travel)
; 
; feature fill
PRIO_ON
G1 X24.49470 Y0.7243 E1130.31374 ; EInc=16.52609 cartesianDistance=8.42831 angle=0.000 pulseDistance=0.51000 => originalEInc=16.52610 adjustedEInc=8.26305 density=0.5
; 
; feature travel
PRIO_OFF
G0 X24.4947 Y1.22086 ; cartesianDistance=0.49652 (Travel)
; 
; feature fill
PRIO_ON
G1 X17.92085 Y4.2863 E1137.42496 ; EInc=14.22243 cartesianDistance=7.25344 angle=0.000 pulseDistance=0.51000 => originalEInc=14.22243 adjustedEInc=7.11122 density=0.5
; 
; feature travel
PRIO_OFF
G0 X18.98564 Y4.2863 ; cartesianDistance=1.06479 (Travel)
; 
; feature fill
PRIO_ON
G1 X24.49470 Y1.7174 E1143.38434 ; EInc=11.91877 cartesianDistance=6.07857 angle=0.000 pulseDistance=0.51000 => originalEInc=11.91877 adjustedEInc=5.95939 density=0.5
; 
; feature travel
PRIO_OFF
G0 X24.4947 Y2.2139 ; cartesianDistance=0.49652 (Travel)
; 
; feature fill
PRIO_ON
G1 X20.05043 Y4.2863 E1148.19190 ; EInc=9.61511 cartesianDistance=4.90371 angle=0.000 pulseDistance=0.51000 => originalEInc=9.61512 adjustedEInc=4.80756 density=0.5
; 
; feature travel
PRIO_OFF
G0 X21.11522 Y4.2863 ; cartesianDistance=1.06479 (Travel)
; 
; feature fill
PRIO_ON
G1 X24.49470 Y2.7104 E1151.84763 ; EInc=7.31145 cartesianDistance=3.72884 angle=0.000 pulseDistance=0.51000 => originalEInc=7.31145 adjustedEInc=3.65573 density=0.5
; 
; feature travel
PRIO_OFF
G0 X24.4947 Y3.20694 ; cartesianDistance=0.49652 (Travel)
; 
; feature fill
PRIO_ON
G1 X22.18001 Y4.2863 E1154.35153 ; EInc=5.00779 cartesianDistance=2.55398 angle=0.000 pulseDistance=0.51000 => originalEInc=5.00780 adjustedEInc=2.50390 density=0.5
; 
; feature travel
PRIO_OFF
G0 X23.2448 Y4.2863 ; cartesianDistance=1.06479 (Travel)
; 
; feature fill
PRIO_ON
G1 X24.49470 Y3.7035 E1155.70359 ; EInc=2.70413 cartesianDistance=1.37911 angle=0.000 pulseDistance=0.51000 => originalEInc=2.70413 adjustedEInc=1.35207 density=0.5
; 
; feature travel
PRIO_OFF
G0 X24.4947 Y4.19998 ; cartesianDistance=0.49652 (Travel)
; 
; feature fill
PRIO_ON
G1 X24.30959 Y4.2863 E1155.90383 ; EInc=0.40047 cartesianDistance=0.20424 angle=0.000 pulseDistance=0.51000 => originalEInc=0.40047 adjustedEInc=0.20024 density=0.5
; 
; feature travel
PRIO_OFF
G0 X3.29634 Y-4.2863 ; cartesianDistance=22.69463 (Travel)
; 
; feature fill
PRIO_ON
G1 X0.00000 Y-2.7492 E1159.46962 ; => originalEInc=7.13159 adjustedEInc=3.56579 density=0.5
G1 X-15.08766 Y4.2863 E1192.11156 ; EInc=39.77353 cartesianDistance=20.28450 angle=0.000 pulseDistance=0.51000
; 
; feature travel
PRIO_OFF
G0 X-16.15245 Y4.2863 ; cartesianDistance=1.06479 (Travel)
; 
; feature fill
PRIO_ON
G1 X0.00000 Y-3.2457 E1227.05717 
G1 X2.23155 Y-4.2863 E1229.47113 ; EInc=39.77353 cartesianDistance=20.28450 angle=0.000 pulseDistance=0.51000 => originalEInc=4.82793 adjustedEInc=2.41396 density=0.5
; 
; feature travel
PRIO_OFF
G0 X1.16676 Y-4.2863 ; cartesianDistance=1.06479 (Travel)
; 
; feature fill
PRIO_ON
G1 X0.00000 Y-3.7422 E1230.73327 ; => originalEInc=2.52427 adjustedEInc=1.26213 density=0.5
G1 X-17.21724 Y4.2863 E1267.98253 ; EInc=39.77353 cartesianDistance=20.28450 angle=0.000 pulseDistance=0.51000
; 
; feature travel
PRIO_OFF
G0 X-18.28203 Y4.2863 ; cartesianDistance=1.06479 (Travel)
; 
; feature fill
PRIO_ON
G1 X0.00000 Y-4.2388 E1307.53545 
G1 X0.10197 Y-4.2863 E1307.64575 ; EInc=39.77353 cartesianDistance=20.28450 angle=0.000 pulseDistance=0.51000 => originalEInc=0.22061 adjustedEInc=0.11031 density=0.5
; 
; feature travel
PRIO_OFF
G0 X-0.96283 Y-4.2863 ; cartesianDistance=1.06479 (Travel)
; 
; feature fill
PRIO_ON
G1 X-19.34683 Y4.2863 E1347.41928 ; EInc=39.77353 cartesianDistance=20.28450 angle=0.000 pulseDistance=0.51000
; 
; feature travel
PRIO_OFF
G0 X-20.41162 Y4.2863 ; cartesianDistance=1.06479 (Travel)
; 
; feature fill
PRIO_ON
G1 X-2.02762 Y-4.2863 E1387.19281 ; EInc=39.77353 cartesianDistance=20.28450 angle=0.000 pulseDistance=0.51000
; 
; feature travel
PRIO_OFF
G0 X-3.09241 Y-4.2863 ; cartesianDistance=1.06479 (Travel)
; 
; feature fill
PRIO_ON
G1 X-21.47641 Y4.2863 E1426.96634 ; EInc=39.77353 cartesianDistance=20.28450 angle=0.000 pulseDistance=0.51000
; 
; feature travel
PRIO_OFF
G0 X-22.5412 Y4.2863 ; cartesianDistance=1.06479 (Travel)
; 
; feature fill
PRIO_ON
G1 X-4.15720 Y-4.2863 E1466.73987 ; EInc=39.77353 cartesianDistance=20.28450 angle=0.000 pulseDistance=0.51000
; 
; feature travel
PRIO_OFF
G0 X-5.22199 Y-4.2863 ; cartesianDistance=1.06479 (Travel)
; 
; feature fill
PRIO_ON
G1 X-23.60599 Y4.2863 E1506.51339 ; EInc=39.77353 cartesianDistance=20.28450 angle=0.000 pulseDistance=0.51000
; 
; feature travel
PRIO_OFF
G0 X-24.4947 Y4.20419 ; cartesianDistance=0.89250 (Travel)
; 
; feature fill
PRIO_ON
G1 X-6.28678 Y-4.2863 E1545.90598 ; EInc=39.39258 cartesianDistance=20.09022 angle=0.000 pulseDistance=0.51000
; 
; feature travel
PRIO_OFF
G0 X-7.35157 Y-4.2863 ; cartesianDistance=1.06479 (Travel)
; 
; feature fill
PRIO_ON
G1 X-24.49470 Y3.7077 E1582.99490 ; EInc=37.08892 cartesianDistance=18.91535 angle=0.000 pulseDistance=0.51000
; 
; feature travel
PRIO_OFF
G0 X-24.4947 Y3.21115 ; cartesianDistance=0.49652 (Travel)
; 
; feature fill
PRIO_ON
G1 X-8.41636 Y-4.2863 E1617.78017 ; EInc=34.78526 cartesianDistance=17.74049 angle=0.000 pulseDistance=0.51000
; 
; feature travel
PRIO_OFF
G0 X-9.48115 Y-4.2863 ; cartesianDistance=1.06479 (Travel)
; 
; feature fill
PRIO_ON
G1 X-24.49470 Y2.7146 E1650.26177 ; EInc=32.48160 cartesianDistance=16.56562 angle=0.000 pulseDistance=0.51000
; 
; feature travel
PRIO_OFF
G0 X-24.4947 Y2.21811 ; cartesianDistance=0.49652 (Travel)
; 
; feature fill
PRIO_ON
G1 X-10.54594 Y-4.2863 E1680.43972 ; EInc=30.17794 cartesianDistance=15.39075 angle=0.000 pulseDistance=0.51000
; 
; feature travel
PRIO_OFF
G0 X-11.61073 Y-4.2863 ; cartesianDistance=1.06479 (Travel)
; 
; feature fill
PRIO_ON
G1 X-24.49470 Y1.7216 E1708.31400 ; EInc=27.87429 cartesianDistance=14.21589 angle=0.000 pulseDistance=0.51000
; 
; feature travel
PRIO_OFF
G0 X-24.4947 Y1.22507 ; cartesianDistance=0.49652 (Travel)
; 
; feature fill
PRIO_ON
G1 X-12.67552 Y-4.2863 E1733.88463 ; EInc=25.57063 cartesianDistance=13.04102 angle=0.000 pulseDistance=0.51000
; 
; feature travel
PRIO_OFF
G0 X-13.74031 Y-4.2863 ; cartesianDistance=1.06479 (Travel)
; 
; feature fill
PRIO_ON
G1 X-24.49470 Y0.7286 E1757.15159 ; EInc=23.26697 cartesianDistance=11.86615 angle=0.000 pulseDistance=0.51000
; 
; feature travel
PRIO_OFF
G0 X-24.4947 Y0.23203 ; cartesianDistance=0.49652 (Travel)
; 
; feature fill
PRIO_ON
G1 X-14.80510 Y-4.2863 E1778.11490 ; EInc=20.96331 cartesianDistance=10.69129 angle=0.000 pulseDistance=0.51000
; 
; feature travel
PRIO_OFF
G0 X-15.8699 Y-4.2863 ; cartesianDistance=1.06479 (Travel)
; 
; feature fill
PRIO_ON
G1 X-24.49470 Y-0.2645 E1796.77454 ; EInc=18.65965 cartesianDistance=9.51642 angle=0.000 pulseDistance=0.51000
; 
; feature travel
PRIO_OFF
G0 X-24.4947 Y-0.76101 ; cartesianDistance=0.49652 (Travel)
; 
; feature fill
PRIO_ON
G1 X-16.93469 Y-4.2863 E1813.13053 ; EInc=16.35599 cartesianDistance=8.34155 angle=0.000 pulseDistance=0.51000
; 
; feature travel
PRIO_OFF
G0 X-17.99948 Y-4.2863 ; cartesianDistance=1.06479 (Travel)
; 
; feature fill
PRIO_ON
G1 X-24.49470 Y-1.2575 E1827.18286 ; EInc=14.05233 cartesianDistance=7.16669 angle=0.000 pulseDistance=0.51000
; 
; feature travel
PRIO_OFF
G0 X-24.4947 Y-1.75405 ; cartesianDistance=0.49652 (Travel)
; 
; feature fill
PRIO_ON
G1 X-19.06427 Y-4.2863 E1838.93152 ; EInc=11.74867 cartesianDistance=5.99182 angle=0.000 pulseDistance=0.51000
; 
; feature travel
PRIO_OFF
G0 X-20.12906 Y-4.2863 ; cartesianDistance=1.06479 (Travel)
; 
; feature fill
PRIO_ON
G1 X-24.49470 Y-2.2506 E1848.37653 ; EInc=9.44501 cartesianDistance=4.81695 angle=0.000 pulseDistance=0.51000
; 
; feature travel
PRIO_OFF
G0 X-24.4947 Y-2.74709 ; cartesianDistance=0.49652 (Travel)
; 
; feature fill
PRIO_ON
G1 X-21.19385 Y-4.2863 E1855.51787 ; EInc=7.14135 cartesianDistance=3.64209 angle=0.000 pulseDistance=0.51000
; 
; feature travel
PRIO_OFF
G0 X-22.25864 Y-4.2863 ; cartesianDistance=1.06479 (Travel)
; 
; feature fill
PRIO_ON
G1 X-24.49470 Y-3.2436 E1860.35556 ; EInc=4.83769 cartesianDistance=2.46722 angle=0.000 pulseDistance=0.51000
; 
; feature travel
PRIO_OFF
G0 X-24.4947 Y-3.74013 ; cartesianDistance=0.49652 (Travel)
; 
; feature fill
PRIO_ON
G1 X-23.32343 Y-4.2863 E1862.88958 ; EInc=2.53403 cartesianDistance=1.29235 angle=0.000 pulseDistance=0.51000
; 
; feature travel
PRIO_OFF
G0 X-24.38822 Y-4.2863 ; cartesianDistance=1.06479 (Travel)
; 
; feature fill
PRIO_ON
G1 X-24.49470 Y-4.2367 E1863.11995 ; EInc=0.23037 cartesianDistance=0.11749 angle=0.000 pulseDistance=0.51000
PRIO_OFF
LayersCompleted=4
M1
; 
;========================
; layer 4, Z = 1.2000
; 
; reset extrusion
STOPRE
PRESETON(E, 0)
DO PRIO_PULSE_DISTANCE=DROP_SCALE
DO PRIO_ON_PATH_OFFSET=0.5*PRIO_PULSE_DISTANCE
;outer: (25.2604,-5.0521) (25.2604,5.0521) (-25.2604,5.0521) (-25.2604,-5.0521) (19.8604,-5.0521) holes: !
;overhangs:!
; 
; feature plane change
G0 X-24.4947 Y-4.23665 Z1.2 ; cartesianDistance=0.00000 (Plane Change)
; 
; feature travel
G0 X3.92685 Y4.637 ; cartesianDistance=29.77459 (Travel)
; 
; feature outer perimeter
G1 F24000 FL[E] = OuterPerimeterFrequency * DROP_SCALE * 60
PRIO_ON
G1 X-24.84540 Y4.6370 E67.69941 ; EInc=67.69941 cartesianDistance=28.77225 angle=90.000 pulseDistance=0.42500
G1 X-24.84540 Y-4.6370 E89.52059 ; EInc=21.82118 cartesianDistance=9.27400 angle=90.000 pulseDistance=0.42500
G1 X24.84540 Y-4.6370 E206.44012 ; EInc=116.91953 cartesianDistance=49.69080 angle=90.000 pulseDistance=0.42500
G1 X24.84540 Y4.6370 E228.26129 ; EInc=21.82118 cartesianDistance=9.27400 angle=90.000 pulseDistance=0.42500
G1 X3.92685 Y4.6370 E277.48141 ; EInc=49.22012 cartesianDistance=20.91855 angle=180.000 pulseDistance=0.42500
; 
; feature travel
PRIO_OFF
G0 X3.92685 Y4.286 ; cartesianDistance=0.35100 (Travel)
; 
; feature inner perimeter
G1 F24000 FL[E] = InnerPerimeterFrequency * DROP_SCALE * 60
PRIO_ON
G1 X24.49440 Y4.2860 E315.56947 ; EInc=38.08806 cartesianDistance=20.56755 angle=90.000 pulseDistance=0.54000
G1 X24.49440 Y-4.2860 E331.44354 ; EInc=15.87407 cartesianDistance=8.57200 angle=90.000 pulseDistance=0.54000
G1 X-24.49440 Y-4.2860 E422.16354 ; EInc=90.72000 cartesianDistance=48.98880 angle=90.000 pulseDistance=0.54000
G1 X-24.49440 Y4.2860 E438.03762 ; EInc=15.87407 cartesianDistance=8.57200 angle=90.000 pulseDistance=0.54000
G1 X3.92685 Y4.2860 E490.66956 ; EInc=52.63194 cartesianDistance=28.42125 angle=180.000 pulseDistance=0.54000
; 
; feature travel
PRIO_OFF
G0 X4.49766 Y4.2863 ; cartesianDistance=0.57081 (Travel)
; 
; feature fill
G1 F24000 FL[E] = FillFrequency * DROP_SCALE * 60
PRIO_ON
G1 X0.00000 Y2.6493 E495.36202 ; => originalEInc=9.38492 adjustedEInc=4.69246 density=0.5
G1 X-19.05537 Y-4.2863 E535.12339 ; EInc=49.14629 cartesianDistance=25.06461 angle=0.000 pulseDistance=0.51000
; 
; feature travel
PRIO_OFF
G0 X-20.37108 Y-4.2863 ; cartesianDistance=1.31571 (Travel)
; 
; feature fill
PRIO_ON
G1 X0.00000 Y3.1282 E577.63014 
G1 X3.18195 Y4.2863 E580.94991 ; EInc=49.14629 cartesianDistance=25.06461 angle=0.000 pulseDistance=0.51000 => originalEInc=6.63953 adjustedEInc=3.31976 density=0.5
; 
; feature travel
PRIO_OFF
G0 X1.86623 Y4.2863 ; cartesianDistance=1.31571 (Travel)
; 
; feature fill
PRIO_ON
G1 X0.00000 Y3.6070 E582.89697 ; => originalEInc=3.89412 adjustedEInc=1.94706 density=0.5
G1 X-21.68679 Y-4.2863 E628.14914 ; EInc=49.14629 cartesianDistance=25.06461 angle=0.000 pulseDistance=0.51000
; 
; feature travel
PRIO_OFF
G0 X-23.0025 Y-4.2863 ; cartesianDistance=1.31571 (Travel)
; 
; feature fill
PRIO_ON
G1 X0.00000 Y4.0859 E676.14669 
G1 X0.55052 Y4.2863 E676.72105 ; EInc=49.14629 cartesianDistance=25.06461 angle=0.000 pulseDistance=0.51000 => originalEInc=1.14873 adjustedEInc=0.57436 density=0.5
; 
; feature travel
PRIO_OFF
G0 X-0.76519 Y4.2863 ; cartesianDistance=1.31571 (Travel)
; 
; feature fill
PRIO_ON
