;---BEGIN HEADER
; Generated by DropletSlicer
; Version: 3.4.4
; Date: Wednesday, May 29, 2024
; Time: 04:22:00 PM
G64 ;continuous path mode
G71 ;millimeters
G56 ;origin at center
OVR=100
OVRRAP=20
DO PRIO_ON_PATH_OFFSET=0.5*PRIO_PULSE_DISTANCE
RECOMMENDED_RECIPE="4008 Aluminum Wire"
CheckRecommendedRecipe
BUILDPROCESSORINTERFACEVERSION=1177
CheckBPVersion
OuterPerimeterFrequency=300
InnerPerimeterFrequency=400
ThinFeatureFrequency=300
UnsupportedStepoutFrequency=300
SupportedStepoutFrequency=300
FillFrequency=400
SupportWallFrequency=100
SupportPillarFrequency=100
;BUILDPROCESSORINTERFACEVERSION=1177
PART_MASS_CONSUMPTION=0
SUPPORT_MASS_CONSUMPTION=0
G0 X0 Y0 ;reset z
MSG("Print Started")
;---END HEADER
;---BEGIN PRINT STATISTICS
;TOTAL WIRE FEED ESTIMATE:
;    Total Drops: 97,460.43
;      Total Mass: 14.13 g
;    Part Drops: 97,460.43
;      Part Mass: 14.13 g
;    Support Drops: 0.00
;      Support Mass: 0.00 g
;    Part Density: 100.0%
;---END PRINT STATISTICS
;XY Extents: [-24.845 -4.637] [24.845 4.637]
;NaiveEstimatedPrintTime=484.25931344209994
;SupportedStepoutFrequency=300
EstimatedPrintTime=453.9104919433594
;ZCount = 1
;ExtraChevronOffset = 10
NumberOfLayers=42
LayersCompleted=0
;Mass values below are in kilograms
TOTAL_MASS=0.014131762
PART_MASS=0.014131762
SUPPORT_MASS=0.000000000
CheckMass
DO PRIO_PULSE_DISTANCE=DROP_SCALE
DO PRIO_ON_PATH_OFFSET=0.5*PRIO_PULSE_DISTANCE
PARAM_SETUP
;ChunkSize=5
; 
;========================
; layer 0, Z = 0.2400
; 
; reset extrusion
STOPRE
PRESETON(E, 0)
DO PRIO_PULSE_DISTANCE=DROP_SCALE
DO PRIO_ON_PATH_OFFSET=0.5*PRIO_PULSE_DISTANCE
FEATURE_TYPE=0
;outer: (25.2604,-5.0521) (25.2604,5.0521) (-25.2604,5.0521) (-25.2604,-5.0521) (24.6604,-5.0521) holes: !
;overhangs:!
; 
; feature plane change
G0 X0 Y0 Z0.24 ;Plane Change
; 
; feature travel
G0 X17.63483 Y-4.637 ;Travel
; 
; feature outer perimeter
G1 F24000 FL[E] = OuterPerimeterFrequency * DROP_SCALE * 60
DO PRIO_PULSE_DISTANCE=DROP_SCALE
DO PRIO_ON_PATH_OFFSET=0.5*PRIO_PULSE_DISTANCE
PRIO_ON
G1 X24.8454 Y-4.6370 E16.96604 
G1 X24.8454 Y4.6370 E38.78721 
G1 X-24.8454 Y4.6370 E155.70674 
G1 X-24.8454 Y-4.6370 E177.52792 
G1 X17.6348 Y-4.6370 E277.48141 
; 
; feature travel
PRIO_OFF
G0 X17.63483 Y-4.286 ;Travel
; 
; feature inner perimeter
G1 F24000 FL[E] = InnerPerimeterFrequency * DROP_SCALE * 60
PRIO_ON
G1 X-24.4944 Y-4.2860 E355.49851 
G1 X-24.4944 Y4.2860 E371.37259 
G1 X24.4944 Y4.2860 E462.09259 
G1 X24.4944 Y-4.2860 E477.96666 
G1 X17.6348 Y-4.2860 E490.66956 
; 
; feature travel
PRIO_OFF
G0 X17.86945 Y-4.2863 ;Travel
; 
; feature fill
G1 F24000 FL[E] = FillFrequency * DROP_SCALE * 60
PRIO_ON
G1 X24.4947 Y-1.8749 E504.49397 
; 
; feature travel
PRIO_OFF
G0 X24.4947 Y-1.39602 ;Travel
; 
; feature fill
PRIO_ON
G1 X16.5537 Y-4.2863 E521.06377 
; 
; feature travel
PRIO_OFF
G0 X15.23802 Y-4.2863 ;Travel
; 
; feature fill
PRIO_ON
G1 X24.4947 Y-0.9171 E540.37897 
; 
; feature travel
PRIO_OFF
G0 X24.4947 Y-0.43826 ;Travel
; 
; feature fill
PRIO_ON
G1 X13.9223 Y-4.2863 E562.43957 
; 
; feature travel
PRIO_OFF
G0 X12.6066 Y-4.2863 ;Travel
; 
; feature fill
PRIO_ON
G1 X24.4947 Y0.0406 E587.24556 
; 
; feature travel
PRIO_OFF
G0 X24.4947 Y0.5195 ;Travel
; 
; feature fill
PRIO_ON
G1 X11.2909 Y-4.2863 E614.79694 
; 
; feature travel
PRIO_OFF
G0 X9.97517 Y-4.2863 ;Travel
; 
; feature fill
PRIO_ON
G1 X24.4947 Y0.9984 E645.09372 
; 
; feature travel
PRIO_OFF
G0 X24.4947 Y1.47726 ;Travel
; 
; feature fill
PRIO_ON
G1 X8.6595 Y-4.2863 E678.13590 
; 
; feature travel
PRIO_OFF
G0 X7.34375 Y-4.2863 ;Travel
; 
; feature fill
PRIO_ON
G1 X24.4947 Y1.9561 E713.92346 
; 
; feature travel
PRIO_OFF
G0 X24.4947 Y2.43502 ;Travel
; 
; feature fill
PRIO_ON
G1 X6.0280 Y-4.2863 E752.45643 
; 
; feature travel
PRIO_OFF
G0 X4.71233 Y-4.2863 ;Travel
; 
; feature fill
PRIO_ON
G1 X24.4947 Y2.9139 E793.73479 
; 
; feature travel
PRIO_OFF
G0 X24.4947 Y3.39278 ;Travel
; 
; feature fill
PRIO_ON
G1 X3.3966 Y-4.2863 E837.75854 
; 
; feature travel
PRIO_OFF
G0 X2.0809 Y-4.2863 ;Travel
; 
; feature fill
PRIO_ON
G1 X24.4947 Y3.8717 E884.52769 
; 
; feature travel
PRIO_OFF
G0 X24.31821 Y4.2863 ;Travel
; 
; feature fill
PRIO_ON
G1 X0.7652 Y-4.2863 E933.67398 
; 
; feature travel
PRIO_OFF
G0 X-0.55052 Y-4.2863 ;Travel
; 
; feature fill
PRIO_ON
G1 X0.0000 Y-4.0859 E934.82271 
G1 X23.0025 Y4.2863 E958.82148 ; => originalEInc=47.99755 adjustedEInc=23.99878 density=0.5
; 
; feature travel
PRIO_OFF
G0 X21.68679 Y4.2863 ;Travel
; 
; feature fill
PRIO_ON
G1 X0.0000 Y-3.6070 E981.44757 ; => originalEInc=45.25217 adjustedEInc=22.62609 density=0.5
G1 X-1.8662 Y-4.2863 E985.34169 
; 
; feature travel
PRIO_OFF
G0 X-3.18195 Y-4.2863 ;Travel
; 
; feature fill
PRIO_ON
G1 X0.0000 Y-3.1282 E991.98122 
G1 X20.3711 Y4.2863 E1013.23459 ; => originalEInc=42.50675 adjustedEInc=21.25338 density=0.5
; 
; feature travel
PRIO_OFF
G0 X19.05537 Y4.2863 ;Travel
; 
; feature fill
PRIO_ON
G1 X0.0000 Y-2.6493 E1033.11528 ; => originalEInc=39.76137 adjustedEInc=19.88068 density=0.5
G1 X-4.4977 Y-4.2863 E1042.50020 
; 
; feature travel
PRIO_OFF
G0 X-5.81337 Y-4.2863 ;Travel
; 
; feature fill
PRIO_ON
G1 X0.0000 Y-2.1704 E1054.63051 
G1 X17.7397 Y4.2863 E1073.13849 ; => originalEInc=37.01597 adjustedEInc=18.50798 density=0.5
; 
; feature travel
PRIO_OFF
G0 X16.42394 Y4.2863 ;Travel
; 
; feature fill
PRIO_ON
G1 X0.0000 Y-1.6915 E1090.27379 ; => originalEInc=34.27058 adjustedEInc=17.13529 density=0.5
G1 X-7.1291 Y-4.2863 E1105.14949 
; 
; feature travel
PRIO_OFF
G0 X-8.44479 Y-4.2863 ;Travel
; 
; feature fill
PRIO_ON
G1 X0.0000 Y-1.2126 E1122.77059 
G1 X15.1082 Y4.2863 E1138.53319 ; => originalEInc=31.52519 adjustedEInc=15.76260 density=0.5
; 
; feature travel
PRIO_OFF
G0 X13.79252 Y4.2863 ;Travel
; 
; feature fill
PRIO_ON
G1 X0.0000 Y-0.7338 E1152.92308 ; => originalEInc=28.77978 adjustedEInc=14.38989 density=0.5
G1 X-9.7605 Y-4.2863 E1173.28958 
; 
; feature travel
PRIO_OFF
G0 X-11.07622 Y-4.2863 ;Travel
; 
; feature fill
PRIO_ON
G1 X-0.0000 Y-0.2549 E1196.40147 
G1 X12.4768 Y4.2863 E1209.41867 ; => originalEInc=26.03440 adjustedEInc=13.01720 density=0.5
; 
; feature travel
PRIO_OFF
G0 X11.16109 Y4.2863 ;Travel
; 
; feature fill
PRIO_ON
G1 X0.0000 Y0.2240 E1221.06316 ; => originalEInc=23.28899 adjustedEInc=11.64450 density=0.5
G1 X-12.3919 Y-4.2863 E1246.92045 
; 
; feature travel
PRIO_OFF
G0 X-13.70764 Y-4.2863 ;Travel
; 
; feature fill
PRIO_ON
G1 X0.0000 Y0.7029 E1275.52314 
G1 X9.8454 Y4.2863 E1285.79494 ; => originalEInc=20.54360 adjustedEInc=10.27180 density=0.5
; 
; feature travel
PRIO_OFF
G0 X8.52967 Y4.2863 ;Travel
; 
; feature fill
PRIO_ON
G1 X0.0000 Y1.1818 E1294.69405 ; => originalEInc=17.79821 adjustedEInc=8.89910 density=0.5
G1 X-15.0234 Y-4.2863 E1326.04212 
; 
; feature travel
PRIO_OFF
G0 X-16.33907 Y-4.2863 ;Travel
; 
; feature fill
PRIO_ON
G1 X0.0000 Y1.6606 E1360.13559 
G1 X7.2140 Y4.2863 E1367.66200 ; => originalEInc=15.05281 adjustedEInc=7.52641 density=0.5
; 
; feature travel
PRIO_OFF
G0 X5.89825 Y4.2863 ;Travel
; 
; feature fill
PRIO_ON
G1 X0.0000 Y2.1395 E1373.81571 ; => originalEInc=12.30742 adjustedEInc=6.15371 density=0.5
G1 X-17.6548 Y-4.2863 E1410.65457 
; 
; feature travel
PRIO_OFF
G0 X-18.97049 Y-4.2863 ;Travel
; 
; feature fill
PRIO_ON
G1 X-0.0000 Y2.6184 E1450.23885 
G1 X4.5825 Y4.2863 E1455.01985 ; => originalEInc=9.56202 adjustedEInc=4.78101 density=0.5
; 
; feature travel
PRIO_OFF
G0 X3.26682 Y4.2863 ;Travel
; 
; feature fill
PRIO_ON
G1 X0.0000 Y3.0973 E1458.42817 ; => originalEInc=6.81662 adjustedEInc=3.40831 density=0.5
G1 X-20.2862 Y-4.2863 E1500.75783 
; 
; feature travel
PRIO_OFF
G0 X-21.60191 Y-4.2863 ;Travel
; 
; feature fill
PRIO_ON
G1 X0.0000 Y3.5762 E1545.83288 
G1 X1.9511 Y4.2863 E1547.86850 ; => originalEInc=4.07123 adjustedEInc=2.03562 density=0.5
; 
; feature travel
PRIO_OFF
G0 X0.6354 Y4.2863 ;Travel
; 
; feature fill
PRIO_ON
G1 X0.0000 Y4.0550 E1548.53142 ; => originalEInc=1.32584 adjustedEInc=0.66292 density=0.5
G1 X-22.9176 Y-4.2863 E1596.35187 
; 
; feature travel
PRIO_OFF
G0 X-24.23334 Y-4.2863 ;Travel
; 
; feature fill
PRIO_ON
G1 X-0.6803 Y4.2863 E1645.49815 
; 
; feature travel
PRIO_OFF
G0 X-1.99603 Y4.2863 ;Travel
; 
; feature fill
PRIO_ON
G1 X-24.4947 Y-3.9026 E1692.44441 
; 
; feature travel
PRIO_OFF
G0 X-24.4947 Y-3.42367 ;Travel
; 
; feature fill
PRIO_ON
G1 X-3.3117 Y4.2863 E1736.64527 
; 
; feature travel
PRIO_OFF
G0 X-4.62745 Y4.2863 ;Travel
; 
; feature fill
PRIO_ON
G1 X-24.4947 Y-2.9448 E1778.10073 
; 
; feature travel
PRIO_OFF
G0 X-24.4947 Y-2.46591 ;Travel
; 
; feature fill
PRIO_ON
G1 X-5.9432 Y4.2863 E1816.81080 
; 
; feature travel
PRIO_OFF
G0 X-7.25887 Y4.2863 ;Travel
; 
; feature fill
PRIO_ON
G1 X-24.4947 Y-1.9870 E1852.77547 
; 
; feature travel
PRIO_OFF
G0 X-24.4947 Y-1.50815 ;Travel
; 
; feature fill
PRIO_ON
G1 X-8.5746 Y4.2863 E1885.99475 
; 
; feature travel
PRIO_OFF
G0 X-9.8903 Y4.2863 ;Travel
; 
; feature fill
PRIO_ON
G1 X-24.4947 Y-1.0293 E1916.46864 
; 
; feature travel
PRIO_OFF
G0 X-24.4947 Y-0.55039 ;Travel
; 
; feature fill
PRIO_ON
G1 X-11.2060 Y4.2863 E1944.19713 
; 
; feature travel
PRIO_OFF
G0 X-12.52172 Y4.2863 ;Travel
; 
; feature fill
PRIO_ON
G1 X-24.4947 Y-0.0715 E1969.18022 
; 
; feature travel
PRIO_OFF
G0 X-24.4947 Y0.40737 ;Travel
; 
; feature fill
PRIO_ON
G1 X-13.8374 Y4.2863 E1991.41792 
; 
; feature travel
PRIO_OFF
G0 X-15.15314 Y4.2863 ;Travel
; 
; feature fill
PRIO_ON
G1 X-24.4947 Y0.8862 E2010.91022 
; 
; feature travel
PRIO_OFF
G0 X-24.4947 Y1.36513 ;Travel
; 
; feature fill
PRIO_ON
G1 X-16.4689 Y4.2863 E2027.65713 
; 
; feature travel
PRIO_OFF
G0 X-17.78457 Y4.2863 ;Travel
; 
; feature fill
PRIO_ON
G1 X-24.4947 Y1.8440 E2041.65865 
; 
; feature travel
PRIO_OFF
G0 X-24.4947 Y2.32289 ;Travel
; 
; feature fill
PRIO_ON
G1 X-19.1003 Y4.2863 E2052.91477 
; 
; feature travel
PRIO_OFF
G0 X-20.41599 Y4.2863 ;Travel
; 
; feature fill
PRIO_ON
G1 X-24.4947 Y2.8018 E2061.42549 
; 
; feature travel
PRIO_OFF
G0 X-24.4947 Y3.28065 ;Travel
; 
; feature fill
PRIO_ON
G1 X-21.7317 Y4.2863 E2067.19082 
; 
; feature travel
PRIO_OFF
G0 X-23.04742 Y4.2863 ;Travel
; 
; feature fill
PRIO_ON
G1 X-24.4947 Y3.7595 E2070.21076 
; 
; feature travel
PRIO_OFF
G0 X-24.4947 Y4.23841 ;Travel
; 
; feature fill
PRIO_ON
G1 X-24.3631 Y4.2863 E2070.48530 
; 
; feature travel
PRIO_OFF
G0 X19.18516 Y-4.2863 ;Travel
; 
; feature fill
PRIO_ON
G1 X24.4947 Y-2.3538 E2081.56431 
; 
; feature travel
PRIO_OFF
G0 X24.4947 Y-2.83266 ;Travel
; 
; feature fill
PRIO_ON
G1 X20.5009 Y-4.2863 E2089.89793 
; 
; feature travel
PRIO_OFF
G0 X21.81658 Y-4.2863 ;Travel
; 
; feature fill
PRIO_ON
G1 X24.4947 Y-3.3115 E2095.48615 
; 
; feature travel
PRIO_OFF
G0 X24.4947 Y-3.79042 ;Travel
; 
; feature fill
PRIO_ON
G1 X23.1323 Y-4.2863 E2098.32898 
PRIO_OFF
LayersCompleted=1
M1
; 
;========================
; layer 1, Z = 0.4800
; 
; reset extrusion
STOPRE
PRESETON(E, 0)
DO PRIO_PULSE_DISTANCE=DROP_SCALE
DO PRIO_ON_PATH_OFFSET=0.5*PRIO_PULSE_DISTANCE
;outer: (25.2604,-5.0521) (25.2604,5.0521) (-25.2604,5.0521) (-25.2604,-5.0521) (23.4604,-5.0521) holes: !
;overhangs:!
; 
; feature plane change
G0 X23.13229 Y-4.2863 Z0.48 ;Plane Change
; 
; feature travel
G0 X20.77862 Y4.637 ;Travel
; 
; feature outer perimeter
G1 F24000 FL[E] = OuterPerimeterFrequency * DROP_SCALE * 60
PRIO_ON
G1 X24.8454 Y4.6370 E9.56890 
G1 X24.8454 Y-4.6370 E31.39008 
G1 X-24.8454 Y-4.6370 E148.30961 
G1 X-24.8454 Y4.6370 E170.13078 
G1 X20.7786 Y4.6370 E277.48141 
; 
; feature travel
PRIO_OFF
G0 X20.77862 Y4.286 ;Travel
; 
; feature inner perimeter
G1 F24000 FL[E] = InnerPerimeterFrequency * DROP_SCALE * 60
PRIO_ON
G1 X-24.4944 Y4.2860 E361.32033 
G1 X-24.4944 Y-4.2860 E377.19441 
G1 X24.4944 Y-4.2860 E467.91441 
G1 X24.4944 Y4.2860 E483.78848 
G1 X20.7786 Y4.2860 E490.66956 
; 
; feature travel
PRIO_OFF
G0 X20.73828 Y4.2863 ;Travel
; 
; feature fill
G1 F24000 FL[E] = FillFrequency * DROP_SCALE * 60
PRIO_ON
G1 X16.7408 Y-4.2863 E509.21626 
; 
; feature travel
PRIO_OFF
G0 X17.23733 Y-4.2863 ;Travel
; 
; feature fill
PRIO_ON
G1 X21.2348 Y4.2863 E527.76296 
; 
; feature travel
PRIO_OFF
G0 X21.73132 Y4.2863 ;Travel
; 
; feature fill
PRIO_ON
G1 X17.7339 Y-4.2863 E546.30966 
; 
; feature travel
PRIO_OFF
G0 X18.23037 Y-4.2863 ;Travel
; 
; feature fill
PRIO_ON
G1 X22.2278 Y4.2863 E564.85636 
; 
; feature travel
PRIO_OFF
G0 X22.72436 Y4.2863 ;Travel
; 
; feature fill
PRIO_ON
G1 X18.7269 Y-4.2863 E583.40307 
; 
; feature travel
PRIO_OFF
G0 X19.22341 Y-4.2863 ;Travel
; 
; feature fill
PRIO_ON
G1 X23.2209 Y4.2863 E601.94977 
; 
; feature travel
PRIO_OFF
G0 X23.7174 Y4.2863 ;Travel
; 
; feature fill
PRIO_ON
G1 X19.7199 Y-4.2863 E620.49647 
; 
; feature travel
PRIO_OFF
G0 X20.21645 Y-4.2863 ;Travel
; 
; feature fill
PRIO_ON
G1 X24.2139 Y4.2863 E639.04317 
; 
; feature travel
PRIO_OFF
G0 X24.4947 Y3.82365 ;Travel
; 
; feature fill
PRIO_ON
G1 X20.7130 Y-4.2863 E656.58893 
; 
; feature travel
PRIO_OFF
G0 X21.20949 Y-4.2863 ;Travel
; 
; feature fill
PRIO_ON
G1 X24.4947 Y2.7589 E671.83103 
; 
; feature travel
PRIO_OFF
G0 X24.4947 Y1.69407 ;Travel
; 
; feature fill
PRIO_ON
G1 X21.7060 Y-4.2863 E684.76947 
; 
; feature travel
PRIO_OFF
G0 X22.20253 Y-4.2863 ;Travel
; 
; feature fill
PRIO_ON
G1 X24.4947 Y0.6293 E695.40425 
; 
; feature travel
PRIO_OFF
G0 X24.4947 Y-0.43552 ;Travel
; 
; feature fill
PRIO_ON
G1 X22.6990 Y-4.2863 E703.73537 
; 
; feature travel
PRIO_OFF
G0 X23.19557 Y-4.2863 ;Travel
; 
; feature fill
PRIO_ON
G1 X24.4947 Y-1.5003 E709.76283 
; 
; feature travel
PRIO_OFF
G0 X24.4947 Y-2.5651 ;Travel
; 
; feature fill
PRIO_ON
G1 X23.6921 Y-4.2863 E713.48663 
; 
; feature travel
PRIO_OFF
G0 X24.18861 Y-4.2863 ;Travel
; 
; feature fill
PRIO_ON
G1 X24.4947 Y-3.6299 E714.90677 
; 
; feature travel
PRIO_OFF
G0 X16.24429 Y-4.2863 ;Travel
; 
; feature fill
PRIO_ON
G1 X20.2418 Y4.2863 E733.45347 
; 
; feature travel
PRIO_OFF
G0 X19.74524 Y4.2863 ;Travel
; 
; feature fill
PRIO_ON
G1 X15.7478 Y-4.2863 E752.00017 
; 
; feature travel
PRIO_OFF
G0 X15.25125 Y-4.2863 ;Travel
; 
; feature fill
PRIO_ON
G1 X19.2487 Y4.2863 E770.54687 
; 
; feature travel
PRIO_OFF
G0 X18.7522 Y4.2863 ;Travel
; 
; feature fill
PRIO_ON
G1 X14.7547 Y-4.2863 E789.09357 
; 
; feature travel
PRIO_OFF
G0 X14.25821 Y-4.2863 ;Travel
; 
; feature fill
PRIO_ON
G1 X18.2557 Y4.2863 E807.64027 
; 
; feature travel
PRIO_OFF
G0 X17.75916 Y4.2863 ;Travel
; 
; feature fill
PRIO_ON
G1 X13.7617 Y-4.2863 E826.18697 
; 
; feature travel
PRIO_OFF
G0 X13.26517 Y-4.2863 ;Travel
; 
; feature fill
PRIO_ON
G1 X17.2626 Y4.2863 E844.73367 
; 
; feature travel
PRIO_OFF
G0 X16.76612 Y4.2863 ;Travel
; 
; feature fill
PRIO_ON
G1 X12.7686 Y-4.2863 E863.28037 
; 
; feature travel
PRIO_OFF
G0 X12.27213 Y-4.2863 ;Travel
; 
; feature fill
PRIO_ON
G1 X16.2696 Y4.2863 E881.82707 
; 
; feature travel
PRIO_OFF
G0 X15.77308 Y4.2863 ;Travel
; 
; feature fill
PRIO_ON
G1 X11.7756 Y-4.2863 E900.37378 
; 
; feature travel
PRIO_OFF
G0 X11.27909 Y-4.2863 ;Travel
; 
; feature fill
PRIO_ON
G1 X15.2766 Y4.2863 E918.92048 
; 
; feature travel
PRIO_OFF
G0 X14.78004 Y4.2863 ;Travel
; 
; feature fill
PRIO_ON
G1 X10.7826 Y-4.2863 E937.46718 
; 
; feature travel
PRIO_OFF
G0 X10.28605 Y-4.2863 ;Travel
; 
; feature fill
PRIO_ON
G1 X14.2835 Y4.2863 E956.01388 
; 
; feature travel
PRIO_OFF
G0 X13.787 Y4.2863 ;Travel
; 
; feature fill
PRIO_ON
G1 X9.7895 Y-4.2863 E974.56058 
; 
; feature travel
PRIO_OFF
G0 X9.29301 Y-4.2863 ;Travel
; 
; feature fill
PRIO_ON
G1 X13.2905 Y4.2863 E993.10728 
; 
; feature travel
PRIO_OFF
G0 X12.79396 Y4.2863 ;Travel
; 
; feature fill
PRIO_ON
G1 X8.7965 Y-4.2863 E1011.65398 
; 
; feature travel
PRIO_OFF
G0 X8.29997 Y-4.2863 ;Travel
; 
; feature fill
PRIO_ON
G1 X12.2974 Y4.2863 E1030.20068 
; 
; feature travel
PRIO_OFF
G0 X11.80092 Y4.2863 ;Travel
; 
; feature fill
PRIO_ON
G1 X7.8034 Y-4.2863 E1048.74738 
; 
; feature travel
PRIO_OFF
G0 X7.30693 Y-4.2863 ;Travel
; 
; feature fill
PRIO_ON
G1 X11.3044 Y4.2863 E1067.29409 
; 
; feature travel
PRIO_OFF
G0 X10.80788 Y4.2863 ;Travel
; 
; feature fill
PRIO_ON
G1 X6.8104 Y-4.2863 E1085.84079 
; 
; feature travel
PRIO_OFF
G0 X6.31389 Y-4.2863 ;Travel
; 
; feature fill
PRIO_ON
G1 X10.3114 Y4.2863 E1104.38749 
; 
; feature travel
PRIO_OFF
G0 X9.81484 Y4.2863 ;Travel
; 
; feature fill
PRIO_ON
G1 X5.8174 Y-4.2863 E1122.93419 
; 
; feature travel
PRIO_OFF
G0 X5.32085 Y-4.2863 ;Travel
; 
; feature fill
PRIO_ON
G1 X9.3183 Y4.2863 E1141.48089 
; 
; feature travel
PRIO_OFF
G0 X8.8218 Y4.2863 ;Travel
; 
; feature fill
PRIO_ON
G1 X4.8243 Y-4.2863 E1160.02759 
; 
; feature travel
PRIO_OFF
G0 X4.32781 Y-4.2863 ;Travel
; 
; feature fill
PRIO_ON
G1 X8.3253 Y4.2863 E1178.57429 
; 
; feature travel
PRIO_OFF
G0 X7.82876 Y4.2863 ;Travel
; 
; feature fill
PRIO_ON
G1 X3.8313 Y-4.2863 E1197.12099 
; 
; feature travel
PRIO_OFF
G0 X3.33477 Y-4.2863 ;Travel
; 
; feature fill
PRIO_ON
G1 X7.3322 Y4.2863 E1215.66769 
; 
; feature travel
PRIO_OFF
G0 X6.83572 Y4.2863 ;Travel
; 
; feature fill
PRIO_ON
G1 X2.8382 Y-4.2863 E1234.21440 
; 
; feature travel
PRIO_OFF
G0 X2.34173 Y-4.2863 ;Travel
; 
; feature fill
PRIO_ON
G1 X6.3392 Y4.2863 E1252.76110 
; 
; feature travel
PRIO_OFF
G0 X5.84268 Y4.2863 ;Travel
; 
; feature fill
PRIO_ON
G1 X1.8452 Y-4.2863 E1271.30780 
; 
; feature travel
PRIO_OFF
G0 X1.34869 Y-4.2863 ;Travel
; 
; feature fill
PRIO_ON
G1 X5.3462 Y4.2863 E1289.85450 
; 
; feature travel
PRIO_OFF
G0 X4.84964 Y4.2863 ;Travel
; 
; feature fill
PRIO_ON
G1 X0.8522 Y-4.2863 E1308.40120 
; 
; feature travel
PRIO_OFF
G0 X0.35565 Y-4.2863 ;Travel
; 
; feature fill
PRIO_ON
G1 X4.3531 Y4.2863 E1326.94790 
; 
; feature travel
PRIO_OFF
G0 X3.8566 Y4.2863 ;Travel
; 
; feature fill
PRIO_ON
G1 X0.0000 Y-3.9842 E1335.89446 ; => originalEInc=17.89312 adjustedEInc=8.94656 density=0.5
G1 X-0.1409 Y-4.2863 E1336.54804 
; 
; feature travel
PRIO_OFF
G0 X-0.63739 Y-4.2863 ;Travel
; 
; feature fill
PRIO_ON
G1 X0.0000 Y-2.9194 E1339.50528 
G1 X3.3601 Y4.2863 E1347.30001 ; => originalEInc=15.58946 adjustedEInc=7.79473 density=0.5
; 
; feature travel
PRIO_OFF
G0 X2.86356 Y4.2863 ;Travel
; 
; feature fill
PRIO_ON
G1 X0.0000 Y-1.8546 E1353.94291 ; => originalEInc=13.28580 adjustedEInc=6.64290 density=0.5
G1 X-1.1339 Y-4.2863 E1359.20381 
; 
; feature travel
PRIO_OFF
G0 X-1.63043 Y-4.2863 ;Travel
; 
; feature fill
PRIO_ON
G1 X0.0000 Y-0.7898 E1366.76837 
G1 X2.3670 Y4.2863 E1372.25944 ; => originalEInc=10.98214 adjustedEInc=5.49107 density=0.5
; 
; feature travel
PRIO_OFF
G0 X1.87052 Y4.2863 ;Travel
; 
; feature fill
PRIO_ON
G1 X0.0000 Y0.2750 E1376.59868 ; => originalEInc=8.67849 adjustedEInc=4.33924 density=0.5
G1 X-2.1269 Y-4.2863 E1386.46691 
; 
; feature travel
PRIO_OFF
G0 X-2.62347 Y-4.2863 ;Travel
; 
; feature fill
PRIO_ON
G1 X0.0000 Y1.3397 E1398.63878 
G1 X1.3740 Y4.2863 E1401.82620 ; => originalEInc=6.37482 adjustedEInc=3.18741 density=0.5
; 
; feature travel
PRIO_OFF
G0 X0.87748 Y4.2863 ;Travel
; 
; feature fill
PRIO_ON
G1 X0.0000 Y2.4045 E1403.86178 ; => originalEInc=4.07116 adjustedEInc=2.03558 density=0.5
G1 X-3.1200 Y-4.2863 E1418.33731 
; 
; feature travel
PRIO_OFF
G0 X-3.61651 Y-4.2863 ;Travel
; 
; feature fill
PRIO_ON
G1 X0.0000 Y3.4693 E1435.11651 
G1 X0.3810 Y4.2863 E1436.00026 ; => originalEInc=1.76751 adjustedEInc=0.88375 density=0.5
; 
; feature travel
PRIO_OFF
G0 X-0.11556 Y4.2863 ;Travel
; 
; feature fill
PRIO_ON
G1 X-4.1130 Y-4.2863 E1454.54696 
; 
; feature travel
PRIO_OFF
G0 X-4.60955 Y-4.2863 ;Travel
; 
; feature fill
PRIO_ON
G1 X-0.6121 Y4.2863 E1473.09366 
; 
; feature travel
PRIO_OFF
G0 X-1.10861 Y4.2863 ;Travel
; 
; feature fill
PRIO_ON
G1 X-5.1061 Y-4.2863 E1491.64036 
; 
; feature travel
PRIO_OFF
G0 X-5.60259 Y-4.2863 ;Travel
; 
; feature fill
PRIO_ON
G1 X-1.6051 Y4.2863 E1510.18706 
; 
; feature travel
PRIO_OFF
G0 X-2.10165 Y4.2863 ;Travel
; 
; feature fill
PRIO_ON
G1 X-6.0991 Y-4.2863 E1528.73376 
; 
; feature travel
PRIO_OFF
G0 X-6.59563 Y-4.2863 ;Travel
; 
; feature fill
PRIO_ON
G1 X-2.5982 Y4.2863 E1547.28047 
; 
; feature travel
PRIO_OFF
G0 X-3.09469 Y4.2863 ;Travel
; 
; feature fill
PRIO_ON
G1 X-7.0922 Y-4.2863 E1565.82717 
; 
; feature travel
PRIO_OFF
G0 X-7.58867 Y-4.2863 ;Travel
; 
; feature fill
PRIO_ON
G1 X-3.5912 Y4.2863 E1584.37387 
; 
; feature travel
PRIO_OFF
G0 X-4.08773 Y4.2863 ;Travel
; 
; feature fill
PRIO_ON
G1 X-8.0852 Y-4.2863 E1602.92057 
; 
; feature travel
PRIO_OFF
G0 X-8.58171 Y-4.2863 ;Travel
; 
; feature fill
PRIO_ON
G1 X-4.5842 Y4.2863 E1621.46727 
; 
; feature travel
PRIO_OFF
G0 X-5.08077 Y4.2863 ;Travel
; 
; feature fill
PRIO_ON
G1 X-9.0782 Y-4.2863 E1640.01397 
; 
; feature travel
PRIO_OFF
G0 X-9.57475 Y-4.2863 ;Travel
; 
; feature fill
PRIO_ON
G1 X-5.5773 Y4.2863 E1658.56067 
; 
; feature travel
PRIO_OFF
G0 X-6.07381 Y4.2863 ;Travel
; 
; feature fill
PRIO_ON
G1 X-10.0713 Y-4.2863 E1677.10737 
; 
; feature travel
PRIO_OFF
G0 X-10.56779 Y-4.2863 ;Travel
; 
; feature fill
PRIO_ON
G1 X-6.5703 Y4.2863 E1695.65407 
; 
; feature travel
PRIO_OFF
G0 X-7.06685 Y4.2863 ;Travel
; 
; feature fill
PRIO_ON
G1 X-11.0643 Y-4.2863 E1714.20078 
; 
; feature travel
PRIO_OFF
G0 X-11.56083 Y-4.2863 ;Travel
; 
; feature fill
PRIO_ON
G1 X-7.5634 Y4.2863 E1732.74748 
; 
; feature travel
PRIO_OFF
G0 X-8.05989 Y4.2863 ;Travel
; 
; feature fill
PRIO_ON
G1 X-12.0573 Y-4.2863 E1751.29418 
; 
; feature travel
PRIO_OFF
G0 X-12.55387 Y-4.2863 ;Travel
; 
; feature fill
PRIO_ON
G1 X-8.5564 Y4.2863 E1769.84088 
; 
; feature travel
PRIO_OFF
G0 X-9.05293 Y4.2863 ;Travel
; 
; feature fill
PRIO_ON
G1 X-13.0504 Y-4.2863 E1788.38758 
; 
; feature travel
PRIO_OFF
G0 X-13.54692 Y-4.2863 ;Travel
; 
; feature fill
PRIO_ON
G1 X-9.5495 Y4.2863 E1806.93428 
; 
; feature travel
PRIO_OFF
G0 X-10.04597 Y4.2863 ;Travel
; 
; feature fill
PRIO_ON
G1 X-14.0434 Y-4.2863 E1825.48098 
; 
; feature travel
PRIO_OFF
G0 X-14.53996 Y-4.2863 ;Travel
; 
; feature fill
PRIO_ON
G1 X-10.5425 Y4.2863 E1844.02768 
; 
; feature travel
PRIO_OFF
G0 X-11.03901 Y4.2863 ;Travel
; 
; feature fill
PRIO_ON
G1 X-15.0365 Y-4.2863 E1862.57438 
; 
; feature travel
PRIO_OFF
G0 X-15.533 Y-4.2863 ;Travel
; 
; feature fill
PRIO_ON
G1 X-11.5355 Y4.2863 E1881.12109 
; 
; feature travel
PRIO_OFF
G0 X-12.03205 Y4.2863 ;Travel
; 
; feature fill
PRIO_ON
G1 X-16.0295 Y-4.2863 E1899.66779 
; 
; feature travel
PRIO_OFF
G0 X-16.52604 Y-4.2863 ;Travel
; 
; feature fill
PRIO_ON
G1 X-12.5286 Y4.2863 E1918.21449 
; 
; feature travel
PRIO_OFF
G0 X-13.02509 Y4.2863 ;Travel
; 
; feature fill
PRIO_ON
G1 X-17.0226 Y-4.2863 E1936.76119 
; 
; feature travel
PRIO_OFF
G0 X-17.51908 Y-4.2863 ;Travel
; 
; feature fill
PRIO_ON
G1 X-13.5216 Y4.2863 E1955.30789 
; 
; feature travel
PRIO_OFF
G0 X-14.01813 Y4.2863 ;Travel
; 
; feature fill
PRIO_ON
G1 X-18.0156 Y-4.2863 E1973.85459 
; 
; feature travel
PRIO_OFF
G0 X-18.51212 Y-4.2863 ;Travel
; 
; feature fill
PRIO_ON
G1 X-14.5146 Y4.2863 E1992.40129 
; 
; feature travel
PRIO_OFF
G0 X-15.01117 Y4.2863 ;Travel
; 
; feature fill
PRIO_ON
G1 X-19.0086 Y-4.2863 E2010.94799 
; 
; feature travel
PRIO_OFF
G0 X-19.50516 Y-4.2863 ;Travel
; 
; feature fill
PRIO_ON
G1 X-15.5077 Y4.2863 E2029.49469 
; 
; feature travel
PRIO_OFF
G0 X-16.00421 Y4.2863 ;Travel
; 
; feature fill
PRIO_ON
G1 X-20.0017 Y-4.2863 E2048.04139 
; 
; feature travel
PRIO_OFF
G0 X-20.4982 Y-4.2863 ;Travel
; 
; feature fill
PRIO_ON
G1 X-16.5007 Y4.2863 E2066.58810 
; 
; feature travel
PRIO_OFF
G0 X-16.99725 Y4.2863 ;Travel
; 
; feature fill
PRIO_ON
G1 X-20.9947 Y-4.2863 E2085.13480 
; 
; feature travel
PRIO_OFF
G0 X-21.49124 Y-4.2863 ;Travel
; 
; feature fill
PRIO_ON
G1 X-17.4938 Y4.2863 E2103.68150 
; 
; feature travel
PRIO_OFF
G0 X-17.99029 Y4.2863 ;Travel
; 
; feature fill
PRIO_ON
G1 X-21.9878 Y-4.2863 E2122.22820 
; 
; feature travel
PRIO_OFF
G0 X-22.48428 Y-4.2863 ;Travel
; 
; feature fill
PRIO_ON
G1 X-18.4868 Y4.2863 E2140.77490 
; 
; feature travel
PRIO_OFF
G0 X-18.98333 Y4.2863 ;Travel
; 
; feature fill
PRIO_ON
G1 X-22.9808 Y-4.2863 E2159.32160 
; 
; feature travel
PRIO_OFF
G0 X-23.47732 Y-4.2863 ;Travel
; 
; feature fill
PRIO_ON
G1 X-19.4798 Y4.2863 E2177.86830 
; 
; feature travel
PRIO_OFF
G0 X-19.97637 Y4.2863 ;Travel
; 
; feature fill
PRIO_ON
G1 X-23.9738 Y-4.2863 E2196.41500 
; 
; feature travel
PRIO_OFF
G0 X-24.47036 Y-4.2863 ;Travel
; 
; feature fill
PRIO_ON
G1 X-20.4729 Y4.2863 E2214.96170 
; 
; feature travel
PRIO_OFF
G0 X-20.96941 Y4.2863 ;Travel
; 
; feature fill
PRIO_ON
G1 X-24.4947 Y-3.2737 E2231.31769 
; 
; feature travel
PRIO_OFF
G0 X-24.4947 Y-2.20892 ;Travel
; 
; feature fill
PRIO_ON
G1 X-21.4659 Y4.2863 E2245.37002 
; 
; feature travel
PRIO_OFF
G0 X-21.96245 Y4.2863 ;Travel
; 
; feature fill
PRIO_ON
G1 X-24.4947 Y-1.1441 E2257.11868 
; 
; feature travel
PRIO_OFF
G0 X-24.4947 Y-0.07934 ;Travel
; 
; feature fill
PRIO_ON
G1 X-22.4590 Y4.2863 E2266.56369 
; 
; feature travel
PRIO_OFF
G0 X-22.95549 Y4.2863 ;Travel
; 
; feature fill
PRIO_ON
G1 X-24.4947 Y0.9855 E2273.70503 
; 
; feature travel
PRIO_OFF
G0 X-24.4947 Y2.05024 ;Travel
; 
; feature fill
PRIO_ON
G1 X-23.4520 Y4.2863 E2278.54272 
; 
; feature travel
PRIO_OFF
G0 X-23.94853 Y4.2863 ;Travel
; 
; feature fill
PRIO_ON
G1 X-24.4947 Y3.1150 E2281.07674 
; 
; feature travel
PRIO_OFF
G0 X-24.4947 Y4.17982 ;Travel
; 
; feature fill
PRIO_ON
G1 X-24.4450 Y4.2863 E2281.30711 
PRIO_OFF
LayersCompleted=2
M1
; 
;========================
; layer 2, Z = 0.7200
; 
; reset extrusion
STOPRE
PRESETON(E, 0)
DO PRIO_PULSE_DISTANCE=DROP_SCALE
DO PRIO_ON_PATH_OFFSET=0.5*PRIO_PULSE_DISTANCE
;outer: (25.2604,-5.0521) (25.2604,5.0521) (-25.2604,5.0521) (-25.2604,-5.0521) (22.2604,-5.0521) holes: !
;overhangs:!
; 
; feature plane change
G0 X-24.44505 Y4.2863 Z0.72 ;Plane Change
; 
; feature travel
G0 X18.80579 Y-4.637 ;Travel
; 
; feature outer perimeter
G1 F24000 FL[E] = OuterPerimeterFrequency * DROP_SCALE * 60
PRIO_ON
G1 X24.8454 Y-4.6370 E14.21084 
G1 X24.8454 Y4.6370 E36.03202 
G1 X-24.8454 Y4.6370 E152.95155 
G1 X-24.8454 Y-4.6370 E174.77272 
G1 X18.8058 Y-4.6370 E277.48141 
; 
; feature travel
PRIO_OFF
G0 X18.80579 Y-4.286 ;Travel
; 
; feature inner perimeter
G1 F24000 FL[E] = InnerPerimeterFrequency * DROP_SCALE * 60
PRIO_ON
G1 X-24.4944 Y-4.2860 E357.66695 
G1 X-24.4944 Y4.2860 E373.54103 
G1 X24.4944 Y4.2860 E464.26103 
G1 X24.4944 Y-4.2860 E480.13510 
G1 X18.8058 Y-4.2860 E490.66956 
; 
; feature travel
PRIO_OFF
G0 X18.65239 Y-4.2863 ;Travel
; 
; feature fill
G1 F24000 FL[E] = FillFrequency * DROP_SCALE * 60
PRIO_ON
G1 X15.5322 Y4.2863 E508.55734 
; 
; feature travel
PRIO_OFF
G0 X16.0111 Y4.2863 ;Travel
; 
; feature fill
PRIO_ON
G1 X19.1313 Y-4.2863 E526.44513 
; 
; feature travel
PRIO_OFF
G0 X19.61015 Y-4.2863 ;Travel
; 
; feature fill
PRIO_ON
G1 X16.4900 Y4.2863 E544.33292 
; 
; feature travel
PRIO_OFF
G0 X16.96886 Y4.2863 ;Travel
; 
; feature fill
PRIO_ON
G1 X20.0890 Y-4.2863 E562.22070 
; 
; feature travel
PRIO_OFF
G0 X20.56791 Y-4.2863 ;Travel
; 
; feature fill
PRIO_ON
G1 X17.4477 Y4.2863 E580.10849 
; 
; feature travel
PRIO_OFF
G0 X17.92662 Y4.2863 ;Travel
; 
; feature fill
PRIO_ON
G1 X21.0468 Y-4.2863 E597.99627 
; 
; feature travel
PRIO_OFF
G0 X21.52567 Y-4.2863 ;Travel
; 
; feature fill
PRIO_ON
G1 X18.4055 Y4.2863 E615.88406 
; 
; feature travel
PRIO_OFF
G0 X18.88438 Y4.2863 ;Travel
; 
; feature fill
PRIO_ON
G1 X22.0045 Y-4.2863 E633.77184 
; 
; feature travel
PRIO_OFF
G0 X22.48343 Y-4.2863 ;Travel
; 
; feature fill
PRIO_ON
G1 X19.3633 Y4.2863 E651.65963 
; 
; feature travel
PRIO_OFF
G0 X19.84214 Y4.2863 ;Travel
; 
; feature fill
PRIO_ON
G1 X22.9623 Y-4.2863 E669.54741 
; 
; feature travel
PRIO_OFF
G0 X23.44119 Y-4.2863 ;Travel
; 
; feature fill
PRIO_ON
G1 X20.3210 Y4.2863 E687.43520 
; 
; feature travel
PRIO_OFF
G0 X20.7999 Y4.2863 ;Travel
; 
; feature fill
PRIO_ON
G1 X23.9201 Y-4.2863 E705.32298 
; 
; feature travel
PRIO_OFF
G0 X24.39895 Y-4.2863 ;Travel
; 
; feature fill
PRIO_ON
G1 X21.2788 Y4.2863 E723.21077 
; 
; feature travel
PRIO_OFF
G0 X21.75766 Y4.2863 ;Travel
; 
; feature fill
PRIO_ON
G1 X24.4947 Y-3.2337 E738.90210 
; 
; feature travel
PRIO_OFF
G0 X24.4947 Y-1.91795 ;Travel
; 
; feature fill
PRIO_ON
G1 X22.2365 Y4.2863 E751.84804 
; 
; feature travel
PRIO_OFF
G0 X22.71542 Y4.2863 ;Travel
; 
; feature fill
PRIO_ON
G1 X24.4947 Y-0.6022 E762.04858 
; 
; feature travel
PRIO_OFF
G0 X24.4947 Y0.71347 ;Travel
; 
; feature fill
PRIO_ON
G1 X23.1943 Y4.2863 E769.50373 
; 
; feature travel
PRIO_OFF
G0 X23.67318 Y4.2863 ;Travel
; 
; feature fill
PRIO_ON
G1 X24.4947 Y2.0292 E774.21348 
; 
; feature travel
PRIO_OFF
G0 X24.4947 Y3.34489 ;Travel
; 
; feature fill
PRIO_ON
G1 X24.1521 Y4.2863 E776.17784 
; 
; feature travel
PRIO_OFF
G0 X15.05334 Y4.2863 ;Travel
; 
; feature fill
PRIO_ON
G1 X18.1735 Y-4.2863 E794.06562 
; 
; feature travel
PRIO_OFF
G0 X17.69463 Y-4.2863 ;Travel
; 
; feature fill
PRIO_ON
G1 X14.5745 Y4.2863 E811.95341 
; 
; feature travel
PRIO_OFF
G0 X14.09558 Y4.2863 ;Travel
; 
; feature fill
PRIO_ON
G1 X17.2157 Y-4.2863 E829.84119 
; 
; feature travel
PRIO_OFF
G0 X16.73687 Y-4.2863 ;Travel
; 
; feature fill
PRIO_ON
G1 X13.6167 Y4.2863 E847.72898 
; 
; feature travel
PRIO_OFF
G0 X13.13782 Y4.2863 ;Travel
; 
; feature fill
PRIO_ON
G1 X16.2580 Y-4.2863 E865.61676 
; 
; feature travel
PRIO_OFF
G0 X15.77911 Y-4.2863 ;Travel
; 
; feature fill
PRIO_ON
G1 X12.6589 Y4.2863 E883.50455 
; 
; feature travel
PRIO_OFF
G0 X12.18006 Y4.2863 ;Travel
; 
; feature fill
PRIO_ON
G1 X15.3002 Y-4.2863 E901.39233 
; 
; feature travel
PRIO_OFF
G0 X14.82135 Y-4.2863 ;Travel
; 
; feature fill
PRIO_ON
G1 X11.7012 Y4.2863 E919.28012 
; 
; feature travel
PRIO_OFF
G0 X11.2223 Y4.2863 ;Travel
; 
; feature fill
PRIO_ON
G1 X14.3425 Y-4.2863 E937.16790 
; 
; feature travel
PRIO_OFF
G0 X13.86359 Y-4.2863 ;Travel
; 
; feature fill
PRIO_ON
G1 X10.7434 Y4.2863 E955.05569 
; 
; feature travel
PRIO_OFF
G0 X10.26454 Y4.2863 ;Travel
; 
; feature fill
PRIO_ON
G1 X13.3847 Y-4.2863 E972.94347 
; 
; feature travel
PRIO_OFF
G0 X12.90583 Y-4.2863 ;Travel
; 
; feature fill
PRIO_ON
G1 X9.7857 Y4.2863 E990.83126 
; 
; feature travel
PRIO_OFF
G0 X9.30678 Y4.2863 ;Travel
; 
; feature fill
PRIO_ON
G1 X12.4269 Y-4.2863 E1008.71904 
; 
; feature travel
PRIO_OFF
G0 X11.94807 Y-4.2863 ;Travel
; 
; feature fill
PRIO_ON
G1 X8.8279 Y4.2863 E1026.60683 
; 
; feature travel
PRIO_OFF
G0 X8.34902 Y4.2863 ;Travel
; 
; feature fill
PRIO_ON
G1 X11.4692 Y-4.2863 E1044.49461 
; 
; feature travel
PRIO_OFF
G0 X10.99031 Y-4.2863 ;Travel
; 
; feature fill
PRIO_ON
G1 X7.8701 Y4.2863 E1062.38240 
; 
; feature travel
PRIO_OFF
G0 X7.39126 Y4.2863 ;Travel
; 
; feature fill
PRIO_ON
G1 X10.5114 Y-4.2863 E1080.27018 
; 
; feature travel
PRIO_OFF
G0 X10.03255 Y-4.2863 ;Travel
; 
; feature fill
PRIO_ON
G1 X6.9124 Y4.2863 E1098.15797 
; 
; feature travel
PRIO_OFF
G0 X6.4335 Y4.2863 ;Travel
; 
; feature fill
PRIO_ON
G1 X9.5537 Y-4.2863 E1116.04575 
; 
; feature travel
PRIO_OFF
G0 X9.07479 Y-4.2863 ;Travel
; 
; feature fill
PRIO_ON
G1 X5.9546 Y4.2863 E1133.93354 
; 
; feature travel
PRIO_OFF
G0 X5.47574 Y4.2863 ;Travel
; 
; feature fill
PRIO_ON
G1 X8.5959 Y-4.2863 E1151.82132 
; 
; feature travel
PRIO_OFF
G0 X8.11703 Y-4.2863 ;Travel
; 
; feature fill
PRIO_ON
G1 X4.9969 Y4.2863 E1169.70911 
; 
; feature travel
PRIO_OFF
G0 X4.51798 Y4.2863 ;Travel
; 
; feature fill
PRIO_ON
G1 X7.6382 Y-4.2863 E1187.59689 
; 
; feature travel
PRIO_OFF
G0 X7.15927 Y-4.2863 ;Travel
; 
; feature fill
PRIO_ON
G1 X4.0391 Y4.2863 E1205.48468 
; 
; feature travel
PRIO_OFF
G0 X3.56022 Y4.2863 ;Travel
; 
; feature fill
PRIO_ON
G1 X6.6804 Y-4.2863 E1223.37246 
; 
; feature travel
PRIO_OFF
G0 X6.20151 Y-4.2863 ;Travel
; 
; feature fill
PRIO_ON
G1 X3.0813 Y4.2863 E1241.26025 
; 
; feature travel
PRIO_OFF
G0 X2.60246 Y4.2863 ;Travel
; 
; feature fill
PRIO_ON
G1 X5.7226 Y-4.2863 E1259.14803 
; 
; feature travel
PRIO_OFF
G0 X5.24375 Y-4.2863 ;Travel
; 
; feature fill
PRIO_ON
G1 X2.1236 Y4.2863 E1277.03582 
; 
; feature travel
PRIO_OFF
G0 X1.6447 Y4.2863 ;Travel
; 
; feature fill
PRIO_ON
G1 X4.7649 Y-4.2863 E1294.92360 
; 
; feature travel
PRIO_OFF
G0 X4.28599 Y-4.2863 ;Travel
; 
; feature fill
PRIO_ON
G1 X1.1658 Y4.2863 E1312.81139 
; 
; feature travel
PRIO_OFF
G0 X0.68694 Y4.2863 ;Travel
; 
; feature fill
PRIO_ON
G1 X3.8071 Y-4.2863 E1330.69917 
; 
; feature travel
PRIO_OFF
G0 X3.32823 Y-4.2863 ;Travel
; 
; feature fill
PRIO_ON
G1 X0.2081 Y4.2863 E1348.58696 
; 
; feature travel
PRIO_OFF
G0 X-0.27082 Y4.2863 ;Travel
; 
; feature fill
PRIO_ON
G1 X0.0000 Y3.5422 E1350.13956 
G1 X2.8493 Y-4.2863 E1358.30715 ; => originalEInc=16.33518 adjustedEInc=8.16759 density=0.5
; 
; feature travel
PRIO_OFF
G0 X2.37047 Y-4.2863 ;Travel
; 
; feature fill
PRIO_ON
G1 X-0.0000 Y2.2265 E1365.10205 ; => originalEInc=13.58979 adjustedEInc=6.79490 density=0.5
G1 X-0.7497 Y4.2863 E1369.40004 
; 
; feature travel
PRIO_OFF
G0 X-1.22858 Y4.2863 ;Travel
; 
; feature fill
PRIO_ON
G1 X0.0000 Y0.9108 E1376.44343 
G1 X1.8916 Y-4.2863 E1381.86563 ; => originalEInc=10.84439 adjustedEInc=5.42220 density=0.5
; 
; feature travel
PRIO_OFF
G0 X1.41271 Y-4.2863 ;Travel
; 
; feature fill
PRIO_ON
G1 X0.0000 Y-0.4049 E1385.91513 ; => originalEInc=8.09900 adjustedEInc=4.04950 density=0.5
G1 X-1.7075 Y4.2863 E1395.70392 
; 
; feature travel
PRIO_OFF
G0 X-2.18634 Y4.2863 ;Travel
; 
; feature fill
PRIO_ON
G1 X0.0000 Y-1.7206 E1408.23809 
G1 X0.9338 Y-4.2863 E1410.91489 ; => originalEInc=5.35360 adjustedEInc=2.67680 density=0.5
; 
; feature travel
PRIO_OFF
G0 X0.45495 Y-4.2863 ;Travel
; 
; feature fill
PRIO_ON
G1 X0.0000 Y-3.0363 E1412.21900 ; => originalEInc=2.60821 adjustedEInc=1.30410 density=0.5
G1 X-2.6652 Y4.2863 E1427.49858 
; 
; feature travel
PRIO_OFF
G0 X-3.1441 Y4.2863 ;Travel
; 
; feature fill
PRIO_ON
G1 X-0.0239 Y-4.2863 E1445.38636 
; 
; feature travel
PRIO_OFF
G0 X-0.50281 Y-4.2863 ;Travel
; 
; feature fill
PRIO_ON
G1 X-3.6230 Y4.2863 E1463.27415 
; 
; feature travel
PRIO_OFF
G0 X-4.10186 Y4.2863 ;Travel
; 
; feature fill
PRIO_ON
G1 X-0.9817 Y-4.2863 E1481.16193 
; 
; feature travel
PRIO_OFF
G0 X-1.46057 Y-4.2863 ;Travel
; 
; feature fill
PRIO_ON
G1 X-4.5807 Y4.2863 E1499.04972 
; 
; feature travel
PRIO_OFF
G0 X-5.05962 Y4.2863 ;Travel
; 
; feature fill
PRIO_ON
G1 X-1.9394 Y-4.2863 E1516.93750 
; 
; feature travel
PRIO_OFF
G0 X-2.41833 Y-4.2863 ;Travel
; 
; feature fill
PRIO_ON
G1 X-5.5385 Y4.2863 E1534.82529 
; 
; feature travel
PRIO_OFF
G0 X-6.01738 Y4.2863 ;Travel
; 
; feature fill
PRIO_ON
G1 X-2.8972 Y-4.2863 E1552.71307 
; 
; feature travel
PRIO_OFF
G0 X-3.37609 Y-4.2863 ;Travel
; 
; feature fill
PRIO_ON
G1 X-6.4963 Y4.2863 E1570.60086 
; 
; feature travel
PRIO_OFF
G0 X-6.97514 Y4.2863 ;Travel
; 
; feature fill
PRIO_ON
G1 X-3.8550 Y-4.2863 E1588.48864 
; 
; feature travel
PRIO_OFF
G0 X-4.33385 Y-4.2863 ;Travel
; 
; feature fill
PRIO_ON
G1 X-7.4540 Y4.2863 E1606.37643 
; 
; feature travel
PRIO_OFF
G0 X-7.9329 Y4.2863 ;Travel
; 
; feature fill
PRIO_ON
G1 X-4.8127 Y-4.2863 E1624.26421 
; 
; feature travel
PRIO_OFF
G0 X-5.29161 Y-4.2863 ;Travel
; 
; feature fill
PRIO_ON
G1 X-8.4118 Y4.2863 E1642.15200 
; 
; feature travel
PRIO_OFF
G0 X-8.89066 Y4.2863 ;Travel
; 
; feature fill
PRIO_ON
G1 X-5.7705 Y-4.2863 E1660.03979 
; 
; feature travel
PRIO_OFF
G0 X-6.24937 Y-4.2863 ;Travel
; 
; feature fill
PRIO_ON
G1 X-9.3695 Y4.2863 E1677.92757 
; 
; feature travel
PRIO_OFF
G0 X-9.84842 Y4.2863 ;Travel
; 
; feature fill
PRIO_ON
G1 X-6.7283 Y-4.2863 E1695.81536 
; 
; feature travel
PRIO_OFF
G0 X-7.20713 Y-4.2863 ;Travel
; 
; feature fill
PRIO_ON
G1 X-10.3273 Y4.2863 E1713.70314 
; 
; feature travel
PRIO_OFF
G0 X-10.80618 Y4.2863 ;Travel
; 
; feature fill
PRIO_ON
G1 X-7.6860 Y-4.2863 E1731.59093 
; 
; feature travel
PRIO_OFF
G0 X-8.16489 Y-4.2863 ;Travel
; 
; feature fill
PRIO_ON
G1 X-11.2851 Y4.2863 E1749.47871 
; 
; feature travel
PRIO_OFF
G0 X-11.76394 Y4.2863 ;Travel
; 
; feature fill
PRIO_ON
G1 X-8.6438 Y-4.2863 E1767.36650 
; 
; feature travel
PRIO_OFF
G0 X-9.12265 Y-4.2863 ;Travel
; 
; feature fill
PRIO_ON
G1 X-12.2428 Y4.2863 E1785.25428 
; 
; feature travel
PRIO_OFF
G0 X-12.7217 Y4.2863 ;Travel
; 
; feature fill
PRIO_ON
G1 X-9.6015 Y-4.2863 E1803.14207 
; 
; feature travel
PRIO_OFF
G0 X-10.08041 Y-4.2863 ;Travel
; 
; feature fill
PRIO_ON
G1 X-13.2006 Y4.2863 E1821.02985 
; 
; feature travel
PRIO_OFF
G0 X-13.67946 Y4.2863 ;Travel
; 
; feature fill
PRIO_ON
G1 X-10.5593 Y-4.2863 E1838.91764 
; 
; feature travel
PRIO_OFF
G0 X-11.03817 Y-4.2863 ;Travel
; 
; feature fill
PRIO_ON
G1 X-14.1583 Y4.2863 E1856.80542 
; 
; feature travel
PRIO_OFF
G0 X-14.63722 Y4.2863 ;Travel
; 
; feature fill
PRIO_ON
G1 X-11.5170 Y-4.2863 E1874.69321 
; 
; feature travel
PRIO_OFF
G0 X-11.99593 Y-4.2863 ;Travel
; 
; feature fill
PRIO_ON
G1 X-15.1161 Y4.2863 E1892.58099 
; 
; feature travel
PRIO_OFF
G0 X-15.59498 Y4.2863 ;Travel
; 
; feature fill
PRIO_ON
G1 X-12.4748 Y-4.2863 E1910.46878 
; 
; feature travel
PRIO_OFF
G0 X-12.95369 Y-4.2863 ;Travel
; 
; feature fill
PRIO_ON
G1 X-16.0739 Y4.2863 E1928.35656 
; 
; feature travel
PRIO_OFF
G0 X-16.55274 Y4.2863 ;Travel
; 
; feature fill
PRIO_ON
G1 X-13.4326 Y-4.2863 E1946.24435 
; 
; feature travel
PRIO_OFF
G0 X-13.91145 Y-4.2863 ;Travel
; 
; feature fill
PRIO_ON
G1 X-17.0316 Y4.2863 E1964.13213 
; 
; feature travel
PRIO_OFF
G0 X-17.5105 Y4.2863 ;Travel
; 
; feature fill
PRIO_ON
G1 X-14.3903 Y-4.2863 E1982.01992 
; 
; feature travel
PRIO_OFF
G0 X-14.86921 Y-4.2863 ;Travel
; 
; feature fill
PRIO_ON
G1 X-17.9894 Y4.2863 E1999.90770 
; 
; feature travel
PRIO_OFF
G0 X-18.46826 Y4.2863 ;Travel
; 
; feature fill
PRIO_ON
G1 X-15.3481 Y-4.2863 E2017.79549 
; 
; feature travel
PRIO_OFF
G0 X-15.82697 Y-4.2863 ;Travel
; 
; feature fill
PRIO_ON
G1 X-18.9471 Y4.2863 E2035.68327 
; 
; feature travel
PRIO_OFF
G0 X-19.42602 Y4.2863 ;Travel
; 
; feature fill
PRIO_ON
G1 X-16.3058 Y-4.2863 E2053.57106 
; 
; feature travel
PRIO_OFF
G0 X-16.78473 Y-4.2863 ;Travel
; 
; feature fill
PRIO_ON
G1 X-19.9049 Y4.2863 E2071.45884 
; 
; feature travel
PRIO_OFF
G0 X-20.38378 Y4.2863 ;Travel
; 
; feature fill
PRIO_ON
G1 X-17.2636 Y-4.2863 E2089.34663 
; 
; feature travel
PRIO_OFF
G0 X-17.74249 Y-4.2863 ;Travel
; 
; feature fill
PRIO_ON
G1 X-20.8627 Y4.2863 E2107.23441 
; 
; feature travel
PRIO_OFF
G0 X-21.34154 Y4.2863 ;Travel
; 
; feature fill
PRIO_ON
G1 X-18.2214 Y-4.2863 E2125.12220 
; 
; feature travel
PRIO_OFF
G0 X-18.70025 Y-4.2863 ;Travel
; 
; feature fill
PRIO_ON
G1 X-21.8204 Y4.2863 E2143.00998 
; 
; feature travel
PRIO_OFF
G0 X-22.2993 Y4.2863 ;Travel
; 
; feature fill
PRIO_ON
G1 X-19.1791 Y-4.2863 E2160.89777 
; 
; feature travel
PRIO_OFF
G0 X-19.65801 Y-4.2863 ;Travel
; 
; feature fill
PRIO_ON
G1 X-22.7782 Y4.2863 E2178.78555 
; 
; feature travel
PRIO_OFF
G0 X-23.25706 Y4.2863 ;Travel
; 
; feature fill
PRIO_ON
G1 X-20.1369 Y-4.2863 E2196.67334 
; 
; feature travel
PRIO_OFF
G0 X-20.61577 Y-4.2863 ;Travel
; 
; feature fill
PRIO_ON
G1 X-23.7359 Y4.2863 E2214.56112 
; 
; feature travel
PRIO_OFF
G0 X-24.21482 Y4.2863 ;Travel
; 
; feature fill
PRIO_ON
G1 X-21.0947 Y-4.2863 E2232.44891 
; 
; feature travel
PRIO_OFF
G0 X-21.57353 Y-4.2863 ;Travel
; 
; feature fill
PRIO_ON
G1 X-24.4947 Y3.7395 E2249.19582 
; 
; feature travel
PRIO_OFF
G0 X-24.4947 Y2.42383 ;Travel
; 
; feature fill
PRIO_ON
G1 X-22.0524 Y-4.2863 E2263.19733 
; 
; feature travel
PRIO_OFF
G0 X-22.53129 Y-4.2863 ;Travel
; 
; feature fill
PRIO_ON
G1 X-24.4947 Y1.1081 E2274.45345 
; 
; feature travel
PRIO_OFF
G0 X-24.4947 Y-0.20759 ;Travel
; 
; feature fill
PRIO_ON
G1 X-23.0102 Y-4.2863 E2282.96417 
; 
; feature travel
PRIO_OFF
G0 X-23.48905 Y-4.2863 ;Travel
; 
; feature fill
PRIO_ON
G1 X-24.4947 Y-1.5233 E2288.72950 
; 
; feature travel
PRIO_OFF
G0 X-24.4947 Y-2.83902 ;Travel
; 
; feature fill
PRIO_ON
G1 X-23.9679 Y-4.2863 E2291.74944 
; 
; feature travel
PRIO_OFF
G0 X-24.44681 Y-4.2863 ;Travel
; 
; feature fill
PRIO_ON
G1 X-24.4947 Y-4.1547 E2292.02398 
PRIO_OFF
LayersCompleted=3
M1
; 
;========================
; layer 3, Z = 0.9600
; 
; reset extrusion
STOPRE
PRESETON(E, 0)
DO PRIO_PULSE_DISTANCE=DROP_SCALE
DO PRIO_ON_PATH_OFFSET=0.5*PRIO_PULSE_DISTANCE
;outer: (25.2604,-5.0521) (25.2604,5.0521) (-25.2604,5.0521) (-25.2604,-5.0521) (21.0604,-5.0521) holes: !
;overhangs:!
; 
; feature plane change
G0 X-24.4947 Y-4.15473 Z0.96 ;Plane Change
; 
; feature travel
G0 X-23.94903 Y4.637 ;Travel
; 
; feature outer perimeter
G1 F24000 FL[E] = OuterPerimeterFrequency * DROP_SCALE * 60
PRIO_ON
G1 X24.8454 Y4.6370 E114.81043 
G1 X24.8454 Y-4.6370 E136.63161 
G1 X-24.8454 Y-4.6370 E253.55114 
G1 X-24.8454 Y4.6370 E275.37231 
G1 X-23.9490 Y4.6370 E277.48141 
; 
; feature travel
PRIO_OFF
G0 X-23.94903 Y4.286 ;Travel
; 
; feature inner perimeter
G1 F24000 FL[E] = InnerPerimeterFrequency * DROP_SCALE * 60
PRIO_ON
G1 X-24.4944 Y4.2860 E278.49135 
G1 X-24.4944 Y-4.2860 E294.36543 
G1 X24.4944 Y-4.2860 E385.08543 
G1 X24.4944 Y4.2860 E400.95950 
G1 X-23.9490 Y4.2860 E490.66956 
; 
; feature travel
PRIO_OFF
G0 X-23.60599 Y4.2863 ;Travel
; 
; feature fill
G1 F24000 FL[E] = FillFrequency * DROP_SCALE * 60
PRIO_ON
G1 X-5.2220 Y-4.2863 E530.44309 
; 
; feature travel
PRIO_OFF
G0 X-6.28678 Y-4.2863 ;Travel
; 
; feature fill
PRIO_ON
G1 X-24.4947 Y4.2042 E569.83567 
; 
; feature travel
PRIO_OFF
G0 X-24.4947 Y3.70767 ;Travel
; 
; feature fill
PRIO_ON
G1 X-7.3516 Y-4.2863 E606.92460 
; 
; feature travel
PRIO_OFF
G0 X-8.41636 Y-4.2863 ;Travel
; 
; feature fill
PRIO_ON
G1 X-24.4947 Y3.2111 E641.70986 
; 
; feature travel
PRIO_OFF
G0 X-24.4947 Y2.71463 ;Travel
; 
; feature fill
PRIO_ON
G1 X-9.4811 Y-4.2863 E674.19147 
; 
; feature travel
PRIO_OFF
G0 X-10.54594 Y-4.2863 ;Travel
; 
; feature fill
PRIO_ON
G1 X-24.4947 Y2.2181 E704.36941 
; 
; feature travel
PRIO_OFF
G0 X-24.4947 Y1.72159 ;Travel
; 
; feature fill
PRIO_ON
G1 X-11.6107 Y-4.2863 E732.24370 
; 
; feature travel
PRIO_OFF
G0 X-12.67552 Y-4.2863 ;Travel
; 
; feature fill
PRIO_ON
G1 X-24.4947 Y1.2251 E757.81432 
; 
; feature travel
PRIO_OFF
G0 X-24.4947 Y0.72855 ;Travel
; 
; feature fill
PRIO_ON
G1 X-13.7403 Y-4.2863 E781.08129 
; 
; feature travel
PRIO_OFF
G0 X-14.8051 Y-4.2863 ;Travel
; 
; feature fill
PRIO_ON
G1 X-24.4947 Y0.2320 E802.04459 
; 
; feature travel
PRIO_OFF
G0 X-24.4947 Y-0.26449 ;Travel
; 
; feature fill
PRIO_ON
G1 X-15.8699 Y-4.2863 E820.70424 
; 
; feature travel
PRIO_OFF
G0 X-16.93469 Y-4.2863 ;Travel
; 
; feature fill
PRIO_ON
G1 X-24.4947 Y-0.7610 E837.06022 
; 
; feature travel
PRIO_OFF
G0 X-24.4947 Y-1.25753 ;Travel
; 
; feature fill
PRIO_ON
G1 X-17.9995 Y-4.2863 E851.11255 
; 
; feature travel
PRIO_OFF
G0 X-19.06427 Y-4.2863 ;Travel
; 
; feature fill
PRIO_ON
G1 X-24.4947 Y-1.7541 E862.86122 
; 
; feature travel
PRIO_OFF
G0 X-24.4947 Y-2.25057 ;Travel
; 
; feature fill
PRIO_ON
G1 X-20.1291 Y-4.2863 E872.30622 
; 
; feature travel
PRIO_OFF
G0 X-21.19385 Y-4.2863 ;Travel
; 
; feature fill
PRIO_ON
G1 X-24.4947 Y-2.7471 E879.44757 
; 
; feature travel
PRIO_OFF
G0 X-24.4947 Y-3.24361 ;Travel
; 
; feature fill
PRIO_ON
G1 X-22.2586 Y-4.2863 E884.28525 
; 
; feature travel
PRIO_OFF
G0 X-23.32343 Y-4.2863 ;Travel
; 
; feature fill
PRIO_ON
G1 X-24.4947 Y-3.7401 E886.81928 
; 
; feature travel
PRIO_OFF
G0 X-24.4947 Y-4.23665 ;Travel
; 
; feature fill
PRIO_ON
G1 X-24.3882 Y-4.2863 E887.04964 
; 
; feature travel
PRIO_OFF
G0 X-22.5412 Y4.2863 ;Travel
; 
; feature fill
PRIO_ON
G1 X-4.1572 Y-4.2863 E926.82317 
; 
; feature travel
PRIO_OFF
G0 X-3.09241 Y-4.2863 ;Travel
; 
; feature fill
PRIO_ON
G1 X-21.4764 Y4.2863 E966.59670 
; 
; feature travel
PRIO_OFF
G0 X-20.41162 Y4.2863 ;Travel
; 
; feature fill
PRIO_ON
G1 X-2.0276 Y-4.2863 E1006.37023 
; 
; feature travel
PRIO_OFF
G0 X-0.96283 Y-4.2863 ;Travel
; 
; feature fill
PRIO_ON
G1 X-19.3468 Y4.2863 E1046.14376 
; 
; feature travel
PRIO_OFF
G0 X-18.28203 Y4.2863 ;Travel
; 
; feature fill
PRIO_ON
G1 X0.0000 Y-4.2388 E1085.69668 
G1 X0.1020 Y-4.2863 E1085.80698 ; => originalEInc=0.22061 adjustedEInc=0.11031 density=0.5
; 
; feature travel
PRIO_OFF
G0 X1.16676 Y-4.2863 ;Travel
; 
; feature fill
PRIO_ON
G1 X0.0000 Y-3.7422 E1087.06912 ; => originalEInc=2.52427 adjustedEInc=1.26213 density=0.5
G1 X-17.2172 Y4.2863 E1124.31838 
; 
; feature travel
PRIO_OFF
G0 X-16.15245 Y4.2863 ;Travel
; 
; feature fill
PRIO_ON
G1 X0.0000 Y-3.2457 E1159.26398 
G1 X2.2315 Y-4.2863 E1161.67795 ; => originalEInc=4.82793 adjustedEInc=2.41396 density=0.5
; 
; feature travel
PRIO_OFF
G0 X3.29634 Y-4.2863 ;Travel
; 
; feature fill
PRIO_ON
G1 X0.0000 Y-2.7492 E1165.24374 ; => originalEInc=7.13159 adjustedEInc=3.56579 density=0.5
G1 X-15.0877 Y4.2863 E1197.88568 
; 
; feature travel
PRIO_OFF
G0 X-14.02287 Y4.2863 ;Travel
; 
; feature fill
PRIO_ON
G1 X0.0000 Y-2.2527 E1228.22396 
G1 X4.3611 Y-4.2863 E1232.94158 ; => originalEInc=9.43524 adjustedEInc=4.71762 density=0.5
; 
; feature travel
PRIO_OFF
G0 X5.42592 Y-4.2863 ;Travel
; 
; feature fill
PRIO_ON
G1 X0.0000 Y-1.7562 E1238.81103 ; => originalEInc=11.73890 adjustedEInc=5.86945 density=0.5
G1 X-12.9581 Y4.2863 E1266.84566 
; 
; feature travel
PRIO_OFF
G0 X-11.89329 Y4.2863 ;Travel
; 
; feature fill
PRIO_ON
G1 X0.0000 Y-1.2596 E1292.57663 
G1 X6.4907 Y-4.2863 E1299.59791 ; => originalEInc=14.04256 adjustedEInc=7.02128 density=0.5
; 
; feature travel
PRIO_OFF
G0 X7.5555 Y-4.2863 ;Travel
; 
; feature fill
PRIO_ON
G1 X0.0000 Y-0.7631 E1307.77102 ; => originalEInc=16.34622 adjustedEInc=8.17311 density=0.5
G1 X-10.8285 Y4.2863 E1331.19833 
; 
; feature travel
PRIO_OFF
G0 X-9.76371 Y4.2863 ;Travel
; 
; feature fill
PRIO_ON
G1 X0.0000 Y-0.2666 E1352.32198 
G1 X8.6203 Y-4.2863 E1361.64692 ; => originalEInc=18.64988 adjustedEInc=9.32494 density=0.5
; 
; feature travel
PRIO_OFF
G0 X9.68508 Y-4.2863 ;Travel
; 
; feature fill
PRIO_ON
G1 X0.0000 Y0.2299 E1372.12369 ; => originalEInc=20.95354 adjustedEInc=10.47677 density=0.5
G1 X-8.6989 Y4.2863 E1390.94368 
; 
; feature travel
PRIO_OFF
G0 X-7.63413 Y4.2863 ;Travel
; 
; feature fill
PRIO_ON
G1 X0.0000 Y0.7264 E1407.46002 
G1 X10.7499 Y-4.2863 E1419.08861 ; => originalEInc=23.25720 adjustedEInc=11.62860 density=0.5
; 
; feature travel
PRIO_OFF
G0 X11.81466 Y-4.2863 ;Travel
; 
; feature fill
PRIO_ON
G1 X0.0000 Y1.2230 E1431.86904 ; => originalEInc=25.56085 adjustedEInc=12.78043 density=0.5
G1 X-6.5693 Y4.2863 E1446.08172 
; 
; feature travel
PRIO_OFF
G0 X-5.50455 Y4.2863 ;Travel
; 
; feature fill
PRIO_ON
G1 X0.0000 Y1.7195 E1457.99073 
G1 X12.8795 Y-4.2863 E1471.92299 ; => originalEInc=27.86451 adjustedEInc=13.93225 density=0.5
; 
; feature travel
PRIO_OFF
G0 X13.94424 Y-4.2863 ;Travel
; 
; feature fill
PRIO_ON
G1 X-0.0000 Y2.2160 E1487.00707 ; => originalEInc=30.16817 adjustedEInc=15.08409 density=0.5
G1 X-4.4398 Y4.2863 E1496.61243 
; 
; feature travel
PRIO_OFF
G0 X-3.37496 Y4.2863 ;Travel
; 
; feature fill
PRIO_ON
G1 X-0.0000 Y2.7125 E1503.91411 
G1 X15.0090 Y-4.2863 E1520.15003 ; => originalEInc=32.47185 adjustedEInc=16.23593 density=0.5
; 
; feature travel
PRIO_OFF
G0 X16.07383 Y-4.2863 ;Travel
; 
; feature fill
PRIO_ON
G1 X0.0000 Y3.2091 E1537.53779 ; => originalEInc=34.77551 adjustedEInc=17.38775 density=0.5
G1 X-2.3102 Y4.2863 E1542.53581 
; 
; feature travel
PRIO_OFF
G0 X-1.24538 Y4.2863 ;Travel
; 
; feature fill
PRIO_ON
G1 X0.0000 Y3.7056 E1545.23017 
G1 X17.1386 Y-4.2863 E1563.76976 ; => originalEInc=37.07917 adjustedEInc=18.53958 density=0.5
; 
; feature travel
PRIO_OFF
G0 X18.20341 Y-4.2863 ;Travel
; 
; feature fill
PRIO_ON
G1 X0.0000 Y4.2021 E1583.46117 ; => originalEInc=39.38283 adjustedEInc=19.69141 density=0.5
G1 X-0.1806 Y4.2863 E1583.85187 
; 
; feature travel
PRIO_OFF
G0 X0.8842 Y4.2863 ;Travel
; 
; feature fill
PRIO_ON
G1 X19.2682 Y-4.2863 E1623.62540 
; 
; feature travel
PRIO_OFF
G0 X20.33299 Y-4.2863 ;Travel
; 
; feature fill
PRIO_ON
G1 X1.9490 Y4.2863 E1663.39893 
; 
; feature travel
PRIO_OFF
G0 X3.01378 Y4.2863 ;Travel
; 
; feature fill
PRIO_ON
G1 X21.3978 Y-4.2863 E1703.17245 
; 
; feature travel
PRIO_OFF
G0 X22.46257 Y-4.2863 ;Travel
; 
; feature fill
PRIO_ON
G1 X4.0786 Y4.2863 E1742.94598 
; 
; feature travel
PRIO_OFF
G0 X5.14336 Y4.2863 ;Travel
; 
; feature fill
PRIO_ON
G1 X23.5274 Y-4.2863 E1782.71951 
; 
; feature travel
PRIO_OFF
G0 X24.4947 Y-4.24086 ;Travel
; 
; feature fill
PRIO_ON
G1 X6.2081 Y4.2863 E1822.28221 
; 
; feature travel
PRIO_OFF
G0 X7.27294 Y4.2863 ;Travel
; 
; feature fill
PRIO_ON
G1 X24.4947 Y-3.7443 E1859.54124 
; 
; feature travel
PRIO_OFF
G0 X24.4947 Y-3.24782 ;Travel
; 
; feature fill
PRIO_ON
G1 X8.3377 Y4.2863 E1894.49661 
; 
; feature travel
PRIO_OFF
G0 X9.40252 Y4.2863 ;Travel
; 
; feature fill
PRIO_ON
G1 X24.4947 Y-2.7513 E1927.14833 
; 
; feature travel
PRIO_OFF
G0 X24.4947 Y-2.25478 ;Travel
; 
; feature fill
PRIO_ON
G1 X10.4673 Y4.2863 E1957.49638 
; 
; feature travel
PRIO_OFF
G0 X11.53211 Y4.2863 ;Travel
; 
; feature fill
PRIO_ON
G1 X24.4947 Y-1.7583 E1985.54077 
; 
; feature travel
PRIO_OFF
G0 X24.4947 Y-1.26174 ;Travel
; 
; feature fill
PRIO_ON
G1 X12.5969 Y4.2863 E2011.28151 
; 
; feature travel
PRIO_OFF
G0 X13.66169 Y4.2863 ;Travel
; 
; feature fill
PRIO_ON
G1 X24.4947 Y-0.7652 E2034.71858 
; 
; feature travel
PRIO_OFF
G0 X24.4947 Y-0.2687 ;Travel
; 
; feature fill
PRIO_ON
G1 X14.7265 Y4.2863 E2055.85199 
; 
; feature travel
PRIO_OFF
G0 X15.79127 Y4.2863 ;Travel
; 
; feature fill
PRIO_ON
G1 X24.4947 Y0.2278 E2074.68175 
; 
; feature travel
PRIO_OFF
G0 X24.4947 Y0.72434 ;Travel
; 
; feature fill
PRIO_ON
G1 X16.8561 Y4.2863 E2091.20784 
; 
; feature travel
PRIO_OFF
G0 X17.92085 Y4.2863 ;Travel
; 
; feature fill
PRIO_ON
G1 X24.4947 Y1.2209 E2105.43027 
; 
; feature travel
PRIO_OFF
G0 X24.4947 Y1.71738 ;Travel
; 
; feature fill
PRIO_ON
G1 X18.9856 Y4.2863 E2117.34905 
; 
; feature travel
PRIO_OFF
G0 X20.05043 Y4.2863 ;Travel
; 
; feature fill
PRIO_ON
G1 X24.4947 Y2.2139 E2126.96416 
; 
; feature travel
PRIO_OFF
G0 X24.4947 Y2.71042 ;Travel
; 
; feature fill
PRIO_ON
G1 X21.1152 Y4.2863 E2134.27562 
; 
; feature travel
PRIO_OFF
G0 X22.18001 Y4.2863 ;Travel
; 
; feature fill
PRIO_ON
G1 X24.4947 Y3.2069 E2139.28341 
; 
; feature travel
PRIO_OFF
G0 X24.4947 Y3.70346 ;Travel
; 
; feature fill
PRIO_ON
G1 X23.2448 Y4.2863 E2141.98755 
; 
; feature travel
PRIO_OFF
G0 X24.30959 Y4.2863 ;Travel
; 
; feature fill
PRIO_ON
G1 X24.4947 Y4.2000 E2142.38802 
PRIO_OFF
LayersCompleted=4
M1
; 
;========================
; layer 4, Z = 1.2000
; 
; reset extrusion
STOPRE
PRESETON(E, 0)
DO PRIO_PULSE_DISTANCE=DROP_SCALE
DO PRIO_ON_PATH_OFFSET=0.5*PRIO_PULSE_DISTANCE
;outer: (25.2604,-5.0521) (25.2604,5.0521) (-25.2604,5.0521) (-25.2604,-5.0521) (19.8604,-5.0521) holes: !
;overhangs:!
; 
; feature plane change
G0 X24.4947 Y4.19998 Z1.2 ;Plane Change
; 
; feature travel
G0 X10.87413 Y4.637 ;Travel
; 
; feature outer perimeter
G1 F24000 FL[E] = OuterPerimeterFrequency * DROP_SCALE * 60
PRIO_ON
G1 X-24.8454 Y4.6370 E84.04595 
G1 X-24.8454 Y-4.6370 E105.86712 
G1 X24.8454 Y-4.6370 E222.78665 
G1 X24.8454 Y4.6370 E244.60783 
G1 X10.8741 Y4.6370 E277.48141 
; 
; feature travel
PRIO_OFF
G0 X10.87413 Y4.286 ;Travel
; 
; feature inner perimeter
G1 F24000 FL[E] = InnerPerimeterFrequency * DROP_SCALE * 60
PRIO_ON
G1 X24.4944 Y4.2860 E302.70414 
G1 X24.4944 Y-4.2860 E318.57821 
G1 X-24.4944 Y-4.2860 E409.29821 
G1 X-24.4944 Y4.2860 E425.17229 
G1 X10.8741 Y4.2860 E490.66956 
; 
; feature travel
PRIO_OFF
G0 X11.07622 Y4.2863 ;Travel
; 
; feature fill
G1 F24000 FL[E] = FillFrequency * DROP_SCALE * 60
PRIO_ON
G1 X0.0000 Y0.2549 E502.22551 ; => originalEInc=23.11189 adjustedEInc=11.55595 density=0.5
G1 X-12.4768 Y-4.2863 E528.25990 
; 
; feature travel
PRIO_OFF
G0 X-11.16109 Y-4.2863 ;Travel
; 
; feature fill
PRIO_ON
G1 X0.0000 Y-0.2240 E551.54889 
G1 X12.3919 Y4.2863 E564.47754 ; => originalEInc=25.85729 adjustedEInc=12.92864 density=0.5
; 
; feature travel
PRIO_OFF
G0 X13.70764 Y4.2863 ;Travel
; 
; feature fill
PRIO_ON
G1 X0.0000 Y-0.7029 E578.77888 ; => originalEInc=28.60269 adjustedEInc=14.30134 density=0.5
G1 X-9.8454 Y-4.2863 E599.32249 
; 
; feature travel
PRIO_OFF
G0 X-8.52967 Y-4.2863 ;Travel
; 
; feature fill
PRIO_ON
G1 X-0.0000 Y-1.1818 E617.12069 
G1 X15.0234 Y4.2863 E632.79473 ; => originalEInc=31.34807 adjustedEInc=15.67404 density=0.5
; 
; feature travel
PRIO_OFF
G0 X16.33907 Y4.2863 ;Travel
; 
; feature fill
PRIO_ON
G1 X0.0000 Y-1.6606 E649.84147 ; => originalEInc=34.09348 adjustedEInc=17.04674 density=0.5
G1 X-7.2140 Y-4.2863 E664.89428 
; 
; feature travel
PRIO_OFF
G0 X-5.89825 Y-4.2863 ;Travel
; 
; feature fill
PRIO_ON
G1 X0.0000 Y-2.1395 E677.20170 
G1 X17.6548 Y4.2863 E695.62113 ; => originalEInc=36.83886 adjustedEInc=18.41943 density=0.5
; 
; feature travel
PRIO_OFF
G0 X18.97049 Y4.2863 ;Travel
; 
; feature fill
PRIO_ON
G1 X0.0000 Y-2.6184 E715.41327 ; => originalEInc=39.58427 adjustedEInc=19.79214 density=0.5
G1 X-4.5825 Y-4.2863 E724.97528 
; 
; feature travel
PRIO_OFF
G0 X-3.26682 Y-4.2863 ;Travel
; 
; feature fill
PRIO_ON
G1 X-0.0000 Y-3.0973 E731.79191 
G1 X20.2862 Y4.2863 E752.95674 ; => originalEInc=42.32966 adjustedEInc=21.16483 density=0.5
; 
; feature travel
PRIO_OFF
G0 X21.60191 Y4.2863 ;Travel
; 
; feature fill
PRIO_ON
G1 X0.0000 Y-3.5762 E775.49426 ; => originalEInc=45.07506 adjustedEInc=22.53753 density=0.5
G1 X-1.9511 Y-4.2863 E779.56550 
; 
; feature travel
PRIO_OFF
G0 X-0.6354 Y-4.2863 ;Travel
; 
; feature fill
PRIO_ON
G1 X-0.0000 Y-4.0550 E780.89134 
G1 X22.9176 Y4.2863 E804.80156 ; => originalEInc=47.82044 adjustedEInc=23.91022 density=0.5
; 
; feature travel
PRIO_OFF
G0 X24.23334 Y4.2863 ;Travel
; 
; feature fill
PRIO_ON
G1 X0.6803 Y-4.2863 E853.94785 
; 
; feature travel
PRIO_OFF
G0 X1.99603 Y-4.2863 ;Travel
; 
; feature fill
PRIO_ON
G1 X24.4947 Y3.9026 E900.89410 
; 
; feature travel
PRIO_OFF
G0 X24.4947 Y3.42367 ;Travel
; 
; feature fill
PRIO_ON
G1 X3.3117 Y-4.2863 E945.09496 
; 
; feature travel
PRIO_OFF
G0 X4.62745 Y-4.2863 ;Travel
; 
; feature fill
PRIO_ON
G1 X24.4947 Y2.9448 E986.55043 
; 
; feature travel
PRIO_OFF
G0 X24.4947 Y2.46591 ;Travel
; 
; feature fill
PRIO_ON
G1 X5.9432 Y-4.2863 E1025.26050 
; 
; feature travel
PRIO_OFF
G0 X7.25887 Y-4.2863 ;Travel
; 
; feature fill
PRIO_ON
G1 X24.4947 Y1.9870 E1061.22517 
; 
; feature travel
PRIO_OFF
G0 X24.4947 Y1.50815 ;Travel
; 
; feature fill
PRIO_ON
G1 X8.5746 Y-4.2863 E1094.44445 
; 
; feature travel
PRIO_OFF
G0 X9.8903 Y-4.2863 ;Travel
; 
; feature fill
PRIO_ON
G1 X24.4947 Y1.0293 E1124.91834 
; 
; feature travel
PRIO_OFF
G0 X24.4947 Y0.55039 ;Travel
; 
; feature fill
PRIO_ON
G1 X11.2060 Y-4.2863 E1152.64683 
; 
; feature travel
PRIO_OFF
G0 X12.52172 Y-4.2863 ;Travel
; 
; feature fill
PRIO_ON
G1 X24.4947 Y0.0715 E1177.62992 
; 
; feature travel
PRIO_OFF
G0 X24.4947 Y-0.40737 ;Travel
; 
; feature fill
PRIO_ON
G1 X13.8374 Y-4.2863 E1199.86762 
; 
; feature travel
PRIO_OFF
G0 X15.15314 Y-4.2863 ;Travel
; 
; feature fill
PRIO_ON
G1 X24.4947 Y-0.8862 E1219.35992 
; 
; feature travel
PRIO_OFF
G0 X24.4947 Y-1.36513 ;Travel
; 
; feature fill
PRIO_ON
G1 X16.4689 Y-4.2863 E1236.10683 
; 
; feature travel
PRIO_OFF
G0 X17.78457 Y-4.2863 ;Travel
; 
; feature fill
PRIO_ON
G1 X24.4947 Y-1.8440 E1250.10835 
; 
; feature travel
PRIO_OFF
G0 X24.4947 Y-2.32289 ;Travel
; 
; feature fill
PRIO_ON
G1 X19.1003 Y-4.2863 E1261.36447 
; 
; feature travel
PRIO_OFF
G0 X20.41599 Y-4.2863 ;Travel
; 
; feature fill
PRIO_ON
G1 X24.4947 Y-2.8018 E1269.87519 
; 
; feature travel
PRIO_OFF
G0 X24.4947 Y-3.28065 ;Travel
; 
; feature fill
PRIO_ON
G1 X21.7317 Y-4.2863 E1275.64052 
; 
; feature travel
PRIO_OFF
G0 X23.04742 Y-4.2863 ;Travel
; 
; feature fill
PRIO_ON
G1 X24.4947 Y-3.7595 E1278.66046 
; 
; feature travel
PRIO_OFF
G0 X24.4947 Y-4.23841 ;Travel
; 
; feature fill
PRIO_ON
G1 X24.3631 Y-4.2863 E1278.93499 
; 
; feature travel
PRIO_OFF
G0 X9.76051 Y4.2863 ;Travel
; 
; feature fill
PRIO_ON
G1 X0.0000 Y0.7338 E1289.11824 ; => originalEInc=20.36650 adjustedEInc=10.18325 density=0.5
G1 X-13.7925 Y-4.2863 E1317.89803 
; 
; feature travel
PRIO_OFF
G0 X-15.10823 Y-4.2863 ;Travel
; 
; feature fill
PRIO_ON
G1 X0.0000 Y1.2126 E1349.42322 
G1 X8.4448 Y4.2863 E1358.23377 ; => originalEInc=17.62110 adjustedEInc=8.81055 density=0.5
; 
; feature travel
PRIO_OFF
G0 X7.12908 Y4.2863 ;Travel
; 
; feature fill
PRIO_ON
G1 X-0.0000 Y1.6915 E1365.67162 ; => originalEInc=14.87570 adjustedEInc=7.43785 density=0.5
G1 X-16.4239 Y-4.2863 E1399.94219 
; 
; feature travel
PRIO_OFF
G0 X-17.73965 Y-4.2863 ;Travel
; 
; feature fill
PRIO_ON
G1 X0.0000 Y2.1704 E1436.95817 
G1 X5.8134 Y4.2863 E1443.02333 ; => originalEInc=12.13032 adjustedEInc=6.06516 density=0.5
; 
; feature travel
PRIO_OFF
G0 X4.49766 Y4.2863 ;Travel
; 
; feature fill
PRIO_ON
G1 X0.0000 Y2.6493 E1447.71578 ; => originalEInc=9.38492 adjustedEInc=4.69246 density=0.5
G1 X-19.0554 Y-4.2863 E1487.47715 
; 
; feature travel
PRIO_OFF
G0 X-20.37108 Y-4.2863 ;Travel
; 
; feature fill
PRIO_ON
G1 X0.0000 Y3.1282 E1529.98391 
G1 X3.1820 Y4.2863 E1533.30367 ; => originalEInc=6.63953 adjustedEInc=3.31976 density=0.5
; 
; feature travel
PRIO_OFF
G0 X1.86623 Y4.2863 ;Travel
; 
; feature fill
PRIO_ON
G1 X0.0000 Y3.6070 E1535.25073 ; => originalEInc=3.89412 adjustedEInc=1.94706 density=0.5
G1 X-21.6868 Y-4.2863 E1580.50289 
; 
; feature travel
PRIO_OFF
G0 X-23.0025 Y-4.2863 ;Travel
; 
; feature fill
PRIO_ON
G1 X0.0000 Y4.0859 E1628.50045 
G1 X0.5505 Y4.2863 E1629.07482 ; => originalEInc=1.14873 adjustedEInc=0.57436 density=0.5
; 
; feature travel
PRIO_OFF
G0 X-0.76519 Y4.2863 ;Travel
; 
; feature fill
PRIO_ON
G1 X-24.3182 Y-4.2863 E1678.22110 
; 
; feature travel
PRIO_OFF
G0 X-24.4947 Y-3.87166 ;Travel
; 
; feature fill
PRIO_ON
G1 X-2.0809 Y4.2863 E1724.99025 
; 
; feature travel
PRIO_OFF
G0 X-3.39661 Y4.2863 ;Travel
; 
; feature fill
PRIO_ON
G1 X-24.4947 Y-3.3928 E1769.01401 
; 
; feature travel
PRIO_OFF
G0 X-24.4947 Y-2.9139 ;Travel
; 
; feature fill
PRIO_ON
G1 X-4.7123 Y4.2863 E1810.29237 
; 
; feature travel
PRIO_OFF
G0 X-6.02804 Y4.2863 ;Travel
; 
; feature fill
PRIO_ON
G1 X-24.4947 Y-2.4350 E1848.82533 
; 
; feature travel
PRIO_OFF
G0 X-24.4947 Y-1.95614 ;Travel
; 
; feature fill
PRIO_ON
G1 X-7.3438 Y4.2863 E1884.61290 
; 
; feature travel
PRIO_OFF
G0 X-8.65946 Y4.2863 ;Travel
; 
; feature fill
PRIO_ON
G1 X-24.4947 Y-1.4773 E1917.65507 
; 
; feature travel
PRIO_OFF
G0 X-24.4947 Y-0.99838 ;Travel
; 
; feature fill
PRIO_ON
G1 X-9.9752 Y4.2863 E1947.95185 
; 
; feature travel
PRIO_OFF
G0 X-11.29089 Y4.2863 ;Travel
; 
; feature fill
PRIO_ON
G1 X-24.4947 Y-0.5195 E1975.50324 
; 
; feature travel
PRIO_OFF
G0 X-24.4947 Y-0.04062 ;Travel
; 
; feature fill
PRIO_ON
G1 X-12.6066 Y4.2863 E2000.30923 
; 
; feature travel
PRIO_OFF
G0 X-13.92231 Y4.2863 ;Travel
; 
; feature fill
PRIO_ON
G1 X-24.4947 Y0.4383 E2022.36982 
; 
; feature travel
PRIO_OFF
G0 X-24.4947 Y0.91714 ;Travel
; 
; feature fill
PRIO_ON
G1 X-15.2380 Y4.2863 E2041.68502 
; 
; feature travel
PRIO_OFF
G0 X-16.55373 Y4.2863 ;Travel
; 
; feature fill
PRIO_ON
G1 X-24.4947 Y1.3960 E2058.25483 
; 
; feature travel
PRIO_OFF
G0 X-24.4947 Y1.8749 ;Travel
; 
; feature fill
PRIO_ON
G1 X-17.8695 Y4.2863 E2072.07924 
; 
; feature travel
PRIO_OFF
G0 X-19.18516 Y4.2863 ;Travel
; 
; feature fill
PRIO_ON
G1 X-24.4947 Y2.3538 E2083.15825 
; 
; feature travel
PRIO_OFF
G0 X-24.4947 Y2.83266 ;Travel
; 
; feature fill
PRIO_ON
G1 X-20.5009 Y4.2863 E2091.49187 
; 
; feature travel
PRIO_OFF
G0 X-21.81658 Y4.2863 ;Travel
; 
; feature fill
PRIO_ON
G1 X-24.4947 Y3.3115 E2097.08009 
; 
; feature travel
PRIO_OFF
G0 X-24.4947 Y3.79042 ;Travel
; 
; feature fill
PRIO_ON
G1 X-23.1323 Y4.2863 E2099.92292 
PRIO_OFF
LayersCompleted=5
M1
; 
;========================
; layer 5, Z = 1.4400
; 
; reset extrusion
STOPRE
PRESETON(E, 0)
DO PRIO_PULSE_DISTANCE=DROP_SCALE
DO PRIO_ON_PATH_OFFSET=0.5*PRIO_PULSE_DISTANCE
;outer: (25.2604,-5.0521) (25.2604,5.0521) (-25.2604,5.0521) (-25.2604,-5.0521) (18.6604,-5.0521) holes: !
;overhangs:!
; 
; feature plane change
G0 X-23.13229 Y4.2863 Z1.44 ;Plane Change
; 
; feature travel
G0 X-14.84923 Y-4.637 ;Travel
; 
; feature outer perimeter
G1 F24000 FL[E] = OuterPerimeterFrequency * DROP_SCALE * 60
PRIO_ON
G1 X-24.8454 Y-4.6370 E23.52040 
G1 X-24.8454 Y4.6370 E45.34157 
G1 X24.8454 Y4.6370 E162.26110 
G1 X24.8454 Y-4.6370 E184.08228 
G1 X-14.8492 Y-4.6370 E277.48141 
; 
; feature travel
PRIO_OFF
G0 X-14.84923 Y-4.286 ;Travel
; 
; feature inner perimeter
G1 F24000 FL[E] = InnerPerimeterFrequency * DROP_SCALE * 60
PRIO_ON
G1 X24.4944 Y-4.2860 E350.33999 
G1 X24.4944 Y4.2860 E366.21406 
G1 X-24.4944 Y4.2860 E456.93406 
G1 X-24.4944 Y-4.2860 E472.80814 
G1 X-14.8492 Y-4.2860 E490.66956 
; 
; feature travel
PRIO_OFF
G0 X-14.78004 Y-4.2863 ;Travel
; 
; feature fill
G1 F24000 FL[E] = FillFrequency * DROP_SCALE * 60
PRIO_ON
G1 X-10.7826 Y4.2863 E509.21626 
; 
; feature travel
PRIO_OFF
G0 X-10.28605 Y4.2863 ;Travel
; 
; feature fill
PRIO_ON
G1 X-14.2835 Y-4.2863 E527.76296 
; 
; feature travel
PRIO_OFF
G0 X-13.787 Y-4.2863 ;Travel
; 
; feature fill
PRIO_ON
G1 X-9.7895 Y4.2863 E546.30966 
; 
; feature travel
PRIO_OFF
G0 X-9.29301 Y4.2863 ;Travel
; 
; feature fill
PRIO_ON
G1 X-13.2905 Y-4.2863 E564.85636 
; 
; feature travel
PRIO_OFF
G0 X-12.79396 Y-4.2863 ;Travel
; 
; feature fill
PRIO_ON
G1 X-8.7965 Y4.2863 E583.40307 
; 
; feature travel
PRIO_OFF
G0 X-8.29997 Y4.2863 ;Travel
; 
; feature fill
PRIO_ON
G1 X-12.2974 Y-4.2863 E601.94977 
; 
; feature travel
PRIO_OFF
G0 X-11.80092 Y-4.2863 ;Travel
; 
; feature fill
PRIO_ON
G1 X-7.8034 Y4.2863 E620.49647 
; 
; feature travel
PRIO_OFF
G0 X-7.30693 Y4.2863 ;Travel
; 
; feature fill
PRIO_ON
G1 X-11.3044 Y-4.2863 E639.04317 
; 
; feature travel
PRIO_OFF
G0 X-10.80788 Y-4.2863 ;Travel
; 
; feature fill
PRIO_ON
G1 X-6.8104 Y4.2863 E657.58987 
; 
; feature travel
PRIO_OFF
G0 X-6.31389 Y4.2863 ;Travel
; 
; feature fill
PRIO_ON
G1 X-10.3114 Y-4.2863 E676.13657 
; 
; feature travel
PRIO_OFF
G0 X-9.81484 Y-4.2863 ;Travel
; 
; feature fill
PRIO_ON
G1 X-5.8174 Y4.2863 E694.68327 
; 
; feature travel
PRIO_OFF
G0 X-5.32085 Y4.2863 ;Travel
; 
; feature fill
PRIO_ON
G1 X-9.3183 Y-4.2863 E713.22997 
; 
; feature travel
PRIO_OFF
G0 X-8.8218 Y-4.2863 ;Travel
; 
; feature fill
PRIO_ON
G1 X-4.8243 Y4.2863 E731.77667 
; 
; feature travel
PRIO_OFF
G0 X-4.32781 Y4.2863 ;Travel
; 
; feature fill
PRIO_ON
G1 X-8.3253 Y-4.2863 E750.32337 
; 
; feature travel
PRIO_OFF
G0 X-7.82876 Y-4.2863 ;Travel
; 
; feature fill
PRIO_ON
G1 X-3.8313 Y4.2863 E768.87008 
; 
; feature travel
PRIO_OFF
G0 X-3.33477 Y4.2863 ;Travel
; 
; feature fill
PRIO_ON
G1 X-7.3322 Y-4.2863 E787.41678 
; 
; feature travel
PRIO_OFF
G0 X-6.83572 Y-4.2863 ;Travel
; 
; feature fill
PRIO_ON
G1 X-2.8382 Y4.2863 E805.96348 
; 
; feature travel
PRIO_OFF
G0 X-2.34173 Y4.2863 ;Travel
; 
; feature fill
PRIO_ON
G1 X-6.3392 Y-4.2863 E824.51018 
; 
; feature travel
PRIO_OFF
G0 X-5.84268 Y-4.2863 ;Travel
; 
; feature fill
PRIO_ON
G1 X-1.8452 Y4.2863 E843.05688 
; 
; feature travel
PRIO_OFF
G0 X-1.34869 Y4.2863 ;Travel
; 
; feature fill
PRIO_ON
G1 X-5.3462 Y-4.2863 E861.60358 
; 
; feature travel
PRIO_OFF
G0 X-4.84964 Y-4.2863 ;Travel
; 
; feature fill
PRIO_ON
G1 X-0.8522 Y4.2863 E880.15028 
; 
; feature travel
PRIO_OFF
G0 X-0.35565 Y4.2863 ;Travel
; 
; feature fill
PRIO_ON
G1 X-4.3531 Y-4.2863 E898.69698 
; 
; feature travel
PRIO_OFF
G0 X-3.8566 Y-4.2863 ;Travel
; 
; feature fill
PRIO_ON
G1 X0.0000 Y3.9842 E916.59010 
G1 X0.1409 Y4.2863 E916.91689 ; => originalEInc=0.65358 adjustedEInc=0.32679 density=0.5
; 
; feature travel
PRIO_OFF
G0 X0.63739 Y4.2863 ;Travel
; 
; feature fill
PRIO_ON
G1 X0.0000 Y2.9194 E918.39551 ; => originalEInc=2.95724 adjustedEInc=1.47862 density=0.5
G1 X-3.3601 Y-4.2863 E933.98498 
; 
; feature travel
PRIO_OFF
G0 X-2.86356 Y-4.2863 ;Travel
; 
; feature fill
PRIO_ON
G1 X0.0000 Y1.8546 E947.27078 
G1 X1.1339 Y4.2863 E949.90123 ; => originalEInc=5.26090 adjustedEInc=2.63045 density=0.5
; 
; feature travel
PRIO_OFF
G0 X1.63043 Y4.2863 ;Travel
; 
; feature fill
PRIO_ON
G1 X0.0000 Y0.7898 E953.68351 ; => originalEInc=7.56456 adjustedEInc=3.78228 density=0.5
G1 X-2.3670 Y-4.2863 E964.66565 
; 
; feature travel
PRIO_OFF
G0 X-1.87052 Y-4.2863 ;Travel
; 
; feature fill
PRIO_ON
G1 X0.0000 Y-0.2750 E973.34413 
G1 X2.1269 Y4.2863 E978.27824 ; => originalEInc=9.86822 adjustedEInc=4.93411 density=0.5
; 
; feature travel
PRIO_OFF
G0 X2.62347 Y4.2863 ;Travel
; 
; feature fill
PRIO_ON
G1 X0.0000 Y-1.3397 E984.36418 ; => originalEInc=12.17188 adjustedEInc=6.08594 density=0.5
G1 X-1.3740 Y-4.2863 E990.73900 
; 
; feature travel
PRIO_OFF
G0 X-0.87748 Y-4.2863 ;Travel
; 
; feature fill
PRIO_ON
G1 X0.0000 Y-2.4045 E994.81017 
G1 X3.1200 Y4.2863 E1002.04793 ; => originalEInc=14.47554 adjustedEInc=7.23777 density=0.5
; 
; feature travel
PRIO_OFF
G0 X3.61651 Y4.2863 ;Travel
; 
; feature fill
PRIO_ON
G1 X0.0000 Y-3.4693 E1010.43753 ; => originalEInc=16.77919 adjustedEInc=8.38960 density=0.5
G1 X-0.3810 Y-4.2863 E1012.20504 
; 
; feature travel
PRIO_OFF
G0 X0.11556 Y-4.2863 ;Travel
; 
; feature fill
PRIO_ON
G1 X4.1130 Y4.2863 E1030.75174 
; 
; feature travel
PRIO_OFF
G0 X4.60955 Y4.2863 ;Travel
; 
; feature fill
PRIO_ON
G1 X0.6121 Y-4.2863 E1049.29844 
; 
; feature travel
PRIO_OFF
G0 X1.10861 Y-4.2863 ;Travel
; 
; feature fill
PRIO_ON
G1 X5.1061 Y4.2863 E1067.84515 
; 
; feature travel
PRIO_OFF
G0 X5.60259 Y4.2863 ;Travel
; 
; feature fill
PRIO_ON
G1 X1.6051 Y-4.2863 E1086.39185 
; 
; feature travel
PRIO_OFF
G0 X2.10165 Y-4.2863 ;Travel
; 
; feature fill
PRIO_ON
G1 X6.0991 Y4.2863 E1104.93855 
; 
; feature travel
PRIO_OFF
G0 X6.59563 Y4.2863 ;Travel
; 
; feature fill
PRIO_ON
G1 X2.5982 Y-4.2863 E1123.48525 
; 
; feature travel
PRIO_OFF
G0 X3.09469 Y-4.2863 ;Travel
; 
; feature fill
PRIO_ON
G1 X7.0922 Y4.2863 E1142.03195 
; 
; feature travel
PRIO_OFF
G0 X7.58867 Y4.2863 ;Travel
; 
; feature fill
PRIO_ON
G1 X3.5912 Y-4.2863 E1160.57865 
; 
; feature travel
PRIO_OFF
G0 X4.08773 Y-4.2863 ;Travel
; 
; feature fill
PRIO_ON
G1 X8.0852 Y4.2863 E1179.12535 
; 
; feature travel
PRIO_OFF
G0 X8.58171 Y4.2863 ;Travel
; 
; feature fill
PRIO_ON
G1 X4.5842 Y-4.2863 E1197.67205 
; 
; feature travel
PRIO_OFF
G0 X5.08077 Y-4.2863 ;Travel
; 
; feature fill
PRIO_ON
G1 X9.0782 Y4.2863 E1216.21875 
; 
; feature travel
PRIO_OFF
G0 X9.57475 Y4.2863 ;Travel
; 
; feature fill
PRIO_ON
G1 X5.5773 Y-4.2863 E1234.76546 
; 
; feature travel
PRIO_OFF
G0 X6.07381 Y-4.2863 ;Travel
; 
; feature fill
PRIO_ON
G1 X10.0713 Y4.2863 E1253.31216 
; 
; feature travel
PRIO_OFF
G0 X10.56779 Y4.2863 ;Travel
; 
; feature fill
PRIO_ON
G1 X6.5703 Y-4.2863 E1271.85886 
; 
; feature travel
PRIO_OFF
G0 X7.06685 Y-4.2863 ;Travel
; 
; feature fill
PRIO_ON
G1 X11.0643 Y4.2863 E1290.40556 
; 
; feature travel
PRIO_OFF
G0 X11.56083 Y4.2863 ;Travel
; 
; feature fill
PRIO_ON
G1 X7.5634 Y-4.2863 E1308.95226 
; 
; feature travel
PRIO_OFF
G0 X8.05989 Y-4.2863 ;Travel
; 
; feature fill
PRIO_ON
G1 X12.0573 Y4.2863 E1327.49896 
; 
; feature travel
PRIO_OFF
G0 X12.55387 Y4.2863 ;Travel
; 
; feature fill
PRIO_ON
G1 X8.5564 Y-4.2863 E1346.04566 
; 
; feature travel
PRIO_OFF
G0 X9.05293 Y-4.2863 ;Travel
; 
; feature fill
PRIO_ON
G1 X13.0504 Y4.2863 E1364.59236 
; 
; feature travel
PRIO_OFF
G0 X13.54692 Y4.2863 ;Travel
; 
; feature fill
PRIO_ON
G1 X9.5495 Y-4.2863 E1383.13906 
; 
; feature travel
PRIO_OFF
G0 X10.04597 Y-4.2863 ;Travel
; 
; feature fill
PRIO_ON
G1 X14.0434 Y4.2863 E1401.68576 
; 
; feature travel
PRIO_OFF
G0 X14.53996 Y4.2863 ;Travel
; 
; feature fill
PRIO_ON
G1 X10.5425 Y-4.2863 E1420.23247 
; 
; feature travel
PRIO_OFF
G0 X11.03901 Y-4.2863 ;Travel
; 
; feature fill
PRIO_ON
G1 X15.0365 Y4.2863 E1438.77917 
; 
; feature travel
PRIO_OFF
G0 X15.533 Y4.2863 ;Travel
; 
; feature fill
PRIO_ON
G1 X11.5355 Y-4.2863 E1457.32587 
; 
; feature travel
PRIO_OFF
G0 X12.03205 Y-4.2863 ;Travel
; 
; feature fill
PRIO_ON
G1 X16.0295 Y4.2863 E1475.87257 
; 
; feature travel
PRIO_OFF
G0 X16.52604 Y4.2863 ;Travel
; 
; feature fill
PRIO_ON
G1 X12.5286 Y-4.2863 E1494.41927 
; 
; feature travel
PRIO_OFF
G0 X13.02509 Y-4.2863 ;Travel
; 
; feature fill
PRIO_ON
G1 X17.0226 Y4.2863 E1512.96597 
; 
; feature travel
PRIO_OFF
G0 X17.51908 Y4.2863 ;Travel
; 
; feature fill
PRIO_ON
G1 X13.5216 Y-4.2863 E1531.51267 
; 
; feature travel
PRIO_OFF
G0 X14.01813 Y-4.2863 ;Travel
; 
; feature fill
PRIO_ON
G1 X18.0156 Y4.2863 E1550.05937 
; 
; feature travel
PRIO_OFF
G0 X18.51212 Y4.2863 ;Travel
; 
; feature fill
PRIO_ON
G1 X14.5146 Y-4.2863 E1568.60607 
; 
; feature travel
PRIO_OFF
G0 X15.01117 Y-4.2863 ;Travel
; 
; feature fill
PRIO_ON
G1 X19.0086 Y4.2863 E1587.15278 
; 
; feature travel
PRIO_OFF
G0 X19.50516 Y4.2863 ;Travel
; 
; feature fill
PRIO_ON
G1 X15.5077 Y-4.2863 E1605.69948 
; 
; feature travel
PRIO_OFF
G0 X16.00421 Y-4.2863 ;Travel
; 
; feature fill
PRIO_ON
G1 X20.0017 Y4.2863 E1624.24618 
; 
; feature travel
PRIO_OFF
G0 X20.4982 Y4.2863 ;Travel
; 
; feature fill
PRIO_ON
G1 X16.5007 Y-4.2863 E1642.79288 
; 
; feature travel
PRIO_OFF
G0 X16.99725 Y-4.2863 ;Travel
; 
; feature fill
PRIO_ON
G1 X20.9947 Y4.2863 E1661.33958 
; 
; feature travel
PRIO_OFF
G0 X21.49124 Y4.2863 ;Travel
; 
; feature fill
PRIO_ON
G1 X17.4938 Y-4.2863 E1679.88628 
; 
; feature travel
PRIO_OFF
G0 X17.99029 Y-4.2863 ;Travel
; 
; feature fill
PRIO_ON
G1 X21.9878 Y4.2863 E1698.43298 
; 
; feature travel
PRIO_OFF
G0 X22.48428 Y4.2863 ;Travel
; 
; feature fill
PRIO_ON
G1 X18.4868 Y-4.2863 E1716.97968 
; 
; feature travel
PRIO_OFF
G0 X18.98333 Y-4.2863 ;Travel
; 
; feature fill
PRIO_ON
G1 X22.9808 Y4.2863 E1735.52638 
; 
; feature travel
PRIO_OFF
G0 X23.47732 Y4.2863 ;Travel
; 
; feature fill
PRIO_ON
G1 X19.4798 Y-4.2863 E1754.07309 
; 
; feature travel
PRIO_OFF
G0 X19.97637 Y-4.2863 ;Travel
; 
; feature fill
PRIO_ON
G1 X23.9738 Y4.2863 E1772.61979 
; 
; feature travel
PRIO_OFF
G0 X24.47036 Y4.2863 ;Travel
; 
; feature fill
PRIO_ON
G1 X20.4729 Y-4.2863 E1791.16649 
; 
; feature travel
PRIO_OFF
G0 X20.96941 Y-4.2863 ;Travel
; 
; feature fill
PRIO_ON
G1 X24.4947 Y3.2737 E1807.52247 
; 
; feature travel
PRIO_OFF
G0 X24.4947 Y2.20892 ;Travel
; 
; feature fill
PRIO_ON
G1 X21.4659 Y-4.2863 E1821.57480 
; 
; feature travel
PRIO_OFF
G0 X21.96245 Y-4.2863 ;Travel
; 
; feature fill
PRIO_ON
G1 X24.4947 Y1.1441 E1833.32346 
; 
; feature travel
PRIO_OFF
G0 X24.4947 Y0.07934 ;Travel
; 
; feature fill
PRIO_ON
G1 X22.4590 Y-4.2863 E1842.76847 
; 
; feature travel
PRIO_OFF
G0 X22.95549 Y-4.2863 ;Travel
; 
; feature fill
PRIO_ON
G1 X24.4947 Y-0.9855 E1849.90982 
; 
; feature travel
PRIO_OFF
G0 X24.4947 Y-2.05024 ;Travel
; 
; feature fill
PRIO_ON
G1 X23.4520 Y-4.2863 E1854.74750 
; 
; feature travel
PRIO_OFF
G0 X23.94853 Y-4.2863 ;Travel
; 
; feature fill
PRIO_ON
G1 X24.4947 Y-3.1150 E1857.28153 
; 
; feature travel
PRIO_OFF
G0 X24.4947 Y-4.17982 ;Travel
; 
; feature fill
PRIO_ON
G1 X24.4450 Y-4.2863 E1857.51189 
; 
; feature travel
PRIO_OFF
G0 X-11.27909 Y4.2863 ;Travel
; 
; feature fill
PRIO_ON
G1 X-15.2766 Y-4.2863 E1876.05859 
; 
; feature travel
PRIO_OFF
G0 X-15.77308 Y-4.2863 ;Travel
; 
; feature fill
PRIO_ON
G1 X-11.7756 Y4.2863 E1894.60530 
; 
; feature travel
PRIO_OFF
G0 X-12.27213 Y4.2863 ;Travel
; 
; feature fill
PRIO_ON
G1 X-16.2696 Y-4.2863 E1913.15200 
; 
; feature travel
PRIO_OFF
G0 X-16.76612 Y-4.2863 ;Travel
; 
; feature fill
PRIO_ON
G1 X-12.7686 Y4.2863 E1931.69870 
; 
; feature travel
PRIO_OFF
G0 X-13.26517 Y4.2863 ;Travel
; 
; feature fill
PRIO_ON
G1 X-17.2626 Y-4.2863 E1950.24540 
; 
; feature travel
PRIO_OFF
G0 X-17.75916 Y-4.2863 ;Travel
; 
; feature fill
PRIO_ON
G1 X-13.7617 Y4.2863 E1968.79210 
; 
; feature travel
PRIO_OFF
G0 X-14.25821 Y4.2863 ;Travel
; 
; feature fill
PRIO_ON
G1 X-18.2557 Y-4.2863 E1987.33880 
; 
; feature travel
PRIO_OFF
G0 X-18.7522 Y-4.2863 ;Travel
; 
; feature fill
PRIO_ON
G1 X-14.7547 Y4.2863 E2005.88550 
; 
; feature travel
PRIO_OFF
G0 X-15.25125 Y4.2863 ;Travel
; 
; feature fill
PRIO_ON
G1 X-19.2487 Y-4.2863 E2024.43220 
; 
; feature travel
PRIO_OFF
G0 X-19.74524 Y-4.2863 ;Travel
; 
; feature fill
PRIO_ON
G1 X-15.7478 Y4.2863 E2042.97890 
; 
; feature travel
PRIO_OFF
G0 X-16.24429 Y4.2863 ;Travel
; 
; feature fill
PRIO_ON
G1 X-20.2418 Y-4.2863 E2061.52560 
; 
; feature travel
PRIO_OFF
G0 X-20.73828 Y-4.2863 ;Travel
; 
; feature fill
PRIO_ON
G1 X-16.7408 Y4.2863 E2080.07231 
; 
; feature travel
PRIO_OFF
G0 X-17.23733 Y4.2863 ;Travel
; 
; feature fill
PRIO_ON
G1 X-21.2348 Y-4.2863 E2098.61901 
; 
; feature travel
PRIO_OFF
G0 X-21.73132 Y-4.2863 ;Travel
; 
; feature fill
PRIO_ON
G1 X-17.7339 Y4.2863 E2117.16571 
; 
; feature travel
PRIO_OFF
G0 X-18.23037 Y4.2863 ;Travel
; 
; feature fill
PRIO_ON
G1 X-22.2278 Y-4.2863 E2135.71241 
; 
; feature travel
PRIO_OFF
G0 X-22.72436 Y-4.2863 ;Travel
; 
; feature fill
PRIO_ON
G1 X-18.7269 Y4.2863 E2154.25911 
; 
; feature travel
PRIO_OFF
G0 X-19.22341 Y4.2863 ;Travel
; 
; feature fill
PRIO_ON
G1 X-23.2209 Y-4.2863 E2172.80581 
; 
; feature travel
PRIO_OFF
G0 X-23.7174 Y-4.2863 ;Travel
; 
; feature fill
PRIO_ON
G1 X-19.7199 Y4.2863 E2191.35251 
; 
; feature travel
PRIO_OFF
G0 X-20.21645 Y4.2863 ;Travel
; 
; feature fill
PRIO_ON
G1 X-24.2139 Y-4.2863 E2209.89921 
; 
; feature travel
PRIO_OFF
G0 X-24.4947 Y-3.82365 ;Travel
; 
; feature fill
PRIO_ON
G1 X-20.7130 Y4.2863 E2227.44497 
; 
; feature travel
PRIO_OFF
G0 X-21.20949 Y4.2863 ;Travel
; 
; feature fill
PRIO_ON
G1 X-24.4947 Y-2.7589 E2242.68707 
; 
; feature travel
PRIO_OFF
G0 X-24.4947 Y-1.69407 ;Travel
; 
; feature fill
PRIO_ON
G1 X-21.7060 Y4.2863 E2255.62551 
; 
; feature travel
PRIO_OFF
G0 X-22.20253 Y4.2863 ;Travel
; 
; feature fill
PRIO_ON
G1 X-24.4947 Y-0.6293 E2266.26029 
; 
; feature travel
PRIO_OFF
G0 X-24.4947 Y0.43552 ;Travel
; 
; feature fill
PRIO_ON
G1 X-22.6990 Y4.2863 E2274.59141 
; 
; feature travel
PRIO_OFF
G0 X-23.19557 Y4.2863 ;Travel
; 
; feature fill
PRIO_ON
G1 X-24.4947 Y1.5003 E2280.61887 
; 
; feature travel
PRIO_OFF
G0 X-24.4947 Y2.5651 ;Travel
; 
; feature fill
PRIO_ON
G1 X-23.6921 Y4.2863 E2284.34267 
; 
; feature travel
PRIO_OFF
G0 X-24.18861 Y4.2863 ;Travel
; 
; feature fill
PRIO_ON
G1 X-24.4947 Y3.6299 E2285.76281 
PRIO_OFF
LayersCompleted=6
M1
; 
;========================
; layer 6, Z = 1.6800
; 
; reset extrusion
STOPRE
PRESETON(E, 0)
DO PRIO_PULSE_DISTANCE=DROP_SCALE
DO PRIO_ON_PATH_OFFSET=0.5*PRIO_PULSE_DISTANCE
;outer: (25.2604,-5.0521) (25.2604,5.0521) (-25.2604,5.0521) (-25.2604,-5.0521) (17.4604,-5.0521) holes: !
;overhangs:!
; 
; feature plane change
G0 X-24.4947 Y3.62989 Z1.68 ;Plane Change
; 
; feature travel
G0 X-17.19231 Y4.637 ;Travel
; 
; feature outer perimeter
G1 F24000 FL[E] = OuterPerimeterFrequency * DROP_SCALE * 60
PRIO_ON
G1 X-24.8453 Y4.6370 E18.00703 
G1 X-24.8453 Y-4.6370 E39.82821 
G1 X24.8453 Y-4.6370 E156.74727 
G1 X24.8453 Y4.6370 E178.56845 
G1 X-17.1923 Y4.6370 E277.48047 
; 
; feature travel
PRIO_OFF
G0 X-17.19231 Y4.286 ;Travel
; 
; feature inner perimeter
G1 F24000 FL[E] = InnerPerimeterFrequency * DROP_SCALE * 60
PRIO_ON
G1 X24.4943 Y4.2860 E354.67790 
G1 X24.4943 Y-4.2860 E370.55197 
G1 X-24.4943 Y-4.2860 E461.27160 
G1 X-24.4943 Y4.2860 E477.14567 
G1 X-17.1923 Y4.2860 E490.66788 
; 
; feature travel
PRIO_OFF
G0 X-17.21585 Y4.2863 ;Travel
; 
; feature fill
G1 F24000 FL[E] = FillFrequency * DROP_SCALE * 60
PRIO_ON
G1 X-14.0957 Y-4.2863 E508.55566 
; 
; feature travel
PRIO_OFF
G0 X-14.57456 Y-4.2863 ;Travel
; 
; feature fill
PRIO_ON
G1 X-17.6947 Y4.2863 E526.44345 
; 
; feature travel
PRIO_OFF
G0 X-18.17361 Y4.2863 ;Travel
; 
; feature fill
PRIO_ON
G1 X-15.0534 Y-4.2863 E544.33123 
; 
; feature travel
PRIO_OFF
G0 X-15.53232 Y-4.2863 ;Travel
; 
; feature fill
PRIO_ON
G1 X-18.6525 Y4.2863 E562.21902 
; 
; feature travel
PRIO_OFF
G0 X-19.13137 Y4.2863 ;Travel
; 
; feature fill
PRIO_ON
G1 X-16.0112 Y-4.2863 E580.10680 
; 
; feature travel
PRIO_OFF
G0 X-16.49008 Y-4.2863 ;Travel
; 
; feature fill
PRIO_ON
G1 X-19.6103 Y4.2863 E597.99459 
; 
; feature travel
PRIO_OFF
G0 X-20.08913 Y4.2863 ;Travel
; 
; feature fill
PRIO_ON
G1 X-16.9690 Y-4.2863 E615.88237 
; 
; feature travel
PRIO_OFF
G0 X-17.44784 Y-4.2863 ;Travel
; 
; feature fill
PRIO_ON
G1 X-20.5680 Y4.2863 E633.77016 
; 
; feature travel
PRIO_OFF
G0 X-21.04689 Y4.2863 ;Travel
; 
; feature fill
PRIO_ON
G1 X-17.9267 Y-4.2863 E651.65794 
; 
; feature travel
PRIO_OFF
G0 X-18.4056 Y-4.2863 ;Travel
; 
; feature fill
PRIO_ON
G1 X-21.5258 Y4.2863 E669.54573 
; 
; feature travel
PRIO_OFF
G0 X-22.00465 Y4.2863 ;Travel
; 
; feature fill
PRIO_ON
G1 X-18.8845 Y-4.2863 E687.43351 
; 
; feature travel
PRIO_OFF
G0 X-19.36336 Y-4.2863 ;Travel
; 
; feature fill
PRIO_ON
G1 X-22.4835 Y4.2863 E705.32130 
; 
; feature travel
PRIO_OFF
G0 X-22.96241 Y4.2863 ;Travel
; 
; feature fill
PRIO_ON
G1 X-19.8422 Y-4.2863 E723.20908 
; 
; feature travel
PRIO_OFF
G0 X-20.32112 Y-4.2863 ;Travel
; 
; feature fill
PRIO_ON
G1 X-23.4413 Y4.2863 E741.09687 
; 
; feature travel
PRIO_OFF
G0 X-23.92017 Y4.2863 ;Travel
; 
; feature fill
PRIO_ON
G1 X-20.8000 Y-4.2863 E758.98465 
; 
; feature travel
PRIO_OFF
G0 X-21.27888 Y-4.2863 ;Travel
; 
; feature fill
PRIO_ON
G1 X-24.3990 Y4.2863 E776.87244 
; 
; feature travel
PRIO_OFF
G0 X-24.4946 Y3.23312 ;Travel
; 
; feature fill
PRIO_ON
G1 X-21.7578 Y-4.2863 E792.56262 
; 
; feature travel
PRIO_OFF
G0 X-22.23664 Y-4.2863 ;Travel
; 
; feature fill
PRIO_ON
G1 X-24.4946 Y1.9174 E805.50742 
; 
; feature travel
PRIO_OFF
G0 X-24.4946 Y0.60169 ;Travel
; 
; feature fill
PRIO_ON
G1 X-22.7155 Y-4.2863 E815.70681 
; 
; feature travel
PRIO_OFF
G0 X-23.1944 Y-4.2863 ;Travel
; 
; feature fill
PRIO_ON
G1 X-24.4946 Y-0.7140 E823.16081 
; 
; feature travel
PRIO_OFF
G0 X-24.4946 Y-2.02973 ;Travel
; 
; feature fill
PRIO_ON
G1 X-23.6733 Y-4.2863 E827.86942 
; 
; feature travel
PRIO_OFF
G0 X-24.15216 Y-4.2863 ;Travel
; 
; feature fill
PRIO_ON
G1 X-24.4946 Y-3.3454 E829.83263 
; 
; feature travel
PRIO_OFF
G0 X-16.73697 Y4.2863 ;Travel
; 
; feature fill
PRIO_ON
G1 X-13.6168 Y-4.2863 E847.72042 
; 
; feature travel
PRIO_OFF
G0 X-13.13792 Y-4.2863 ;Travel
; 
; feature fill
PRIO_ON
G1 X-16.2581 Y4.2863 E865.60820 
; 
; feature travel
PRIO_OFF
G0 X-15.77921 Y4.2863 ;Travel
; 
; feature fill
PRIO_ON
G1 X-12.6590 Y-4.2863 E883.49599 
; 
; feature travel
PRIO_OFF
G0 X-12.18016 Y-4.2863 ;Travel
; 
; feature fill
PRIO_ON
G1 X-15.3003 Y4.2863 E901.38377 
; 
; feature travel
PRIO_OFF
G0 X-14.82145 Y4.2863 ;Travel
; 
; feature fill
PRIO_ON
G1 X-11.7013 Y-4.2863 E919.27156 
; 
; feature travel
PRIO_OFF
G0 X-11.2224 Y-4.2863 ;Travel
; 
; feature fill
PRIO_ON
G1 X-14.3426 Y4.2863 E937.15934 
; 
; feature travel
PRIO_OFF
G0 X-13.86369 Y4.2863 ;Travel
; 
; feature fill
PRIO_ON
G1 X-10.7435 Y-4.2863 E955.04713 
; 
; feature travel
PRIO_OFF
G0 X-10.26464 Y-4.2863 ;Travel
; 
; feature fill
PRIO_ON
G1 X-13.3848 Y4.2863 E972.93491 
; 
; feature travel
PRIO_OFF
G0 X-12.90593 Y4.2863 ;Travel
; 
; feature fill
PRIO_ON
G1 X-9.7858 Y-4.2863 E990.82270 
; 
; feature travel
PRIO_OFF
G0 X-9.30688 Y-4.2863 ;Travel
; 
; feature fill
PRIO_ON
G1 X-12.4270 Y4.2863 E1008.71048 
; 
; feature travel
PRIO_OFF
G0 X-11.94817 Y4.2863 ;Travel
; 
; feature fill
PRIO_ON
G1 X-8.8280 Y-4.2863 E1026.59827 
; 
; feature travel
PRIO_OFF
G0 X-8.34912 Y-4.2863 ;Travel
; 
; feature fill
PRIO_ON
G1 X-11.4693 Y4.2863 E1044.48605 
; 
; feature travel
PRIO_OFF
G0 X-10.99041 Y4.2863 ;Travel
; 
; feature fill
PRIO_ON
G1 X-7.8702 Y-4.2863 E1062.37384 
; 
; feature travel
PRIO_OFF
G0 X-7.39136 Y-4.2863 ;Travel
; 
; feature fill
PRIO_ON
G1 X-10.5115 Y4.2863 E1080.26162 
; 
; feature travel
PRIO_OFF
G0 X-10.03265 Y4.2863 ;Travel
; 
; feature fill
PRIO_ON
G1 X-6.9125 Y-4.2863 E1098.14941 
; 
; feature travel
PRIO_OFF
G0 X-6.4336 Y-4.2863 ;Travel
; 
; feature fill
PRIO_ON
G1 X-9.5538 Y4.2863 E1116.03719 
; 
; feature travel
PRIO_OFF
G0 X-9.07489 Y4.2863 ;Travel
; 
; feature fill
PRIO_ON
G1 X-5.9547 Y-4.2863 E1133.92498 
; 
; feature travel
PRIO_OFF
G0 X-5.47584 Y-4.2863 ;Travel
; 
; feature fill
PRIO_ON
G1 X-8.5960 Y4.2863 E1151.81276 
; 
; feature travel
PRIO_OFF
G0 X-8.11713 Y4.2863 ;Travel
; 
; feature fill
PRIO_ON
G1 X-4.9970 Y-4.2863 E1169.70055 
; 
; feature travel
PRIO_OFF
G0 X-4.51808 Y-4.2863 ;Travel
; 
; feature fill
PRIO_ON
G1 X-7.6383 Y4.2863 E1187.58833 
; 
; feature travel
PRIO_OFF
G0 X-7.15937 Y4.2863 ;Travel
; 
; feature fill
PRIO_ON
G1 X-4.0392 Y-4.2863 E1205.47612 
; 
; feature travel
PRIO_OFF
G0 X-3.56032 Y-4.2863 ;Travel
; 
; feature fill
PRIO_ON
G1 X-6.6805 Y4.2863 E1223.36390 
; 
; feature travel
PRIO_OFF
G0 X-6.20161 Y4.2863 ;Travel
; 
; feature fill
PRIO_ON
G1 X-3.0814 Y-4.2863 E1241.25169 
; 
; feature travel
PRIO_OFF
G0 X-2.60256 Y-4.2863 ;Travel
; 
; feature fill
PRIO_ON
G1 X-5.7227 Y4.2863 E1259.13947 
; 
; feature travel
PRIO_OFF
G0 X-5.24385 Y4.2863 ;Travel
; 
; feature fill
PRIO_ON
G1 X-2.1237 Y-4.2863 E1277.02726 
; 
; feature travel
PRIO_OFF
G0 X-1.6448 Y-4.2863 ;Travel
; 
; feature fill
PRIO_ON
G1 X-4.7650 Y4.2863 E1294.91504 
; 
; feature travel
PRIO_OFF
G0 X-4.28609 Y4.2863 ;Travel
; 
; feature fill
PRIO_ON
G1 X-1.1659 Y-4.2863 E1312.80283 
; 
; feature travel
PRIO_OFF
G0 X-0.68704 Y-4.2863 ;Travel
; 
; feature fill
PRIO_ON
G1 X-3.8072 Y4.2863 E1330.69061 
; 
; feature travel
PRIO_OFF
G0 X-3.32833 Y4.2863 ;Travel
; 
; feature fill
PRIO_ON
G1 X-0.2082 Y-4.2863 E1348.57840 
; 
; feature travel
PRIO_OFF
G0 X0.27072 Y-4.2863 ;Travel
; 
; feature fill
PRIO_ON
G1 X0.0000 Y-3.5425 E1349.35441 ; => originalEInc=1.55202 adjustedEInc=0.77601 density=0.5
G1 X-2.8495 Y4.2863 E1365.69017 
; 
; feature travel
PRIO_OFF
G0 X-2.37057 Y4.2863 ;Travel
; 
; feature fill
PRIO_ON
G1 X0.0000 Y-2.2268 E1379.28054 
G1 X0.7496 Y-4.2863 E1381.42925 ; => originalEInc=4.29742 adjustedEInc=2.14871 density=0.5
; 
; feature travel
PRIO_OFF
G0 X1.22848 Y-4.2863 ;Travel
; 
; feature fill
PRIO_ON
G1 X0.0000 Y-0.9111 E1384.95065 ; => originalEInc=7.04281 adjustedEInc=3.52141 density=0.5
G1 X-1.8917 Y4.2863 E1395.79562 
; 
; feature travel
PRIO_OFF
G0 X-1.41281 Y4.2863 ;Travel
; 
; feature fill
PRIO_ON
G1 X0.0000 Y0.4046 E1403.89519 
G1 X1.7074 Y-4.2863 E1408.78930 ; => originalEInc=9.78822 adjustedEInc=4.89411 density=0.5
; 
; feature travel
PRIO_OFF
G0 X2.18624 Y-4.2863 ;Travel
; 
; feature fill
PRIO_ON
G1 X0.0000 Y1.7203 E1415.05610 ; => originalEInc=12.53361 adjustedEInc=6.26680 density=0.5
G1 X-0.9339 Y4.2863 E1420.41028 
; 
; feature travel
PRIO_OFF
G0 X-0.45505 Y4.2863 ;Travel
; 
; feature fill
PRIO_ON
G1 X0.0000 Y3.0361 E1423.01906 
G1 X2.6651 Y-4.2863 E1430.65856 ; => originalEInc=15.27901 adjustedEInc=7.63950 density=0.5
; 
; feature travel
PRIO_OFF
G0 X3.144 Y-4.2863 ;Travel
; 
; feature fill
PRIO_ON
G1 X0.0238 Y4.2863 E1448.54634 
; 
; feature travel
PRIO_OFF
G0 X0.50271 Y4.2863 ;Travel
; 
; feature fill
PRIO_ON
G1 X3.6229 Y-4.2863 E1466.43413 
; 
; feature travel
PRIO_OFF
G0 X4.10176 Y-4.2863 ;Travel
; 
; feature fill
PRIO_ON
G1 X0.9816 Y4.2863 E1484.32191 
; 
; feature travel
PRIO_OFF
G0 X1.46047 Y4.2863 ;Travel
; 
; feature fill
PRIO_ON
G1 X4.5806 Y-4.2863 E1502.20970 
; 
; feature travel
PRIO_OFF
G0 X5.05952 Y-4.2863 ;Travel
; 
; feature fill
PRIO_ON
G1 X1.9393 Y4.2863 E1520.09748 
; 
; feature travel
PRIO_OFF
G0 X2.41823 Y4.2863 ;Travel
; 
; feature fill
PRIO_ON
G1 X5.5384 Y-4.2863 E1537.98527 
; 
; feature travel
PRIO_OFF
G0 X6.01728 Y-4.2863 ;Travel
; 
; feature fill
PRIO_ON
G1 X2.8971 Y4.2863 E1555.87305 
; 
; feature travel
PRIO_OFF
G0 X3.37599 Y4.2863 ;Travel
; 
; feature fill
PRIO_ON
G1 X6.4962 Y-4.2863 E1573.76084 
; 
; feature travel
PRIO_OFF
G0 X6.97504 Y-4.2863 ;Travel
; 
; feature fill
PRIO_ON
G1 X3.8549 Y4.2863 E1591.64862 
; 
; feature travel
PRIO_OFF
G0 X4.33375 Y4.2863 ;Travel
; 
; feature fill
PRIO_ON
G1 X7.4539 Y-4.2863 E1609.53641 
; 
; feature travel
PRIO_OFF
G0 X7.9328 Y-4.2863 ;Travel
; 
; feature fill
PRIO_ON
G1 X4.8126 Y4.2863 E1627.42419 
; 
; feature travel
PRIO_OFF
G0 X5.29151 Y4.2863 ;Travel
; 
; feature fill
PRIO_ON
G1 X8.4117 Y-4.2863 E1645.31198 
; 
; feature travel
PRIO_OFF
G0 X8.89056 Y-4.2863 ;Travel
; 
; feature fill
PRIO_ON
G1 X5.7704 Y4.2863 E1663.19976 
; 
; feature travel
PRIO_OFF
G0 X6.24927 Y4.2863 ;Travel
; 
; feature fill
PRIO_ON
G1 X9.3694 Y-4.2863 E1681.08755 
; 
; feature travel
PRIO_OFF
G0 X9.84832 Y-4.2863 ;Travel
; 
; feature fill
PRIO_ON
G1 X6.7282 Y4.2863 E1698.97533 
; 
; feature travel
PRIO_OFF
G0 X7.20703 Y4.2863 ;Travel
; 
; feature fill
PRIO_ON
G1 X10.3272 Y-4.2863 E1716.86312 
; 
; feature travel
PRIO_OFF
G0 X10.80608 Y-4.2863 ;Travel
; 
; feature fill
PRIO_ON
G1 X7.6859 Y4.2863 E1734.75090 
; 
; feature travel
PRIO_OFF
G0 X8.16479 Y4.2863 ;Travel
; 
; feature fill
PRIO_ON
G1 X11.2850 Y-4.2863 E1752.63869 
; 
; feature travel
PRIO_OFF
G0 X11.76384 Y-4.2863 ;Travel
; 
; feature fill
PRIO_ON
G1 X8.6437 Y4.2863 E1770.52647 
; 
; feature travel
PRIO_OFF
G0 X9.12255 Y4.2863 ;Travel
; 
; feature fill
PRIO_ON
G1 X12.2427 Y-4.2863 E1788.41426 
; 
; feature travel
PRIO_OFF
G0 X12.7216 Y-4.2863 ;Travel
; 
; feature fill
PRIO_ON
G1 X9.6014 Y4.2863 E1806.30204 
; 
; feature travel
PRIO_OFF
G0 X10.08031 Y4.2863 ;Travel
; 
; feature fill
PRIO_ON
G1 X13.2005 Y-4.2863 E1824.18983 
; 
; feature travel
PRIO_OFF
G0 X13.67936 Y-4.2863 ;Travel
; 
; feature fill
PRIO_ON
G1 X10.5592 Y4.2863 E1842.07761 
; 
; feature travel
PRIO_OFF
G0 X11.03807 Y4.2863 ;Travel
; 
; feature fill
PRIO_ON
G1 X14.1582 Y-4.2863 E1859.96540 
; 
; feature travel
PRIO_OFF
G0 X14.63712 Y-4.2863 ;Travel
; 
; feature fill
PRIO_ON
G1 X11.5169 Y4.2863 E1877.85318 
; 
; feature travel
PRIO_OFF
G0 X11.99583 Y4.2863 ;Travel
; 
; feature fill
PRIO_ON
G1 X15.1160 Y-4.2863 E1895.74097 
; 
; feature travel
PRIO_OFF
G0 X15.59488 Y-4.2863 ;Travel
; 
; feature fill
PRIO_ON
G1 X12.4747 Y4.2863 E1913.62875 
; 
; feature travel
PRIO_OFF
G0 X12.95359 Y4.2863 ;Travel
; 
; feature fill
PRIO_ON
G1 X16.0738 Y-4.2863 E1931.51654 
; 
; feature travel
PRIO_OFF
G0 X16.55264 Y-4.2863 ;Travel
; 
; feature fill
PRIO_ON
G1 X13.4325 Y4.2863 E1949.40432 
; 
; feature travel
PRIO_OFF
G0 X13.91135 Y4.2863 ;Travel
; 
; feature fill
PRIO_ON
G1 X17.0315 Y-4.2863 E1967.29211 
; 
; feature travel
PRIO_OFF
G0 X17.5104 Y-4.2863 ;Travel
; 
; feature fill
PRIO_ON
G1 X14.3902 Y4.2863 E1985.17989 
; 
; feature travel
PRIO_OFF
G0 X14.86911 Y4.2863 ;Travel
; 
; feature fill
PRIO_ON
G1 X17.9893 Y-4.2863 E2003.06768 
; 
; feature travel
PRIO_OFF
G0 X18.46816 Y-4.2863 ;Travel
; 
; feature fill
PRIO_ON
G1 X15.3480 Y4.2863 E2020.95546 
; 
; feature travel
PRIO_OFF
G0 X15.82687 Y4.2863 ;Travel
; 
; feature fill
PRIO_ON
G1 X18.9470 Y-4.2863 E2038.84325 
; 
; feature travel
PRIO_OFF
G0 X19.42592 Y-4.2863 ;Travel
; 
; feature fill
PRIO_ON
G1 X16.3057 Y4.2863 E2056.73103 
; 
; feature travel
PRIO_OFF
G0 X16.78463 Y4.2863 ;Travel
; 
; feature fill
PRIO_ON
G1 X19.9048 Y-4.2863 E2074.61882 
; 
; feature travel
PRIO_OFF
G0 X20.38368 Y-4.2863 ;Travel
; 
; feature fill
PRIO_ON
G1 X17.2635 Y4.2863 E2092.50660 
; 
; feature travel
PRIO_OFF
G0 X17.74239 Y4.2863 ;Travel
; 
; feature fill
PRIO_ON
G1 X20.8626 Y-4.2863 E2110.39439 
; 
; feature travel
PRIO_OFF
G0 X21.34144 Y-4.2863 ;Travel
; 
; feature fill
PRIO_ON
G1 X18.2213 Y4.2863 E2128.28217 
; 
; feature travel
PRIO_OFF
G0 X18.70015 Y4.2863 ;Travel
; 
; feature fill
PRIO_ON
G1 X21.8203 Y-4.2863 E2146.16996 
; 
; feature travel
PRIO_OFF
G0 X22.2992 Y-4.2863 ;Travel
; 
; feature fill
PRIO_ON
G1 X19.1790 Y4.2863 E2164.05774 
; 
; feature travel
PRIO_OFF
G0 X19.65791 Y4.2863 ;Travel
; 
; feature fill
PRIO_ON
G1 X22.7781 Y-4.2863 E2181.94553 
; 
; feature travel
PRIO_OFF
G0 X23.25696 Y-4.2863 ;Travel
; 
; feature fill
PRIO_ON
G1 X20.1368 Y4.2863 E2199.83331 
; 
; feature travel
PRIO_OFF
G0 X20.61567 Y4.2863 ;Travel
; 
; feature fill
PRIO_ON
G1 X23.7358 Y-4.2863 E2217.72110 
; 
; feature travel
PRIO_OFF
G0 X24.21472 Y-4.2863 ;Travel
; 
; feature fill
PRIO_ON
G1 X21.0946 Y4.2863 E2235.60888 
; 
; feature travel
PRIO_OFF
G0 X21.57343 Y4.2863 ;Travel
; 
; feature fill
PRIO_ON
G1 X24.4946 Y-3.7395 E2252.35579 
; 
; feature travel
PRIO_OFF
G0 X24.4946 Y-2.42383 ;Travel
; 
; feature fill
PRIO_ON
G1 X22.0523 Y4.2863 E2266.35731 
; 
; feature travel
PRIO_OFF
G0 X22.53119 Y4.2863 ;Travel
; 
; feature fill
PRIO_ON
G1 X24.4946 Y-1.1081 E2277.61343 
; 
; feature travel
PRIO_OFF
G0 X24.4946 Y0.20759 ;Travel
; 
; feature fill
PRIO_ON
G1 X23.0101 Y4.2863 E2286.12415 
; 
; feature travel
PRIO_OFF
G0 X23.48895 Y4.2863 ;Travel
; 
; feature fill
PRIO_ON
G1 X24.4946 Y1.5233 E2291.88948 
; 
; feature travel
PRIO_OFF
G0 X24.4946 Y2.83902 ;Travel
; 
; feature fill
PRIO_ON
G1 X23.9678 Y4.2863 E2294.90942 
; 
; feature travel
PRIO_OFF
G0 X24.44671 Y4.2863 ;Travel
; 
; feature fill
PRIO_ON
G1 X24.4946 Y4.1547 E2295.18396 
PRIO_OFF
LayersCompleted=7
M1
; 
;========================
; layer 7, Z = 1.9200
; 
; reset extrusion
STOPRE
PRESETON(E, 0)
DO PRIO_PULSE_DISTANCE=DROP_SCALE
DO PRIO_ON_PATH_OFFSET=0.5*PRIO_PULSE_DISTANCE
;outer: (25.2604,-5.0521) (25.2604,5.0521) (-25.2604,5.0521) (-25.2604,-5.0521) (16.2604,-5.0521) holes: !
;overhangs:!
; 
; feature plane change
G0 X24.4946 Y4.15473 Z1.92 ;Plane Change
; 
; feature travel
G0 X-7.4324 Y-4.637 ;Travel
; 
; feature outer perimeter
G1 F24000 FL[E] = OuterPerimeterFrequency * DROP_SCALE * 60
PRIO_ON
G1 X-24.8454 Y-4.6370 E40.97176 
G1 X-24.8454 Y4.6370 E62.79293 
G1 X24.8454 Y4.6370 E179.71246 
G1 X24.8454 Y-4.6370 E201.53364 
G1 X-7.4324 Y-4.6370 E277.48141 
; 
; feature travel
PRIO_OFF
G0 X-7.4324 Y-4.286 ;Travel
; 
; feature inner perimeter
G1 F24000 FL[E] = InnerPerimeterFrequency * DROP_SCALE * 60
PRIO_ON
G1 X24.4944 Y-4.2860 E336.60512 
G1 X24.4944 Y4.2860 E352.47919 
G1 X-24.4944 Y4.2860 E443.19919 
G1 X-24.4944 Y-4.2860 E459.07327 
G1 X-7.4324 Y-4.2860 E490.66956 
; 
; feature travel
PRIO_OFF
G0 X-7.27294 Y-4.2863 ;Travel
; 
; feature fill
G1 F24000 FL[E] = FillFrequency * DROP_SCALE * 60
PRIO_ON
G1 X-24.4947 Y3.7443 E527.92859 
; 
; feature travel
PRIO_OFF
G0 X-24.4947 Y3.24782 ;Travel
; 
; feature fill
PRIO_ON
G1 X-8.3377 Y-4.2863 E562.88397 
; 
; feature travel
PRIO_OFF
G0 X-9.40252 Y-4.2863 ;Travel
; 
; feature fill
PRIO_ON
G1 X-24.4947 Y2.7513 E595.53568 
; 
; feature travel
PRIO_OFF
G0 X-24.4947 Y2.25478 ;Travel
; 
; feature fill
PRIO_ON
G1 X-10.4673 Y-4.2863 E625.88373 
; 
; feature travel
PRIO_OFF
G0 X-11.53211 Y-4.2863 ;Travel
; 
; feature fill
PRIO_ON
G1 X-24.4947 Y1.7583 E653.92813 
; 
; feature travel
PRIO_OFF
G0 X-24.4947 Y1.26174 ;Travel
; 
; feature fill
PRIO_ON
G1 X-12.5969 Y-4.2863 E679.66886 
; 
; feature travel
PRIO_OFF
G0 X-13.66169 Y-4.2863 ;Travel
; 
; feature fill
PRIO_ON
G1 X-24.4947 Y0.7652 E703.10593 
; 
; feature travel
PRIO_OFF
G0 X-24.4947 Y0.2687 ;Travel
; 
; feature fill
PRIO_ON
G1 X-14.7265 Y-4.2863 E724.23935 
; 
; feature travel
PRIO_OFF
G0 X-15.79127 Y-4.2863 ;Travel
; 
; feature fill
PRIO_ON
G1 X-24.4947 Y-0.2278 E743.06910 
; 
; feature travel
PRIO_OFF
G0 X-24.4947 Y-0.72434 ;Travel
; 
; feature fill
PRIO_ON
G1 X-16.8561 Y-4.2863 E759.59520 
; 
; feature travel
PRIO_OFF
G0 X-17.92085 Y-4.2863 ;Travel
; 
; feature fill
PRIO_ON
G1 X-24.4947 Y-1.2209 E773.81763 
; 
; feature travel
PRIO_OFF
G0 X-24.4947 Y-1.71738 ;Travel
; 
; feature fill
PRIO_ON
G1 X-18.9856 Y-4.2863 E785.73640 
; 
; feature travel
PRIO_OFF
G0 X-20.05043 Y-4.2863 ;Travel
; 
; feature fill
PRIO_ON
G1 X-24.4947 Y-2.2139 E795.35152 
; 
; feature travel
PRIO_OFF
G0 X-24.4947 Y-2.71042 ;Travel
; 
; feature fill
PRIO_ON
G1 X-21.1152 Y-4.2863 E802.66297 
; 
; feature travel
PRIO_OFF
G0 X-22.18001 Y-4.2863 ;Travel
; 
; feature fill
PRIO_ON
G1 X-24.4947 Y-3.2069 E807.67077 
; 
; feature travel
PRIO_OFF
G0 X-24.4947 Y-3.70346 ;Travel
; 
; feature fill
PRIO_ON
G1 X-23.2448 Y-4.2863 E810.37490 
; 
; feature travel
PRIO_OFF
G0 X-24.30959 Y-4.2863 ;Travel
; 
; feature fill
PRIO_ON
G1 X-24.4947 Y-4.2000 E810.77537 
; 
; feature travel
PRIO_OFF
G0 X-24.4947 Y4.24086 ;Travel
; 
; feature fill
PRIO_ON
G1 X-6.2081 Y-4.2863 E850.33807 
; 
; feature travel
PRIO_OFF
G0 X-5.14336 Y-4.2863 ;Travel
; 
; feature fill
PRIO_ON
G1 X-23.5274 Y4.2863 E890.11160 
; 
; feature travel
PRIO_OFF
G0 X-22.46257 Y4.2863 ;Travel
; 
; feature fill
PRIO_ON
G1 X-4.0786 Y-4.2863 E929.88513 
; 
; feature travel
PRIO_OFF
G0 X-3.01378 Y-4.2863 ;Travel
; 
; feature fill
PRIO_ON
G1 X-21.3978 Y4.2863 E969.65865 
; 
; feature travel
PRIO_OFF
G0 X-20.33299 Y4.2863 ;Travel
; 
; feature fill
PRIO_ON
G1 X-1.9490 Y-4.2863 E1009.43218 
; 
; feature travel
PRIO_OFF
G0 X-0.8842 Y-4.2863 ;Travel
; 
; feature fill
PRIO_ON
G1 X-19.2682 Y4.2863 E1049.20571 
; 
; feature travel
PRIO_OFF
G0 X-18.20341 Y4.2863 ;Travel
; 
; feature fill
PRIO_ON
G1 X0.0000 Y-4.2021 E1088.58854 
G1 X0.1806 Y-4.2863 E1088.78389 ; => originalEInc=0.39070 adjustedEInc=0.19535 density=0.5
; 
; feature travel
PRIO_OFF
G0 X1.24538 Y-4.2863 ;Travel
; 
; feature fill
PRIO_ON
G1 X-0.0000 Y-3.7056 E1090.13107 ; => originalEInc=2.69436 adjustedEInc=1.34718 density=0.5
G1 X-17.1386 Y4.2863 E1127.21024 
; 
; feature travel
PRIO_OFF
G0 X-16.07383 Y4.2863 ;Travel
; 
; feature fill
PRIO_ON
G1 X0.0000 Y-3.2091 E1161.98575 
G1 X2.3102 Y-4.2863 E1164.48476 ; => originalEInc=4.99802 adjustedEInc=2.49901 density=0.5
; 
; feature travel
PRIO_OFF
G0 X3.37496 Y-4.2863 ;Travel
; 
; feature fill
PRIO_ON
G1 X0.0000 Y-2.7125 E1168.13560 ; => originalEInc=7.30168 adjustedEInc=3.65084 density=0.5
G1 X-15.0090 Y4.2863 E1200.60745 
; 
; feature travel
PRIO_OFF
G0 X-13.94424 Y4.2863 ;Travel
; 
; feature fill
PRIO_ON
G1 X0.0000 Y-2.2160 E1230.77562 
G1 X4.4398 Y-4.2863 E1235.57830 ; => originalEInc=9.60536 adjustedEInc=4.80268 density=0.5
; 
; feature travel
PRIO_OFF
G0 X5.50455 Y-4.2863 ;Travel
; 
; feature fill
PRIO_ON
G1 X0.0000 Y-1.7195 E1241.53280 ; => originalEInc=11.90901 adjustedEInc=5.95451 density=0.5
G1 X-12.8795 Y4.2863 E1269.39731 
; 
; feature travel
PRIO_OFF
G0 X-11.81466 Y4.2863 ;Travel
; 
; feature fill
PRIO_ON
G1 X0.0000 Y-1.2230 E1294.95816 
G1 X6.5693 Y-4.2863 E1302.06450 ; => originalEInc=14.21268 adjustedEInc=7.10634 density=0.5
; 
; feature travel
PRIO_OFF
G0 X7.63413 Y-4.2863 ;Travel
; 
; feature fill
PRIO_ON
G1 X-0.0000 Y-0.7264 E1310.32267 ; => originalEInc=16.51633 adjustedEInc=8.25817 density=0.5
G1 X-10.7499 Y4.2863 E1333.57986 
; 
; feature travel
PRIO_OFF
G0 X-9.68508 Y4.2863 ;Travel
; 
; feature fill
PRIO_ON
G1 X0.0000 Y-0.2299 E1354.53340 
G1 X8.6989 Y-4.2863 E1363.94340 ; => originalEInc=18.81999 adjustedEInc=9.41000 density=0.5
; 
; feature travel
PRIO_OFF
G0 X9.76371 Y-4.2863 ;Travel
; 
; feature fill
PRIO_ON
G1 X0.0000 Y0.2666 E1374.50522 ; => originalEInc=21.12365 adjustedEInc=10.56183 density=0.5
G1 X-8.6203 Y4.2863 E1393.15510 
; 
; feature travel
PRIO_OFF
G0 X-7.5555 Y4.2863 ;Travel
; 
; feature fill
PRIO_ON
G1 X0.0000 Y0.7631 E1409.50132 
G1 X10.8285 Y-4.2863 E1421.21498 ; => originalEInc=23.42731 adjustedEInc=11.71366 density=0.5
; 
; feature travel
PRIO_OFF
G0 X11.89329 Y-4.2863 ;Travel
; 
; feature fill
PRIO_ON
G1 X0.0000 Y1.2596 E1434.08046 ; => originalEInc=25.73097 adjustedEInc=12.86548 density=0.5
G1 X-6.4907 Y4.2863 E1448.12302 
; 
; feature travel
PRIO_OFF
G0 X-5.42592 Y4.2863 ;Travel
; 
; feature fill
PRIO_ON
G1 X0.0000 Y1.7562 E1459.86193 
G1 X12.9581 Y-4.2863 E1473.87924 ; => originalEInc=28.03463 adjustedEInc=14.01731 density=0.5
; 
; feature travel
PRIO_OFF
G0 X14.02287 Y-4.2863 ;Travel
; 
; feature fill
PRIO_ON
G1 X0.0000 Y2.2527 E1489.04838 ; => originalEInc=30.33828 adjustedEInc=15.16914 density=0.5
G1 X-4.3611 Y4.2863 E1498.48362 
; 
; feature travel
PRIO_OFF
G0 X-3.29634 Y4.2863 ;Travel
; 
; feature fill
PRIO_ON
G1 X0.0000 Y2.7492 E1505.61521 
G1 X15.0877 Y-4.2863 E1521.93618 ; => originalEInc=32.64194 adjustedEInc=16.32097 density=0.5
; 
; feature travel
PRIO_OFF
G0 X16.15245 Y-4.2863 ;Travel
; 
; feature fill
PRIO_ON
G1 X0.0000 Y3.2457 E1539.40898 ; => originalEInc=34.94560 adjustedEInc=17.47280 density=0.5
G1 X-2.2315 Y4.2863 E1544.23691 
; 
; feature travel
PRIO_OFF
G0 X-1.16676 Y4.2863 ;Travel
; 
; feature fill
PRIO_ON
G1 X0.0000 Y3.7422 E1546.76118 
G1 X17.2172 Y-4.2863 E1565.38581 ; => originalEInc=37.24926 adjustedEInc=18.62463 density=0.5
; 
; feature travel
PRIO_OFF
G0 X18.28203 Y-4.2863 ;Travel
; 
; feature fill
PRIO_ON
G1 X0.0000 Y4.2388 E1585.16227 ; => originalEInc=39.55292 adjustedEInc=19.77646 density=0.5
G1 X-0.1020 Y4.2863 E1585.38288 
; 
; feature travel
PRIO_OFF
G0 X0.96283 Y4.2863 ;Travel
; 
; feature fill
PRIO_ON
G1 X19.3468 Y-4.2863 E1625.15641 
; 
; feature travel
PRIO_OFF
G0 X20.41162 Y-4.2863 ;Travel
; 
; feature fill
PRIO_ON
G1 X2.0276 Y4.2863 E1664.92994 
; 
; feature travel
PRIO_OFF
G0 X3.09241 Y4.2863 ;Travel
; 
; feature fill
PRIO_ON
G1 X21.4764 Y-4.2863 E1704.70347 
; 
; feature travel
PRIO_OFF
G0 X22.5412 Y-4.2863 ;Travel
; 
; feature fill
PRIO_ON
G1 X4.1572 Y4.2863 E1744.47700 
; 
; feature travel
PRIO_OFF
G0 X5.22199 Y4.2863 ;Travel
; 
; feature fill
PRIO_ON
G1 X23.6060 Y-4.2863 E1784.25052 
; 
; feature travel
PRIO_OFF
G0 X24.4947 Y-4.20419 ;Travel
; 
; feature fill
PRIO_ON
G1 X6.2868 Y4.2863 E1823.64311 
; 
; feature travel
PRIO_OFF
G0 X7.35157 Y4.2863 ;Travel
; 
; feature fill
PRIO_ON
G1 X24.4947 Y-3.7077 E1860.73203 
; 
; feature travel
PRIO_OFF
G0 X24.4947 Y-3.21115 ;Travel
; 
; feature fill
PRIO_ON
G1 X8.4164 Y4.2863 E1895.51730 
; 
; feature travel
PRIO_OFF
G0 X9.48115 Y4.2863 ;Travel
; 
; feature fill
PRIO_ON
G1 X24.4947 Y-2.7146 E1927.99890 
; 
; feature travel
PRIO_OFF
G0 X24.4947 Y-2.21811 ;Travel
; 
; feature fill
PRIO_ON
G1 X10.5459 Y4.2863 E1958.17685 
; 
; feature travel
PRIO_OFF
G0 X11.61073 Y4.2863 ;Travel
; 
; feature fill
PRIO_ON
G1 X24.4947 Y-1.7216 E1986.05113 
; 
; feature travel
PRIO_OFF
G0 X24.4947 Y-1.22507 ;Travel
; 
; feature fill
PRIO_ON
G1 X12.6755 Y4.2863 E2011.62176 
; 
; feature travel
PRIO_OFF
G0 X13.74031 Y4.2863 ;Travel
; 
; feature fill
PRIO_ON
G1 X24.4947 Y-0.7286 E2034.88872 
; 
; feature travel
PRIO_OFF
G0 X24.4947 Y-0.23203 ;Travel
; 
; feature fill
PRIO_ON
G1 X14.8051 Y4.2863 E2055.85203 
; 
; feature travel
PRIO_OFF
G0 X15.8699 Y4.2863 ;Travel
; 
; feature fill
PRIO_ON
G1 X24.4947 Y0.2645 E2074.51167 
; 
; feature travel
PRIO_OFF
G0 X24.4947 Y0.76101 ;Travel
; 
; feature fill
PRIO_ON
G1 X16.9347 Y4.2863 E2090.86766 
; 
; feature travel
PRIO_OFF
G0 X17.99948 Y4.2863 ;Travel
; 
; feature fill
PRIO_ON
G1 X24.4947 Y1.2575 E2104.91999 
; 
; feature travel
PRIO_OFF
G0 X24.4947 Y1.75405 ;Travel
; 
; feature fill
PRIO_ON
G1 X19.0643 Y4.2863 E2116.66865 
; 
; feature travel
PRIO_OFF
G0 X20.12906 Y4.2863 ;Travel
; 
; feature fill
PRIO_ON
G1 X24.4947 Y2.2506 E2126.11366 
; 
; feature travel
PRIO_OFF
G0 X24.4947 Y2.74709 ;Travel
; 
; feature fill
PRIO_ON
G1 X21.1939 Y4.2863 E2133.25500 
; 
; feature travel
PRIO_OFF
G0 X22.25864 Y4.2863 ;Travel
; 
; feature fill
PRIO_ON
G1 X24.4947 Y3.2436 E2138.09269 
; 
; feature travel
PRIO_OFF
G0 X24.4947 Y3.74013 ;Travel
; 
; feature fill
PRIO_ON
G1 X23.3234 Y4.2863 E2140.62671 
; 
; feature travel
PRIO_OFF
G0 X24.38822 Y4.2863 ;Travel
; 
; feature fill
PRIO_ON
G1 X24.4947 Y4.2367 E2140.85708 
PRIO_OFF
LayersCompleted=8
M1
; 
;========================
; layer 8, Z = 2.1600
; 
; reset extrusion
STOPRE
PRESETON(E, 0)
DO PRIO_PULSE_DISTANCE=DROP_SCALE
DO PRIO_ON_PATH_OFFSET=0.5*PRIO_PULSE_DISTANCE
;outer: (25.2604,-5.0521) (25.2604,5.0521) (-25.2604,5.0521) (-25.2604,-5.0521) (15.0604,-5.0521) holes: !
;overhangs:!
; 
; feature plane change
G0 X24.4947 Y4.23665 Z2.16 ;Plane Change
; 
; feature travel
G0 X-14.36772 Y-4.637 ;Travel
; 
; feature outer perimeter
G1 F24000 FL[E] = OuterPerimeterFrequency * DROP_SCALE * 60
PRIO_ON
G1 X24.8454 Y-4.6370 E92.26617 
G1 X24.8454 Y4.6370 E114.08734 
G1 X-24.8454 Y4.6370 E231.00687 
G1 X-24.8454 Y-4.6370 E252.82805 
G1 X-14.3677 Y-4.6370 E277.48141 
; 
; feature travel
PRIO_OFF
G0 X-14.36772 Y-4.286 ;Travel
; 
; feature inner perimeter
G1 F24000 FL[E] = InnerPerimeterFrequency * DROP_SCALE * 60
PRIO_ON
G1 X-24.4944 Y-4.2860 E296.23452 
G1 X-24.4944 Y4.2860 E312.10860 
G1 X24.4944 Y4.2860 E402.82860 
G1 X24.4944 Y-4.2860 E418.70267 
G1 X-14.3677 Y-4.2860 E490.66956 
; 
; feature travel
PRIO_OFF
G0 X-15.02335 Y-4.2863 ;Travel
; 
; feature fill
G1 F24000 FL[E] = FillFrequency * DROP_SCALE * 60
PRIO_ON
G1 X-0.0000 Y1.1818 E522.01764 
G1 X8.5297 Y4.2863 E530.91674 ; => originalEInc=17.79821 adjustedEInc=8.89911 density=0.5
; 
; feature travel
PRIO_OFF
G0 X9.84538 Y4.2863 ;Travel
; 
; feature fill
PRIO_ON
G1 X0.0000 Y0.7029 E541.18854 ; => originalEInc=20.54360 adjustedEInc=10.27180 density=0.5
G1 X-13.7076 Y-4.2863 E569.79122 
; 
; feature travel
PRIO_OFF
G0 X-12.39193 Y-4.2863 ;Travel
; 
; feature fill
PRIO_ON
G1 X0.0000 Y0.2240 E595.64852 
G1 X11.1611 Y4.2863 E607.29302 ; => originalEInc=23.28900 adjustedEInc=11.64450 density=0.5
; 
; feature travel
PRIO_OFF
G0 X12.47681 Y4.2863 ;Travel
; 
; feature fill
PRIO_ON
