;---BEGIN HEADER
; Generated by DropletSlicer
; Version: 3.4.4
; Date: Wednesday, May 29, 2024
; Time: 04:21:42 PM
G64 ;continuous path mode
G71 ;millimeters
G56 ;origin at center
OVR=100
OVRRAP=20
DO PRIO_ON_PATH_OFFSET=0.5*PRIO_PULSE_DISTANCE
RECOMMENDED_RECIPE="4008 Aluminum Wire"
CheckRecommendedRecipe
BUILDPROCESSORINTERFACEVERSION=1177
CheckBPVersion
OuterPerimeterFrequency=300
InnerPerimeterFrequency=400
ThinFeatureFrequency=300
UnsupportedStepoutFrequency=300
SupportedStepoutFrequency=300
FillFrequency=400
SupportWallFrequency=100
SupportPillarFrequency=100
;BUILDPROCESSORINTERFACEVERSION=1177
PART_MASS_CONSUMPTION=0
SUPPORT_MASS_CONSUMPTION=0
G0 X0 Y0 ; cartesianDistance=0.00000 (reset z)
MSG("Print Started")
;---END HEADER
;---BEGIN PRINT STATISTICS
;TOTAL WIRE FEED ESTIMATE:
;    Total Drops: 97,460.43
;      Total Mass: 14.13 g
;    Part Drops: 97,460.43
;      Part Mass: 14.13 g
;    Support Drops: 0.00
;      Support Mass: 0.00 g
;    Part Density: 100.0%
;---END PRINT STATISTICS
;XY Extents: [-24.845 -4.637] [24.845 4.637]
;NaiveEstimatedPrintTime=483.1230151233684
;SupportedStepoutFrequency=300
EstimatedPrintTime=453.9104919433594
;ZCount = 1
;ExtraChevronOffset = 10
NumberOfLayers=42
LayersCompleted=0
;Mass values below are in kilograms
TOTAL_MASS=0.014131762
PART_MASS=0.014131762
SUPPORT_MASS=0.000000000
CheckMass
DO PRIO_PULSE_DISTANCE=DROP_SCALE
DO PRIO_ON_PATH_OFFSET=0.5*PRIO_PULSE_DISTANCE
PARAM_SETUP
;ChunkSize=5
; 
;========================
; layer 0, Z = 0.2400
; 
; reset extrusion
STOPRE
PRESETON(E, 0)
DO PRIO_PULSE_DISTANCE=DROP_SCALE
DO PRIO_ON_PATH_OFFSET=0.5*PRIO_PULSE_DISTANCE
FEATURE_TYPE=0
;outer: (25.2604,-5.0521) (25.2604,5.0521) (-25.2604,5.0521) (-25.2604,-5.0521) (24.6604,-5.0521) holes: !
;overhangs:!
; 
; feature plane change
G0 X0 Y0 Z0.24 ; cartesianDistance=0.00000 (Plane Change)
; 
; feature travel
G0 X2.30853 Y4.637 ; cartesianDistance=5.17987 (Travel)
; 
; feature outer perimeter
G1 F24000 FL[E] = OuterPerimeterFrequency * DROP_SCALE * 60
DO PRIO_PULSE_DISTANCE=DROP_SCALE
DO PRIO_ON_PATH_OFFSET=0.5*PRIO_PULSE_DISTANCE
PRIO_ON
G1 X-24.8454 Y4.6370 E63.89160 ; EInc=63.89160 cartesianDistance=27.15393 angle=90.000 pulseDistance=0.42500 => originalEInc=63.89160 adjustedEInc=63.89160 density=N/A
G1 X-24.8454 Y-4.6370 E85.71278 ; EInc=21.82118 cartesianDistance=9.27400 angle=90.000 pulseDistance=0.42500 => originalEInc=21.82118 adjustedEInc=21.82118 density=N/A
G1 X24.8454 Y-4.6370 E202.63231 ; EInc=116.91953 cartesianDistance=49.69080 angle=90.000 pulseDistance=0.42500 => originalEInc=116.91953 adjustedEInc=116.91953 density=N/A
G1 X24.8454 Y4.6370 E224.45349 ; EInc=21.82118 cartesianDistance=9.27400 angle=90.000 pulseDistance=0.42500 => originalEInc=21.82118 adjustedEInc=21.82118 density=N/A
G1 X2.3085 Y4.6370 E277.48141 ; EInc=53.02793 cartesianDistance=22.53687 angle=180.000 pulseDistance=0.42500 => originalEInc=53.02792 adjustedEInc=53.02792 density=N/A
; 
; feature travel
PRIO_OFF
G0 X2.30853 Y4.286 ; cartesianDistance=0.35100 (Travel)
; 
; feature inner perimeter
G1 F24000 FL[E] = InnerPerimeterFrequency * DROP_SCALE * 60
PRIO_ON
G1 X24.4944 Y4.2860 E318.56635 ; EInc=41.08494 cartesianDistance=22.18587 angle=90.000 pulseDistance=0.54000 => originalEInc=41.08494 adjustedEInc=41.08494 density=N/A
G1 X24.4944 Y-4.2860 E334.44043 ; EInc=15.87407 cartesianDistance=8.57200 angle=90.000 pulseDistance=0.54000 => originalEInc=15.87408 adjustedEInc=15.87408 density=N/A
G1 X-24.4944 Y-4.2860 E425.16043 ; EInc=90.72000 cartesianDistance=48.98880 angle=90.000 pulseDistance=0.54000 => originalEInc=90.72000 adjustedEInc=90.72000 density=N/A
G1 X-24.4944 Y4.2860 E441.03450 ; EInc=15.87407 cartesianDistance=8.57200 angle=90.000 pulseDistance=0.54000 => originalEInc=15.87407 adjustedEInc=15.87407 density=N/A
G1 X2.3085 Y4.2860 E490.66956 ; EInc=49.63506 cartesianDistance=26.80293 angle=180.000 pulseDistance=0.54000 => originalEInc=49.63506 adjustedEInc=49.63506 density=N/A
; 
; feature travel
PRIO_OFF
G0 X1.95111 Y4.2863 ; cartesianDistance=0.35742 (Travel)
; 
; feature fill
G1 F24000 FL[E] = FillFrequency * DROP_SCALE * 60
PRIO_ON
G1 X0.0000 Y3.5762 E492.70518 ; originalEInc=4.07123 adjustedEInc=2.03562 density=0.5
G1 X-21.6019 Y-4.2863 E537.78023 ; EInc=49.14629 cartesianDistance=25.06461 angle=0.000 pulseDistance=0.51000 => originalEInc=45.07506 adjustedEInc=45.07506 density=N/A
; 
; feature travel
PRIO_OFF
G0 X-20.2862 Y-4.2863 ; cartesianDistance=1.31571 (Travel)
; 
; feature fill
PRIO_ON
G1 X0.0000 Y3.0973 E580.10989 ; originalEInc=42.32966 adjustedEInc=42.32966 density=N/A
G1 X3.2668 Y4.2863 E583.51820 ; EInc=49.14629 cartesianDistance=25.06461 angle=0.000 pulseDistance=0.51000 => originalEInc=6.81662 adjustedEInc=3.40831 density=0.5
; 
; feature travel
PRIO_OFF
G0 X4.58253 Y4.2863 ; cartesianDistance=1.31571 (Travel)
; 
; feature fill
PRIO_ON
G1 X0.0000 Y2.6184 E588.29921 ; originalEInc=9.56202 adjustedEInc=4.78101 density=0.5
G1 X-18.9705 Y-4.2863 E627.88348 ; EInc=49.14629 cartesianDistance=25.06461 angle=0.000 pulseDistance=0.51000 => originalEInc=39.58427 adjustedEInc=39.58427 density=N/A
; 
; feature travel
PRIO_OFF
G0 X-17.65478 Y-4.2863 ; cartesianDistance=1.31571 (Travel)
; 
; feature fill
PRIO_ON
G1 X0.0000 Y2.1395 E664.72234 ; originalEInc=36.83886 adjustedEInc=36.83886 density=N/A
G1 X5.8982 Y4.2863 E670.87605 ; EInc=49.14629 cartesianDistance=25.06461 angle=0.000 pulseDistance=0.51000 => originalEInc=12.30742 adjustedEInc=6.15371 density=0.5
; 
; feature travel
PRIO_OFF
G0 X7.21396 Y4.2863 ; cartesianDistance=1.31571 (Travel)
; 
; feature fill
PRIO_ON
G1 X0.0000 Y1.6606 E678.40246 ; originalEInc=15.05281 adjustedEInc=7.52641 density=0.5
G1 X-16.3391 Y-4.2863 E712.49594 ; EInc=49.14629 cartesianDistance=25.06461 angle=0.000 pulseDistance=0.51000 => originalEInc=34.09348 adjustedEInc=34.09348 density=N/A
; 
; feature travel
PRIO_OFF
G0 X-15.02335 Y-4.2863 ; cartesianDistance=1.31571 (Travel)
; 
; feature fill
PRIO_ON
G1 X-0.0000 Y1.1818 E743.84401 ; originalEInc=31.34807 adjustedEInc=31.34807 density=N/A
G1 X8.5297 Y4.2863 E752.74311 ; EInc=49.14629 cartesianDistance=25.06461 angle=0.000 pulseDistance=0.51000 => originalEInc=17.79821 adjustedEInc=8.89910 density=0.5
; 
; feature travel
PRIO_OFF
G0 X9.84538 Y4.2863 ; cartesianDistance=1.31571 (Travel)
; 
; feature fill
PRIO_ON
G1 X0.0000 Y0.7029 E763.01492 ; originalEInc=20.54360 adjustedEInc=10.27180 density=0.5
G1 X-13.7076 Y-4.2863 E791.61760 ; EInc=49.14629 cartesianDistance=25.06461 angle=0.000 pulseDistance=0.51000 => originalEInc=28.60269 adjustedEInc=28.60269 density=N/A
; 
; feature travel
PRIO_OFF
G0 X-12.39193 Y-4.2863 ; cartesianDistance=1.31571 (Travel)
; 
; feature fill
PRIO_ON
G1 X0.0000 Y0.2240 E817.47489 ; originalEInc=25.85729 adjustedEInc=25.85729 density=N/A
G1 X11.1611 Y4.2863 E829.11939 ; EInc=49.14629 cartesianDistance=25.06461 angle=0.000 pulseDistance=0.51000 => originalEInc=23.28899 adjustedEInc=11.64450 density=0.5
; 
; feature travel
PRIO_OFF
G0 X12.47681 Y4.2863 ; cartesianDistance=1.31571 (Travel)
; 
; feature fill
PRIO_ON
G1 X0.0000 Y-0.2549 E842.13658 ; originalEInc=26.03440 adjustedEInc=13.01720 density=0.5
G1 X-11.0762 Y-4.2863 E865.24848 ; EInc=49.14629 cartesianDistance=25.06461 angle=0.000 pulseDistance=0.51000 => originalEInc=23.11189 adjustedEInc=23.11189 density=N/A
; 
; feature travel
PRIO_OFF
G0 X-9.76051 Y-4.2863 ; cartesianDistance=1.31571 (Travel)
; 
; feature fill
PRIO_ON
G1 X-0.0000 Y-0.7338 E885.61498 ; originalEInc=20.36650 adjustedEInc=20.36650 density=N/A
G1 X13.7925 Y4.2863 E900.00487 ; EInc=49.14629 cartesianDistance=25.06461 angle=0.000 pulseDistance=0.51000 => originalEInc=28.77978 adjustedEInc=14.38989 density=0.5
; 
; feature travel
PRIO_OFF
G0 X15.10823 Y4.2863 ; cartesianDistance=1.31571 (Travel)
; 
; feature fill
PRIO_ON
G1 X0.0000 Y-1.2126 E915.76746 ; originalEInc=31.52519 adjustedEInc=15.76260 density=0.5
G1 X-8.4448 Y-4.2863 E933.38856 ; EInc=49.14629 cartesianDistance=25.06461 angle=0.000 pulseDistance=0.51000 => originalEInc=17.62110 adjustedEInc=17.62110 density=N/A
; 
; feature travel
PRIO_OFF
G0 X-7.12908 Y-4.2863 ; cartesianDistance=1.31571 (Travel)
; 
; feature fill
PRIO_ON
G1 X0.0000 Y-1.6915 E948.26427 ; originalEInc=14.87571 adjustedEInc=14.87571 density=N/A
G1 X16.4239 Y4.2863 E965.39956 ; EInc=49.14629 cartesianDistance=25.06461 angle=0.000 pulseDistance=0.51000 => originalEInc=34.27058 adjustedEInc=17.13529 density=0.5
; 
; feature travel
PRIO_OFF
G0 X17.73965 Y4.2863 ; cartesianDistance=1.31571 (Travel)
; 
; feature fill
PRIO_ON
G1 X0.0000 Y-2.1704 E983.90754 ; originalEInc=37.01597 adjustedEInc=18.50798 density=0.5
G1 X-5.8134 Y-4.2863 E996.03786 ; EInc=49.14629 cartesianDistance=25.06461 angle=0.000 pulseDistance=0.51000 => originalEInc=12.13031 adjustedEInc=12.13031 density=N/A
; 
; feature travel
PRIO_OFF
G0 X-4.49766 Y-4.2863 ; cartesianDistance=1.31571 (Travel)
; 
; feature fill
PRIO_ON
G1 X0.0000 Y-2.6493 E1005.42278 ; originalEInc=9.38492 adjustedEInc=9.38492 density=N/A
G1 X19.0554 Y4.2863 E1025.30346 ; EInc=49.14629 cartesianDistance=25.06461 angle=0.000 pulseDistance=0.51000 => originalEInc=39.76137 adjustedEInc=19.88068 density=0.5
; 
; feature travel
PRIO_OFF
G0 X20.37108 Y4.2863 ; cartesianDistance=1.31571 (Travel)
; 
; feature fill
PRIO_ON
G1 X0.0000 Y-3.1282 E1046.55684 ; originalEInc=42.50675 adjustedEInc=21.25338 density=0.5
G1 X-3.1820 Y-4.2863 E1053.19637 ; EInc=49.14629 cartesianDistance=25.06461 angle=0.000 pulseDistance=0.51000 => originalEInc=6.63953 adjustedEInc=6.63953 density=N/A
; 
; feature travel
PRIO_OFF
G0 X-1.86623 Y-4.2863 ; cartesianDistance=1.31571 (Travel)
; 
; feature fill
PRIO_ON
G1 X0.0000 Y-3.6070 E1057.09049 ; originalEInc=3.89412 adjustedEInc=3.89412 density=N/A
G1 X21.6868 Y4.2863 E1079.71657 ; EInc=49.14629 cartesianDistance=25.06461 angle=0.000 pulseDistance=0.51000 => originalEInc=45.25217 adjustedEInc=22.62609 density=0.5
; 
; feature travel
PRIO_OFF
G0 X23.0025 Y4.2863 ; cartesianDistance=1.31571 (Travel)
; 
; feature fill
PRIO_ON
G1 X0.0000 Y-4.0859 E1103.71535 ; originalEInc=47.99755 adjustedEInc=23.99878 density=0.5
G1 X-0.5505 Y-4.2863 E1104.86408 ; EInc=49.14629 cartesianDistance=25.06461 angle=0.000 pulseDistance=0.51000 => originalEInc=1.14873 adjustedEInc=1.14873 density=N/A
; 
; feature travel
PRIO_OFF
G0 X0.76519 Y-4.2863 ; cartesianDistance=1.31571 (Travel)
; 
; feature fill
PRIO_ON
G1 X24.3182 Y4.2863 E1154.01037 ; EInc=49.14629 cartesianDistance=25.06461 angle=0.000 pulseDistance=0.51000 => originalEInc=49.14629 adjustedEInc=49.14629 density=N/A
; 
; feature travel
PRIO_OFF
G0 X24.4947 Y3.87166 ; cartesianDistance=0.45064 (Travel)
; 
; feature fill
PRIO_ON
G1 X2.0809 Y-4.2863 E1200.77952 ; EInc=46.76915 cartesianDistance=23.85227 angle=0.000 pulseDistance=0.51000 => originalEInc=46.76915 adjustedEInc=46.76915 density=N/A
; 
; feature travel
PRIO_OFF
G0 X3.39661 Y-4.2863 ; cartesianDistance=1.31571 (Travel)
; 
; feature fill
PRIO_ON
G1 X24.4947 Y3.3928 E1244.80327 ; EInc=44.02375 cartesianDistance=22.45211 angle=0.000 pulseDistance=0.51000 => originalEInc=44.02375 adjustedEInc=44.02375 density=N/A
; 
; feature travel
PRIO_OFF
G0 X24.4947 Y2.9139 ; cartesianDistance=0.47888 (Travel)
; 
; feature fill
PRIO_ON
G1 X4.7123 Y-4.2863 E1286.08163 ; EInc=41.27836 cartesianDistance=21.05196 angle=0.000 pulseDistance=0.51000 => originalEInc=41.27836 adjustedEInc=41.27836 density=N/A
; 
; feature travel
PRIO_OFF
G0 X6.02804 Y-4.2863 ; cartesianDistance=1.31571 (Travel)
; 
; feature fill
PRIO_ON
G1 X24.4947 Y2.4350 E1324.61460 ; EInc=38.53296 cartesianDistance=19.65181 angle=0.000 pulseDistance=0.51000 => originalEInc=38.53297 adjustedEInc=38.53297 density=N/A
; 
; feature travel
PRIO_OFF
G0 X24.4947 Y1.95614 ; cartesianDistance=0.47888 (Travel)
; 
; feature fill
PRIO_ON
G1 X7.3438 Y-4.2863 E1360.40217 ; EInc=35.78757 cartesianDistance=18.25166 angle=0.000 pulseDistance=0.51000 => originalEInc=35.78757 adjustedEInc=35.78757 density=N/A
; 
; feature travel
PRIO_OFF
G0 X8.65946 Y-4.2863 ; cartesianDistance=1.31571 (Travel)
; 
; feature fill
PRIO_ON
G1 X24.4947 Y1.4773 E1393.44434 ; EInc=33.04217 cartesianDistance=16.85151 angle=0.000 pulseDistance=0.51000 => originalEInc=33.04217 adjustedEInc=33.04217 density=N/A
; 
; feature travel
PRIO_OFF
G0 X24.4947 Y0.99838 ; cartesianDistance=0.47888 (Travel)
; 
; feature fill
PRIO_ON
G1 X9.9752 Y-4.2863 E1423.74112 ; EInc=30.29678 cartesianDistance=15.45136 angle=0.000 pulseDistance=0.51000 => originalEInc=30.29678 adjustedEInc=30.29678 density=N/A
; 
; feature travel
PRIO_OFF
G0 X11.29089 Y-4.2863 ; cartesianDistance=1.31571 (Travel)
; 
; feature fill
PRIO_ON
G1 X24.4947 Y0.5195 E1451.29250 ; EInc=27.55138 cartesianDistance=14.05121 angle=0.000 pulseDistance=0.51000 => originalEInc=27.55138 adjustedEInc=27.55138 density=N/A
; 
; feature travel
PRIO_OFF
G0 X24.4947 Y0.04062 ; cartesianDistance=0.47888 (Travel)
; 
; feature fill
PRIO_ON
G1 X12.6066 Y-4.2863 E1476.09849 ; EInc=24.80599 cartesianDistance=12.65105 angle=0.000 pulseDistance=0.51000 => originalEInc=24.80599 adjustedEInc=24.80599 density=N/A
; 
; feature travel
PRIO_OFF
G0 X13.92231 Y-4.2863 ; cartesianDistance=1.31571 (Travel)
; 
; feature fill
PRIO_ON
G1 X24.4947 Y-0.4383 E1498.15909 ; EInc=22.06059 cartesianDistance=11.25090 angle=0.000 pulseDistance=0.51000 => originalEInc=22.06060 adjustedEInc=22.06060 density=N/A
; 
; feature travel
PRIO_OFF
G0 X24.4947 Y-0.91714 ; cartesianDistance=0.47888 (Travel)
; 
; feature fill
PRIO_ON
G1 X15.2380 Y-4.2863 E1517.47429 ; EInc=19.31520 cartesianDistance=9.85075 angle=0.000 pulseDistance=0.51000 => originalEInc=19.31520 adjustedEInc=19.31520 density=N/A
; 
; feature travel
PRIO_OFF
G0 X16.55373 Y-4.2863 ; cartesianDistance=1.31571 (Travel)
; 
; feature fill
PRIO_ON
G1 X24.4947 Y-1.3960 E1534.04409 ; EInc=16.56980 cartesianDistance=8.45060 angle=0.000 pulseDistance=0.51000 => originalEInc=16.56980 adjustedEInc=16.56980 density=N/A
; 
; feature travel
PRIO_OFF
G0 X24.4947 Y-1.8749 ; cartesianDistance=0.47888 (Travel)
; 
; feature fill
PRIO_ON
G1 X17.8695 Y-4.2863 E1547.86850 ; EInc=13.82441 cartesianDistance=7.05045 angle=0.000 pulseDistance=0.51000 => originalEInc=13.82441 adjustedEInc=13.82441 density=N/A
; 
; feature travel
PRIO_OFF
G0 X19.18516 Y-4.2863 ; cartesianDistance=1.31571 (Travel)
; 
; feature fill
PRIO_ON
G1 X24.4947 Y-2.3538 E1558.94752 ; EInc=11.07901 cartesianDistance=5.65030 angle=0.000 pulseDistance=0.51000 => originalEInc=11.07902 adjustedEInc=11.07902 density=N/A
; 
; feature travel
PRIO_OFF
G0 X24.4947 Y-2.83266 ; cartesianDistance=0.47888 (Travel)
; 
; feature fill
PRIO_ON
G1 X20.5009 Y-4.2863 E1567.28113 ; EInc=8.33362 cartesianDistance=4.25015 angle=0.000 pulseDistance=0.51000 => originalEInc=8.33361 adjustedEInc=8.33361 density=N/A
; 
; feature travel
PRIO_OFF
G0 X21.81658 Y-4.2863 ; cartesianDistance=1.31571 (Travel)
; 
; feature fill
PRIO_ON
G1 X24.4947 Y-3.3115 E1572.86936 ; EInc=5.58822 cartesianDistance=2.84999 angle=0.000 pulseDistance=0.51000 => originalEInc=5.58823 adjustedEInc=5.58823 density=N/A
; 
; feature travel
PRIO_OFF
G0 X24.4947 Y-3.79042 ; cartesianDistance=0.47888 (Travel)
; 
; feature fill
PRIO_ON
G1 X23.1323 Y-4.2863 E1575.71219 ; EInc=2.84283 cartesianDistance=1.44984 angle=0.000 pulseDistance=0.51000 => originalEInc=2.84283 adjustedEInc=2.84283 density=N/A
; 
; feature travel
PRIO_OFF
G0 X0.6354 Y4.2863 ; cartesianDistance=24.07488 (Travel)
; 
; feature fill
PRIO_ON
G1 X0.0000 Y4.0550 E1576.37511 ; originalEInc=1.32584 adjustedEInc=0.66292 density=0.5
G1 X-22.9176 Y-4.2863 E1624.19555 ; EInc=49.14629 cartesianDistance=25.06461 angle=0.000 pulseDistance=0.51000 => originalEInc=47.82044 adjustedEInc=47.82044 density=N/A
; 
; feature travel
PRIO_OFF
G0 X-24.23334 Y-4.2863 ; cartesianDistance=1.31571 (Travel)
; 
; feature fill
PRIO_ON
G1 X-0.6803 Y4.2863 E1673.34184 ; EInc=49.14629 cartesianDistance=25.06461 angle=0.000 pulseDistance=0.51000 => originalEInc=49.14629 adjustedEInc=49.14629 density=N/A
; 
; feature travel
PRIO_OFF
G0 X-1.99603 Y4.2863 ; cartesianDistance=1.31571 (Travel)
; 
; feature fill
PRIO_ON
G1 X-24.4947 Y-3.9026 E1720.28809 ; EInc=46.94625 cartesianDistance=23.94259 angle=0.000 pulseDistance=0.51000 => originalEInc=46.94625 adjustedEInc=46.94625 density=N/A
; 
; feature travel
PRIO_OFF
G0 X-24.4947 Y-3.42367 ; cartesianDistance=0.47888 (Travel)
; 
; feature fill
PRIO_ON
G1 X-3.3117 Y4.2863 E1764.48895 ; EInc=44.20086 cartesianDistance=22.54244 angle=0.000 pulseDistance=0.51000 => originalEInc=44.20086 adjustedEInc=44.20086 density=N/A
; 
; feature travel
PRIO_OFF
G0 X-4.62745 Y4.2863 ; cartesianDistance=1.31571 (Travel)
; 
; feature fill
PRIO_ON
G1 X-24.4947 Y-2.9448 E1805.94442 ; EInc=41.45546 cartesianDistance=21.14229 angle=0.000 pulseDistance=0.51000 => originalEInc=41.45547 adjustedEInc=41.45547 density=N/A
; 
; feature travel
PRIO_OFF
G0 X-24.4947 Y-2.46591 ; cartesianDistance=0.47888 (Travel)
; 
; feature fill
PRIO_ON
G1 X-5.9432 Y4.2863 E1844.65449 ; EInc=38.71007 cartesianDistance=19.74214 angle=0.000 pulseDistance=0.51000 => originalEInc=38.71007 adjustedEInc=38.71007 density=N/A
; 
; feature travel
PRIO_OFF
G0 X-7.25887 Y4.2863 ; cartesianDistance=1.31571 (Travel)
; 
; feature fill
PRIO_ON
G1 X-24.4947 Y-1.9870 E1880.61916 ; EInc=35.96467 cartesianDistance=18.34198 angle=0.000 pulseDistance=0.51000 => originalEInc=35.96467 adjustedEInc=35.96467 density=N/A
; 
; feature travel
PRIO_OFF
G0 X-24.4947 Y-1.50815 ; cartesianDistance=0.47888 (Travel)
; 
; feature fill
PRIO_ON
G1 X-8.5746 Y4.2863 E1913.83844 ; EInc=33.21928 cartesianDistance=16.94183 angle=0.000 pulseDistance=0.51000 => originalEInc=33.21928 adjustedEInc=33.21928 density=N/A
; 
; feature travel
PRIO_OFF
G0 X-9.8903 Y4.2863 ; cartesianDistance=1.31571 (Travel)
; 
; feature fill
PRIO_ON
G1 X-24.4947 Y-1.0293 E1944.31232 ; EInc=30.47388 cartesianDistance=15.54168 angle=0.000 pulseDistance=0.51000 => originalEInc=30.47388 adjustedEInc=30.47388 density=N/A
; 
; feature travel
PRIO_OFF
G0 X-24.4947 Y-0.55039 ; cartesianDistance=0.47888 (Travel)
; 
; feature fill
PRIO_ON
G1 X-11.2060 Y4.2863 E1972.04081 ; EInc=27.72849 cartesianDistance=14.14153 angle=0.000 pulseDistance=0.51000 => originalEInc=27.72849 adjustedEInc=27.72849 density=N/A
; 
; feature travel
PRIO_OFF
G0 X-12.52172 Y4.2863 ; cartesianDistance=1.31571 (Travel)
; 
; feature fill
PRIO_ON
G1 X-24.4947 Y-0.0715 E1997.02391 ; EInc=24.98309 cartesianDistance=12.74138 angle=0.000 pulseDistance=0.51000 => originalEInc=24.98310 adjustedEInc=24.98310 density=N/A
; 
; feature travel
PRIO_OFF
G0 X-24.4947 Y0.40737 ; cartesianDistance=0.47888 (Travel)
; 
; feature fill
PRIO_ON
G1 X-13.8374 Y4.2863 E2019.26161 ; EInc=22.23770 cartesianDistance=11.34123 angle=0.000 pulseDistance=0.51000 => originalEInc=22.23770 adjustedEInc=22.23770 density=N/A
; 
; feature travel
PRIO_OFF
G0 X-15.15314 Y4.2863 ; cartesianDistance=1.31571 (Travel)
; 
; feature fill
PRIO_ON
G1 X-24.4947 Y0.8862 E2038.75391 ; EInc=19.49230 cartesianDistance=9.94108 angle=0.000 pulseDistance=0.51000 => originalEInc=19.49230 adjustedEInc=19.49230 density=N/A
; 
; feature travel
PRIO_OFF
G0 X-24.4947 Y1.36513 ; cartesianDistance=0.47888 (Travel)
; 
; feature fill
PRIO_ON
G1 X-16.4689 Y4.2863 E2055.50082 ; EInc=16.74691 cartesianDistance=8.54092 angle=0.000 pulseDistance=0.51000 => originalEInc=16.74691 adjustedEInc=16.74691 density=N/A
; 
; feature travel
PRIO_OFF
G0 X-17.78457 Y4.2863 ; cartesianDistance=1.31571 (Travel)
; 
; feature fill
PRIO_ON
G1 X-24.4947 Y1.8440 E2069.50234 ; EInc=14.00151 cartesianDistance=7.14077 angle=0.000 pulseDistance=0.51000 => originalEInc=14.00152 adjustedEInc=14.00152 density=N/A
; 
; feature travel
PRIO_OFF
G0 X-24.4947 Y2.32289 ; cartesianDistance=0.47888 (Travel)
; 
; feature fill
PRIO_ON
G1 X-19.1003 Y4.2863 E2080.75846 ; EInc=11.25612 cartesianDistance=5.74062 angle=0.000 pulseDistance=0.51000 => originalEInc=11.25612 adjustedEInc=11.25612 density=N/A
; 
; feature travel
PRIO_OFF
G0 X-20.41599 Y4.2863 ; cartesianDistance=1.31571 (Travel)
; 
; feature fill
PRIO_ON
G1 X-24.4947 Y2.8018 E2089.26918 ; EInc=8.51072 cartesianDistance=4.34047 angle=0.000 pulseDistance=0.51000 => originalEInc=8.51072 adjustedEInc=8.51072 density=N/A
; 
; feature travel
PRIO_OFF
G0 X-24.4947 Y3.28065 ; cartesianDistance=0.47888 (Travel)
; 
; feature fill
PRIO_ON
G1 X-21.7317 Y4.2863 E2095.03451 ; EInc=5.76533 cartesianDistance=2.94032 angle=0.000 pulseDistance=0.51000 => originalEInc=5.76533 adjustedEInc=5.76533 density=N/A
; 
; feature travel
PRIO_OFF
G0 X-23.04742 Y4.2863 ; cartesianDistance=1.31571 (Travel)
; 
; feature fill
PRIO_ON
G1 X-24.4947 Y3.7595 E2098.05444 ; EInc=3.01993 cartesianDistance=1.54017 angle=0.000 pulseDistance=0.51000 => originalEInc=3.01993 adjustedEInc=3.01993 density=N/A
; 
; feature travel
PRIO_OFF
G0 X-24.4947 Y4.23841 ; cartesianDistance=0.47888 (Travel)
; 
; feature fill
PRIO_ON
G1 X-24.3631 Y4.2863 E2098.32898 ; EInc=0.27454 cartesianDistance=0.14002 angle=0.000 pulseDistance=0.51000 => originalEInc=0.27454 adjustedEInc=0.27454 density=N/A
PRIO_OFF
LayersCompleted=1
M1
; 
;========================
; layer 1, Z = 0.4800
; 
; reset extrusion
STOPRE
PRESETON(E, 0)
DO PRIO_PULSE_DISTANCE=DROP_SCALE
DO PRIO_ON_PATH_OFFSET=0.5*PRIO_PULSE_DISTANCE
;outer: (25.2604,-5.0521) (25.2604,5.0521) (-25.2604,5.0521) (-25.2604,-5.0521) (23.4604,-5.0521) holes: !
;overhangs:!
; 
; feature plane change
G0 X-24.36313 Y4.2863 Z0.48 ; cartesianDistance=0.00000 (Plane Change)
; 
; feature travel
G0 X20.74801 Y4.637 ; cartesianDistance=45.11250 (Travel)
; 
; feature outer perimeter
G1 F24000 FL[E] = OuterPerimeterFrequency * DROP_SCALE * 60
PRIO_ON
G1 X24.8454 Y4.6370 E-212.31433 ; EInc=9.64092 cartesianDistance=4.09739 angle=90.000 pulseDistance=0.42500 => originalEInc=-2310.64331 adjustedEInc=-2310.64331 density=N/A
G1 X24.8454 Y-4.6370 E-190.49315 ; EInc=21.82118 cartesianDistance=9.27400 angle=90.000 pulseDistance=0.42500 => originalEInc=21.82118 adjustedEInc=21.82118 density=N/A
G1 X-24.8454 Y-4.6370 E-73.57363 ; EInc=116.91953 cartesianDistance=49.69080 angle=90.000 pulseDistance=0.42500 => originalEInc=116.91952 adjustedEInc=116.91952 density=N/A
G1 X-24.8454 Y4.6370 E-51.75245 ; EInc=21.82118 cartesianDistance=9.27400 angle=90.000 pulseDistance=0.42500 => originalEInc=21.82118 adjustedEInc=21.82118 density=N/A
G1 X20.7480 Y4.6370 E55.52616 ; EInc=107.27861 cartesianDistance=45.59341 angle=180.000 pulseDistance=0.42500 => originalEInc=107.27861 adjustedEInc=107.27861 density=N/A
; 
; feature travel
PRIO_OFF
G0 X20.74801 Y4.286 ; cartesianDistance=0.35100 (Travel)
; 
; feature inner perimeter
G1 F24000 FL[E] = InnerPerimeterFrequency * DROP_SCALE * 60
PRIO_ON
G1 X-24.4944 Y4.2860 E139.30840 ; EInc=83.78224 cartesianDistance=45.24241 angle=90.000 pulseDistance=0.54000 => originalEInc=83.78224 adjustedEInc=83.78224 density=N/A
G1 X-24.4944 Y-4.2860 E155.18248 ; EInc=15.87407 cartesianDistance=8.57200 angle=90.000 pulseDistance=0.54000 => originalEInc=15.87408 adjustedEInc=15.87408 density=N/A
G1 X24.4944 Y-4.2860 E245.90248 ; EInc=90.72000 cartesianDistance=48.98880 angle=90.000 pulseDistance=0.54000 => originalEInc=90.72000 adjustedEInc=90.72000 density=N/A
G1 X24.4944 Y4.2860 E261.77655 ; EInc=15.87407 cartesianDistance=8.57200 angle=90.000 pulseDistance=0.54000 => originalEInc=15.87407 adjustedEInc=15.87407 density=N/A
G1 X20.7480 Y4.2860 E268.71431 ; EInc=6.93776 cartesianDistance=3.74639 angle=180.000 pulseDistance=0.54000 => originalEInc=6.93776 adjustedEInc=6.93776 density=N/A
; 
; feature travel
PRIO_OFF
G0 X20.73828 Y4.2863 ; cartesianDistance=0.00974 (Travel)
; 
; feature fill
G1 F24000 FL[E] = FillFrequency * DROP_SCALE * 60
PRIO_ON
G1 X16.7408 Y-4.2863 E287.26101 ; EInc=18.54670 cartesianDistance=9.45882 angle=0.000 pulseDistance=0.51000 => originalEInc=18.54670 adjustedEInc=18.54670 density=N/A
; 
; feature travel
PRIO_OFF
G0 X17.23733 Y-4.2863 ; cartesianDistance=0.49652 (Travel)
; 
; feature fill
PRIO_ON
G1 X21.2348 Y4.2863 E305.80771 ; EInc=18.54670 cartesianDistance=9.45882 angle=0.000 pulseDistance=0.51000 => originalEInc=18.54670 adjustedEInc=18.54670 density=N/A
; 
; feature travel
PRIO_OFF
G0 X21.73132 Y4.2863 ; cartesianDistance=0.49652 (Travel)
; 
; feature fill
PRIO_ON
G1 X17.7339 Y-4.2863 E324.35441 ; EInc=18.54670 cartesianDistance=9.45882 angle=0.000 pulseDistance=0.51000 => originalEInc=18.54670 adjustedEInc=18.54670 density=N/A
; 
; feature travel
PRIO_OFF
G0 X18.23037 Y-4.2863 ; cartesianDistance=0.49652 (Travel)
; 
; feature fill
PRIO_ON
G1 X22.2278 Y4.2863 E342.90111 ; EInc=18.54670 cartesianDistance=9.45882 angle=0.000 pulseDistance=0.51000 => originalEInc=18.54670 adjustedEInc=18.54670 density=N/A
; 
; feature travel
PRIO_OFF
G0 X22.72436 Y4.2863 ; cartesianDistance=0.49652 (Travel)
; 
; feature fill
PRIO_ON
G1 X18.7269 Y-4.2863 E361.44782 ; EInc=18.54670 cartesianDistance=9.45882 angle=0.000 pulseDistance=0.51000 => originalEInc=18.54671 adjustedEInc=18.54671 density=N/A
; 
; feature travel
PRIO_OFF
G0 X19.22341 Y-4.2863 ; cartesianDistance=0.49652 (Travel)
; 
; feature fill
PRIO_ON
G1 X23.2209 Y4.2863 E379.99452 ; EInc=18.54670 cartesianDistance=9.45882 angle=0.000 pulseDistance=0.51000 => originalEInc=18.54670 adjustedEInc=18.54670 density=N/A
; 
; feature travel
PRIO_OFF
G0 X23.7174 Y4.2863 ; cartesianDistance=0.49652 (Travel)
; 
; feature fill
PRIO_ON
G1 X19.7199 Y-4.2863 E398.54122 ; EInc=18.54670 cartesianDistance=9.45882 angle=0.000 pulseDistance=0.51000 => originalEInc=18.54670 adjustedEInc=18.54670 density=N/A
; 
; feature travel
PRIO_OFF
G0 X20.21645 Y-4.2863 ; cartesianDistance=0.49652 (Travel)
; 
; feature fill
PRIO_ON
G1 X24.2139 Y4.2863 E417.08792 ; EInc=18.54670 cartesianDistance=9.45882 angle=0.000 pulseDistance=0.51000 => originalEInc=18.54670 adjustedEInc=18.54670 density=N/A
; 
; feature travel
PRIO_OFF
G0 X24.4947 Y3.82365 ; cartesianDistance=0.54119 (Travel)
; 
; feature fill
PRIO_ON
G1 X20.7130 Y-4.2863 E434.63368 ; EInc=17.54576 cartesianDistance=8.94834 angle=0.000 pulseDistance=0.51000 => originalEInc=17.54576 adjustedEInc=17.54576 density=N/A
; 
; feature travel
PRIO_OFF
G0 X21.20949 Y-4.2863 ; cartesianDistance=0.49652 (Travel)
; 
; feature fill
PRIO_ON
G1 X24.4947 Y2.7589 E449.87578 ; EInc=15.24210 cartesianDistance=7.77347 angle=0.000 pulseDistance=0.51000 => originalEInc=15.24210 adjustedEInc=15.24210 density=N/A
; 
; feature travel
PRIO_OFF
G0 X24.4947 Y1.69407 ; cartesianDistance=1.06479 (Travel)
; 
; feature fill
PRIO_ON
G1 X21.7060 Y-4.2863 E462.81422 ; EInc=12.93844 cartesianDistance=6.59860 angle=0.000 pulseDistance=0.51000 => originalEInc=12.93844 adjustedEInc=12.93844 density=N/A
; 
; feature travel
PRIO_OFF
G0 X22.20253 Y-4.2863 ; cartesianDistance=0.49652 (Travel)
; 
; feature fill
PRIO_ON
G1 X24.4947 Y0.6293 E473.44900 ; EInc=10.63478 cartesianDistance=5.42374 angle=0.000 pulseDistance=0.51000 => originalEInc=10.63478 adjustedEInc=10.63478 density=N/A
; 
; feature travel
PRIO_OFF
G0 X24.4947 Y-0.43552 ; cartesianDistance=1.06479 (Travel)
; 
; feature fill
PRIO_ON
G1 X22.6990 Y-4.2863 E481.78012 ; EInc=8.33112 cartesianDistance=4.24887 angle=0.000 pulseDistance=0.51000 => originalEInc=8.33112 adjustedEInc=8.33112 density=N/A
; 
; feature travel
PRIO_OFF
G0 X23.19557 Y-4.2863 ; cartesianDistance=0.49652 (Travel)
; 
; feature fill
PRIO_ON
G1 X24.4947 Y-1.5003 E487.80758 ; EInc=6.02746 cartesianDistance=3.07400 angle=0.000 pulseDistance=0.51000 => originalEInc=6.02746 adjustedEInc=6.02746 density=N/A
; 
; feature travel
PRIO_OFF
G0 X24.4947 Y-2.5651 ; cartesianDistance=1.06479 (Travel)
; 
; feature fill
PRIO_ON
G1 X23.6921 Y-4.2863 E491.53138 ; EInc=3.72380 cartesianDistance=1.89914 angle=0.000 pulseDistance=0.51000 => originalEInc=3.72380 adjustedEInc=3.72380 density=N/A
; 
; feature travel
PRIO_OFF
G0 X24.18861 Y-4.2863 ; cartesianDistance=0.49652 (Travel)
; 
; feature fill
PRIO_ON
G1 X24.4947 Y-3.6299 E492.95152 ; EInc=1.42014 cartesianDistance=0.72427 angle=0.000 pulseDistance=0.51000 => originalEInc=1.42014 adjustedEInc=1.42014 density=N/A
; 
; feature travel
PRIO_OFF
G0 X16.24429 Y-4.2863 ; cartesianDistance=8.27648 (Travel)
; 
; feature fill
PRIO_ON
G1 X20.2418 Y4.2863 E511.49822 ; EInc=18.54670 cartesianDistance=9.45882 angle=0.000 pulseDistance=0.51000 => originalEInc=18.54670 adjustedEInc=18.54670 density=N/A
; 
; feature travel
PRIO_OFF
G0 X19.74524 Y4.2863 ; cartesianDistance=0.49652 (Travel)
; 
; feature fill
PRIO_ON
G1 X15.7478 Y-4.2863 E530.04492 ; EInc=18.54670 cartesianDistance=9.45882 angle=0.000 pulseDistance=0.51000 => originalEInc=18.54670 adjustedEInc=18.54670 density=N/A
; 
; feature travel
PRIO_OFF
G0 X15.25125 Y-4.2863 ; cartesianDistance=0.49652 (Travel)
; 
; feature fill
PRIO_ON
G1 X19.2487 Y4.2863 E548.59162 ; EInc=18.54670 cartesianDistance=9.45882 angle=0.000 pulseDistance=0.51000 => originalEInc=18.54670 adjustedEInc=18.54670 density=N/A
; 
; feature travel
PRIO_OFF
G0 X18.7522 Y4.2863 ; cartesianDistance=0.49652 (Travel)
; 
; feature fill
PRIO_ON
G1 X14.7547 Y-4.2863 E567.13832 ; EInc=18.54670 cartesianDistance=9.45882 angle=0.000 pulseDistance=0.51000 => originalEInc=18.54670 adjustedEInc=18.54670 density=N/A
; 
; feature travel
PRIO_OFF
G0 X14.25821 Y-4.2863 ; cartesianDistance=0.49652 (Travel)
; 
; feature fill
PRIO_ON
G1 X18.2557 Y4.2863 E585.68502 ; EInc=18.54670 cartesianDistance=9.45882 angle=0.000 pulseDistance=0.51000 => originalEInc=18.54670 adjustedEInc=18.54670 density=N/A
; 
; feature travel
PRIO_OFF
G0 X17.75916 Y4.2863 ; cartesianDistance=0.49652 (Travel)
; 
; feature fill
PRIO_ON
G1 X13.7617 Y-4.2863 E604.23172 ; EInc=18.54670 cartesianDistance=9.45882 angle=0.000 pulseDistance=0.51000 => originalEInc=18.54670 adjustedEInc=18.54670 density=N/A
; 
; feature travel
PRIO_OFF
G0 X13.26517 Y-4.2863 ; cartesianDistance=0.49652 (Travel)
; 
; feature fill
PRIO_ON
G1 X17.2626 Y4.2863 E622.77842 ; EInc=18.54670 cartesianDistance=9.45882 angle=0.000 pulseDistance=0.51000 => originalEInc=18.54670 adjustedEInc=18.54670 density=N/A
; 
; feature travel
PRIO_OFF
G0 X16.76612 Y4.2863 ; cartesianDistance=0.49652 (Travel)
; 
; feature fill
PRIO_ON
G1 X12.7686 Y-4.2863 E641.32512 ; EInc=18.54670 cartesianDistance=9.45882 angle=0.000 pulseDistance=0.51000 => originalEInc=18.54670 adjustedEInc=18.54670 density=N/A
; 
; feature travel
PRIO_OFF
G0 X12.27213 Y-4.2863 ; cartesianDistance=0.49652 (Travel)
; 
; feature fill
PRIO_ON
G1 X16.2696 Y4.2863 E659.87182 ; EInc=18.54670 cartesianDistance=9.45882 angle=0.000 pulseDistance=0.51000 => originalEInc=18.54670 adjustedEInc=18.54670 density=N/A
; 
; feature travel
PRIO_OFF
G0 X15.77308 Y4.2863 ; cartesianDistance=0.49652 (Travel)
; 
; feature fill
PRIO_ON
G1 X11.7756 Y-4.2863 E678.41853 ; EInc=18.54670 cartesianDistance=9.45882 angle=0.000 pulseDistance=0.51000 => originalEInc=18.54671 adjustedEInc=18.54671 density=N/A
; 
; feature travel
PRIO_OFF
G0 X11.27909 Y-4.2863 ; cartesianDistance=0.49652 (Travel)
; 
; feature fill
PRIO_ON
G1 X15.2766 Y4.2863 E696.96523 ; EInc=18.54670 cartesianDistance=9.45882 angle=0.000 pulseDistance=0.51000 => originalEInc=18.54670 adjustedEInc=18.54670 density=N/A
; 
; feature travel
PRIO_OFF
G0 X14.78004 Y4.2863 ; cartesianDistance=0.49652 (Travel)
; 
; feature fill
PRIO_ON
G1 X10.7826 Y-4.2863 E715.51193 ; EInc=18.54670 cartesianDistance=9.45882 angle=0.000 pulseDistance=0.51000 => originalEInc=18.54670 adjustedEInc=18.54670 density=N/A
; 
; feature travel
PRIO_OFF
G0 X10.28605 Y-4.2863 ; cartesianDistance=0.49652 (Travel)
; 
; feature fill
PRIO_ON
G1 X14.2835 Y4.2863 E734.05863 ; EInc=18.54670 cartesianDistance=9.45882 angle=0.000 pulseDistance=0.51000 => originalEInc=18.54670 adjustedEInc=18.54670 density=N/A
; 
; feature travel
PRIO_OFF
G0 X13.787 Y4.2863 ; cartesianDistance=0.49652 (Travel)
; 
; feature fill
PRIO_ON
G1 X9.7895 Y-4.2863 E752.60533 ; EInc=18.54670 cartesianDistance=9.45882 angle=0.000 pulseDistance=0.51000 => originalEInc=18.54670 adjustedEInc=18.54670 density=N/A
; 
; feature travel
PRIO_OFF
G0 X9.29301 Y-4.2863 ; cartesianDistance=0.49652 (Travel)
; 
; feature fill
PRIO_ON
G1 X13.2905 Y4.2863 E771.15203 ; EInc=18.54670 cartesianDistance=9.45882 angle=0.000 pulseDistance=0.51000 => originalEInc=18.54670 adjustedEInc=18.54670 density=N/A
; 
; feature travel
PRIO_OFF
G0 X12.79396 Y4.2863 ; cartesianDistance=0.49652 (Travel)
; 
; feature fill
PRIO_ON
G1 X8.7965 Y-4.2863 E789.69873 ; EInc=18.54670 cartesianDistance=9.45882 angle=0.000 pulseDistance=0.51000 => originalEInc=18.54670 adjustedEInc=18.54670 density=N/A
; 
; feature travel
PRIO_OFF
G0 X8.29997 Y-4.2863 ; cartesianDistance=0.49652 (Travel)
; 
; feature fill
PRIO_ON
G1 X12.2974 Y4.2863 E808.24543 ; EInc=18.54670 cartesianDistance=9.45882 angle=0.000 pulseDistance=0.51000 => originalEInc=18.54670 adjustedEInc=18.54670 density=N/A
; 
; feature travel
PRIO_OFF
G0 X11.80092 Y4.2863 ; cartesianDistance=0.49652 (Travel)
; 
; feature fill
PRIO_ON
G1 X7.8034 Y-4.2863 E826.79213 ; EInc=18.54670 cartesianDistance=9.45882 angle=0.000 pulseDistance=0.51000 => originalEInc=18.54670 adjustedEInc=18.54670 density=N/A
; 
; feature travel
PRIO_OFF
G0 X7.30693 Y-4.2863 ; cartesianDistance=0.49652 (Travel)
; 
; feature fill
PRIO_ON
G1 X11.3044 Y4.2863 E845.33884 ; EInc=18.54670 cartesianDistance=9.45882 angle=0.000 pulseDistance=0.51000 => originalEInc=18.54671 adjustedEInc=18.54671 density=N/A
; 
; feature travel
PRIO_OFF
G0 X10.80788 Y4.2863 ; cartesianDistance=0.49652 (Travel)
; 
; feature fill
PRIO_ON
G1 X6.8104 Y-4.2863 E863.88554 ; EInc=18.54670 cartesianDistance=9.45882 angle=0.000 pulseDistance=0.51000 => originalEInc=18.54670 adjustedEInc=18.54670 density=N/A
; 
; feature travel
PRIO_OFF
G0 X6.31389 Y-4.2863 ; cartesianDistance=0.49652 (Travel)
; 
; feature fill
PRIO_ON
G1 X10.3114 Y4.2863 E882.43224 ; EInc=18.54670 cartesianDistance=9.45882 angle=0.000 pulseDistance=0.51000 => originalEInc=18.54670 adjustedEInc=18.54670 density=N/A
; 
; feature travel
PRIO_OFF
G0 X9.81484 Y4.2863 ; cartesianDistance=0.49652 (Travel)
; 
; feature fill
PRIO_ON
G1 X5.8174 Y-4.2863 E900.97894 ; EInc=18.54670 cartesianDistance=9.45882 angle=0.000 pulseDistance=0.51000 => originalEInc=18.54670 adjustedEInc=18.54670 density=N/A
; 
; feature travel
PRIO_OFF
G0 X5.32085 Y-4.2863 ; cartesianDistance=0.49652 (Travel)
; 
; feature fill
PRIO_ON
G1 X9.3183 Y4.2863 E919.52564 ; EInc=18.54670 cartesianDistance=9.45882 angle=0.000 pulseDistance=0.51000 => originalEInc=18.54670 adjustedEInc=18.54670 density=N/A
; 
; feature travel
PRIO_OFF
G0 X8.8218 Y4.2863 ; cartesianDistance=0.49652 (Travel)
; 
; feature fill
PRIO_ON
G1 X4.8243 Y-4.2863 E938.07234 ; EInc=18.54670 cartesianDistance=9.45882 angle=0.000 pulseDistance=0.51000 => originalEInc=18.54670 adjustedEInc=18.54670 density=N/A
; 
; feature travel
PRIO_OFF
G0 X4.32781 Y-4.2863 ; cartesianDistance=0.49652 (Travel)
; 
; feature fill
PRIO_ON
G1 X8.3253 Y4.2863 E956.61904 ; EInc=18.54670 cartesianDistance=9.45882 angle=0.000 pulseDistance=0.51000 => originalEInc=18.54670 adjustedEInc=18.54670 density=N/A
; 
; feature travel
PRIO_OFF
G0 X7.82876 Y4.2863 ; cartesianDistance=0.49652 (Travel)
; 
; feature fill
PRIO_ON
G1 X3.8313 Y-4.2863 E975.16574 ; EInc=18.54670 cartesianDistance=9.45882 angle=0.000 pulseDistance=0.51000 => originalEInc=18.54670 adjustedEInc=18.54670 density=N/A
; 
; feature travel
PRIO_OFF
G0 X3.33477 Y-4.2863 ; cartesianDistance=0.49652 (Travel)
; 
; feature fill
PRIO_ON
G1 X7.3322 Y4.2863 E993.71244 ; EInc=18.54670 cartesianDistance=9.45882 angle=0.000 pulseDistance=0.51000 => originalEInc=18.54670 adjustedEInc=18.54670 density=N/A
; 
; feature travel
PRIO_OFF
G0 X6.83572 Y4.2863 ; cartesianDistance=0.49652 (Travel)
; 
; feature fill
PRIO_ON
G1 X2.8382 Y-4.2863 E1012.25915 ; EInc=18.54670 cartesianDistance=9.45882 angle=0.000 pulseDistance=0.51000 => originalEInc=18.54671 adjustedEInc=18.54671 density=N/A
; 
; feature travel
PRIO_OFF
G0 X2.34173 Y-4.2863 ; cartesianDistance=0.49652 (Travel)
; 
; feature fill
PRIO_ON
G1 X6.3392 Y4.2863 E1030.80585 ; EInc=18.54670 cartesianDistance=9.45882 angle=0.000 pulseDistance=0.51000 => originalEInc=18.54670 adjustedEInc=18.54670 density=N/A
; 
; feature travel
PRIO_OFF
G0 X5.84268 Y4.2863 ; cartesianDistance=0.49652 (Travel)
; 
; feature fill
PRIO_ON
G1 X1.8452 Y-4.2863 E1049.35255 ; EInc=18.54670 cartesianDistance=9.45882 angle=0.000 pulseDistance=0.51000 => originalEInc=18.54670 adjustedEInc=18.54670 density=N/A
; 
; feature travel
PRIO_OFF
G0 X1.34869 Y-4.2863 ; cartesianDistance=0.49652 (Travel)
; 
; feature fill
PRIO_ON
G1 X5.3462 Y4.2863 E1067.89925 ; EInc=18.54670 cartesianDistance=9.45882 angle=0.000 pulseDistance=0.51000 => originalEInc=18.54670 adjustedEInc=18.54670 density=N/A
; 
; feature travel
PRIO_OFF
G0 X4.84964 Y4.2863 ; cartesianDistance=0.49652 (Travel)
; 
; feature fill
PRIO_ON
G1 X0.8522 Y-4.2863 E1086.44595 ; EInc=18.54670 cartesianDistance=9.45882 angle=0.000 pulseDistance=0.51000 => originalEInc=18.54670 adjustedEInc=18.54670 density=N/A
; 
; feature travel
PRIO_OFF
G0 X0.35565 Y-4.2863 ; cartesianDistance=0.49652 (Travel)
; 
; feature fill
PRIO_ON
G1 X4.3531 Y4.2863 E1104.99265 ; EInc=18.54670 cartesianDistance=9.45882 angle=0.000 pulseDistance=0.51000 => originalEInc=18.54670 adjustedEInc=18.54670 density=N/A
; 
; feature travel
PRIO_OFF
G0 X3.8566 Y4.2863 ; cartesianDistance=0.49652 (Travel)
; 
; feature fill
PRIO_ON
G1 X0.0000 Y-3.9842 E1113.93920 ; originalEInc=17.89312 adjustedEInc=8.94656 density=0.5
G1 X-0.1409 Y-4.2863 E1114.59279 ; EInc=18.54670 cartesianDistance=9.45882 angle=0.000 pulseDistance=0.51000 => originalEInc=0.65358 adjustedEInc=0.65358 density=N/A
; 
; feature travel
PRIO_OFF
G0 X-0.63739 Y-4.2863 ; cartesianDistance=0.49652 (Travel)
; 
; feature fill
PRIO_ON
G1 X0.0000 Y-2.9194 E1117.55003 ; originalEInc=2.95724 adjustedEInc=2.95724 density=N/A
G1 X3.3601 Y4.2863 E1125.34476 ; EInc=18.54670 cartesianDistance=9.45882 angle=0.000 pulseDistance=0.51000 => originalEInc=15.58946 adjustedEInc=7.79473 density=0.5
; 
; feature travel
PRIO_OFF
G0 X2.86356 Y4.2863 ; cartesianDistance=0.49652 (Travel)
; 
; feature fill
PRIO_ON
G1 X0.0000 Y-1.8546 E1131.98766 ; originalEInc=13.28580 adjustedEInc=6.64290 density=0.5
G1 X-1.1339 Y-4.2863 E1137.24856 ; EInc=18.54670 cartesianDistance=9.45882 angle=0.000 pulseDistance=0.51000 => originalEInc=5.26090 adjustedEInc=5.26090 density=N/A
; 
; feature travel
PRIO_OFF
G0 X-1.63043 Y-4.2863 ; cartesianDistance=0.49652 (Travel)
; 
; feature fill
PRIO_ON
G1 X0.0000 Y-0.7898 E1144.81312 ; originalEInc=7.56456 adjustedEInc=7.56456 density=N/A
G1 X2.3670 Y4.2863 E1150.30419 ; EInc=18.54670 cartesianDistance=9.45882 angle=0.000 pulseDistance=0.51000 => originalEInc=10.98214 adjustedEInc=5.49107 density=0.5
; 
; feature travel
PRIO_OFF
G0 X1.87052 Y4.2863 ; cartesianDistance=0.49652 (Travel)
; 
; feature fill
PRIO_ON
G1 X0.0000 Y0.2750 E1154.64343 ; originalEInc=8.67849 adjustedEInc=4.33924 density=0.5
G1 X-2.1269 Y-4.2863 E1164.51165 ; EInc=18.54670 cartesianDistance=9.45882 angle=0.000 pulseDistance=0.51000 => originalEInc=9.86822 adjustedEInc=9.86822 density=N/A
; 
; feature travel
PRIO_OFF
G0 X-2.62347 Y-4.2863 ; cartesianDistance=0.49652 (Travel)
; 
; feature fill
PRIO_ON
G1 X0.0000 Y1.3397 E1176.68353 ; originalEInc=12.17188 adjustedEInc=12.17188 density=N/A
G1 X1.3740 Y4.2863 E1179.87094 ; EInc=18.54670 cartesianDistance=9.45882 angle=0.000 pulseDistance=0.51000 => originalEInc=6.37482 adjustedEInc=3.18741 density=0.5
; 
; feature travel
PRIO_OFF
G0 X0.87748 Y4.2863 ; cartesianDistance=0.49652 (Travel)
; 
; feature fill
PRIO_ON
G1 X0.0000 Y2.4045 E1181.90652 ; originalEInc=4.07116 adjustedEInc=2.03558 density=0.5
G1 X-3.1200 Y-4.2863 E1196.38206 ; EInc=18.54670 cartesianDistance=9.45882 angle=0.000 pulseDistance=0.51000 => originalEInc=14.47554 adjustedEInc=14.47554 density=N/A
; 
; feature travel
PRIO_OFF
G0 X-3.61651 Y-4.2863 ; cartesianDistance=0.49652 (Travel)
; 
; feature fill
PRIO_ON
G1 X0.0000 Y3.4693 E1213.16125 ; originalEInc=16.77919 adjustedEInc=16.77919 density=N/A
G1 X0.3810 Y4.2863 E1214.04501 ; EInc=18.54670 cartesianDistance=9.45882 angle=0.000 pulseDistance=0.51000 => originalEInc=1.76751 adjustedEInc=0.88375 density=0.5
; 
; feature travel
PRIO_OFF
G0 X-0.11556 Y4.2863 ; cartesianDistance=0.49652 (Travel)
; 
; feature fill
PRIO_ON
G1 X-4.1130 Y-4.2863 E1232.59171 ; EInc=18.54670 cartesianDistance=9.45882 angle=0.000 pulseDistance=0.51000 => originalEInc=18.54670 adjustedEInc=18.54670 density=N/A
; 
; feature travel
PRIO_OFF
G0 X-4.60955 Y-4.2863 ; cartesianDistance=0.49652 (Travel)
; 
; feature fill
PRIO_ON
G1 X-0.6121 Y4.2863 E1251.13841 ; EInc=18.54670 cartesianDistance=9.45882 angle=0.000 pulseDistance=0.51000 => originalEInc=18.54670 adjustedEInc=18.54670 density=N/A
; 
; feature travel
PRIO_OFF
G0 X-1.10861 Y4.2863 ; cartesianDistance=0.49652 (Travel)
; 
; feature fill
PRIO_ON
G1 X-5.1061 Y-4.2863 E1269.68511 ; EInc=18.54670 cartesianDistance=9.45882 angle=0.000 pulseDistance=0.51000 => originalEInc=18.54670 adjustedEInc=18.54670 density=N/A
; 
; feature travel
PRIO_OFF
G0 X-5.60259 Y-4.2863 ; cartesianDistance=0.49652 (Travel)
; 
; feature fill
PRIO_ON
G1 X-1.6051 Y4.2863 E1288.23181 ; EInc=18.54670 cartesianDistance=9.45882 angle=0.000 pulseDistance=0.51000 => originalEInc=18.54670 adjustedEInc=18.54670 density=N/A
; 
; feature travel
PRIO_OFF
G0 X-2.10165 Y4.2863 ; cartesianDistance=0.49652 (Travel)
; 
; feature fill
PRIO_ON
G1 X-6.0991 Y-4.2863 E1306.77851 ; EInc=18.54670 cartesianDistance=9.45882 angle=0.000 pulseDistance=0.51000 => originalEInc=18.54670 adjustedEInc=18.54670 density=N/A
; 
; feature travel
PRIO_OFF
G0 X-6.59563 Y-4.2863 ; cartesianDistance=0.49652 (Travel)
; 
; feature fill
PRIO_ON
G1 X-2.5982 Y4.2863 E1325.32522 ; EInc=18.54670 cartesianDistance=9.45882 angle=0.000 pulseDistance=0.51000 => originalEInc=18.54671 adjustedEInc=18.54671 density=N/A
; 
; feature travel
PRIO_OFF
G0 X-3.09469 Y4.2863 ; cartesianDistance=0.49652 (Travel)
; 
; feature fill
PRIO_ON
G1 X-7.0922 Y-4.2863 E1343.87192 ; EInc=18.54670 cartesianDistance=9.45882 angle=0.000 pulseDistance=0.51000 => originalEInc=18.54670 adjustedEInc=18.54670 density=N/A
; 
; feature travel
PRIO_OFF
G0 X-7.58867 Y-4.2863 ; cartesianDistance=0.49652 (Travel)
; 
; feature fill
PRIO_ON
G1 X-3.5912 Y4.2863 E1362.41862 ; EInc=18.54670 cartesianDistance=9.45882 angle=0.000 pulseDistance=0.51000 => originalEInc=18.54670 adjustedEInc=18.54670 density=N/A
; 
; feature travel
PRIO_OFF
G0 X-4.08773 Y4.2863 ; cartesianDistance=0.49652 (Travel)
; 
; feature fill
PRIO_ON
G1 X-8.0852 Y-4.2863 E1380.96532 ; EInc=18.54670 cartesianDistance=9.45882 angle=0.000 pulseDistance=0.51000 => originalEInc=18.54670 adjustedEInc=18.54670 density=N/A
; 
; feature travel
PRIO_OFF
G0 X-8.58171 Y-4.2863 ; cartesianDistance=0.49652 (Travel)
; 
; feature fill
PRIO_ON
G1 X-4.5842 Y4.2863 E1399.51202 ; EInc=18.54670 cartesianDistance=9.45882 angle=0.000 pulseDistance=0.51000 => originalEInc=18.54670 adjustedEInc=18.54670 density=N/A
; 
; feature travel
PRIO_OFF
G0 X-5.08077 Y4.2863 ; cartesianDistance=0.49652 (Travel)
; 
; feature fill
PRIO_ON
G1 X-9.0782 Y-4.2863 E1418.05872 ; EInc=18.54670 cartesianDistance=9.45882 angle=0.000 pulseDistance=0.51000 => originalEInc=18.54670 adjustedEInc=18.54670 density=N/A
; 
; feature travel
PRIO_OFF
G0 X-9.57475 Y-4.2863 ; cartesianDistance=0.49652 (Travel)
; 
; feature fill
PRIO_ON
G1 X-5.5773 Y4.2863 E1436.60542 ; EInc=18.54670 cartesianDistance=9.45882 angle=0.000 pulseDistance=0.51000 => originalEInc=18.54670 adjustedEInc=18.54670 density=N/A
; 
; feature travel
PRIO_OFF
G0 X-6.07381 Y4.2863 ; cartesianDistance=0.49652 (Travel)
; 
; feature fill
PRIO_ON
G1 X-10.0713 Y-4.2863 E1455.15212 ; EInc=18.54670 cartesianDistance=9.45882 angle=0.000 pulseDistance=0.51000 => originalEInc=18.54670 adjustedEInc=18.54670 density=N/A
; 
; feature travel
PRIO_OFF
G0 X-10.56779 Y-4.2863 ; cartesianDistance=0.49652 (Travel)
; 
; feature fill
PRIO_ON
G1 X-6.5703 Y4.2863 E1473.69882 ; EInc=18.54670 cartesianDistance=9.45882 angle=0.000 pulseDistance=0.51000 => originalEInc=18.54670 adjustedEInc=18.54670 density=N/A
; 
; feature travel
PRIO_OFF
G0 X-7.06685 Y4.2863 ; cartesianDistance=0.49652 (Travel)
; 
; feature fill
PRIO_ON
G1 X-11.0643 Y-4.2863 E1492.24553 ; EInc=18.54670 cartesianDistance=9.45882 angle=0.000 pulseDistance=0.51000 => originalEInc=18.54671 adjustedEInc=18.54671 density=N/A
; 
; feature travel
PRIO_OFF
G0 X-11.56083 Y-4.2863 ; cartesianDistance=0.49652 (Travel)
; 
; feature fill
PRIO_ON
G1 X-7.5634 Y4.2863 E1510.79223 ; EInc=18.54670 cartesianDistance=9.45882 angle=0.000 pulseDistance=0.51000 => originalEInc=18.54670 adjustedEInc=18.54670 density=N/A
; 
; feature travel
PRIO_OFF
G0 X-8.05989 Y4.2863 ; cartesianDistance=0.49652 (Travel)
; 
; feature fill
PRIO_ON
G1 X-12.0573 Y-4.2863 E1529.33893 ; EInc=18.54670 cartesianDistance=9.45882 angle=0.000 pulseDistance=0.51000 => originalEInc=18.54670 adjustedEInc=18.54670 density=N/A
; 
; feature travel
PRIO_OFF
G0 X-12.55387 Y-4.2863 ; cartesianDistance=0.49652 (Travel)
; 
; feature fill
PRIO_ON
G1 X-8.5564 Y4.2863 E1547.88563 ; EInc=18.54670 cartesianDistance=9.45882 angle=0.000 pulseDistance=0.51000 => originalEInc=18.54670 adjustedEInc=18.54670 density=N/A
; 
; feature travel
PRIO_OFF
G0 X-9.05293 Y4.2863 ; cartesianDistance=0.49652 (Travel)
; 
; feature fill
PRIO_ON
G1 X-13.0504 Y-4.2863 E1566.43233 ; EInc=18.54670 cartesianDistance=9.45882 angle=0.000 pulseDistance=0.51000 => originalEInc=18.54670 adjustedEInc=18.54670 density=N/A
; 
; feature travel
PRIO_OFF
G0 X-13.54692 Y-4.2863 ; cartesianDistance=0.49652 (Travel)
; 
; feature fill
PRIO_ON
G1 X-9.5495 Y4.2863 E1584.97903 ; EInc=18.54670 cartesianDistance=9.45882 angle=0.000 pulseDistance=0.51000 => originalEInc=18.54670 adjustedEInc=18.54670 density=N/A
; 
; feature travel
PRIO_OFF
G0 X-10.04597 Y4.2863 ; cartesianDistance=0.49652 (Travel)
; 
; feature fill
PRIO_ON
G1 X-14.0434 Y-4.2863 E1603.52573 ; EInc=18.54670 cartesianDistance=9.45882 angle=0.000 pulseDistance=0.51000 => originalEInc=18.54670 adjustedEInc=18.54670 density=N/A
; 
; feature travel
PRIO_OFF
G0 X-14.53996 Y-4.2863 ; cartesianDistance=0.49652 (Travel)
; 
; feature fill
PRIO_ON
G1 X-10.5425 Y4.2863 E1622.07243 ; EInc=18.54670 cartesianDistance=9.45882 angle=0.000 pulseDistance=0.51000 => originalEInc=18.54670 adjustedEInc=18.54670 density=N/A
; 
; feature travel
PRIO_OFF
G0 X-11.03901 Y4.2863 ; cartesianDistance=0.49652 (Travel)
; 
; feature fill
PRIO_ON
G1 X-15.0365 Y-4.2863 E1640.61913 ; EInc=18.54670 cartesianDistance=9.45882 angle=0.000 pulseDistance=0.51000 => originalEInc=18.54670 adjustedEInc=18.54670 density=N/A
; 
; feature travel
PRIO_OFF
G0 X-15.533 Y-4.2863 ; cartesianDistance=0.49652 (Travel)
; 
; feature fill
PRIO_ON
G1 X-11.5355 Y4.2863 E1659.16584 ; EInc=18.54670 cartesianDistance=9.45882 angle=0.000 pulseDistance=0.51000 => originalEInc=18.54671 adjustedEInc=18.54671 density=N/A
; 
; feature travel
PRIO_OFF
G0 X-12.03205 Y4.2863 ; cartesianDistance=0.49652 (Travel)
; 
; feature fill
PRIO_ON
G1 X-16.0295 Y-4.2863 E1677.71254 ; EInc=18.54670 cartesianDistance=9.45882 angle=0.000 pulseDistance=0.51000 => originalEInc=18.54670 adjustedEInc=18.54670 density=N/A
; 
; feature travel
PRIO_OFF
G0 X-16.52604 Y-4.2863 ; cartesianDistance=0.49652 (Travel)
; 
; feature fill
PRIO_ON
G1 X-12.5286 Y4.2863 E1696.25924 ; EInc=18.54670 cartesianDistance=9.45882 angle=0.000 pulseDistance=0.51000 => originalEInc=18.54670 adjustedEInc=18.54670 density=N/A
; 
; feature travel
PRIO_OFF
G0 X-13.02509 Y4.2863 ; cartesianDistance=0.49652 (Travel)
; 
; feature fill
PRIO_ON
G1 X-17.0226 Y-4.2863 E1714.80594 ; EInc=18.54670 cartesianDistance=9.45882 angle=0.000 pulseDistance=0.51000 => originalEInc=18.54670 adjustedEInc=18.54670 density=N/A
; 
; feature travel
PRIO_OFF
G0 X-17.51908 Y-4.2863 ; cartesianDistance=0.49652 (Travel)
; 
; feature fill
PRIO_ON
G1 X-13.5216 Y4.2863 E1733.35264 ; EInc=18.54670 cartesianDistance=9.45882 angle=0.000 pulseDistance=0.51000 => originalEInc=18.54670 adjustedEInc=18.54670 density=N/A
; 
; feature travel
PRIO_OFF
G0 X-14.01813 Y4.2863 ; cartesianDistance=0.49652 (Travel)
; 
; feature fill
PRIO_ON
G1 X-18.0156 Y-4.2863 E1751.89934 ; EInc=18.54670 cartesianDistance=9.45882 angle=0.000 pulseDistance=0.51000 => originalEInc=18.54670 adjustedEInc=18.54670 density=N/A
; 
; feature travel
PRIO_OFF
G0 X-18.51212 Y-4.2863 ; cartesianDistance=0.49652 (Travel)
; 
; feature fill
PRIO_ON
G1 X-14.5146 Y4.2863 E1770.44604 ; EInc=18.54670 cartesianDistance=9.45882 angle=0.000 pulseDistance=0.51000 => originalEInc=18.54670 adjustedEInc=18.54670 density=N/A
; 
; feature travel
PRIO_OFF
G0 X-15.01117 Y4.2863 ; cartesianDistance=0.49652 (Travel)
; 
; feature fill
PRIO_ON
G1 X-19.0086 Y-4.2863 E1788.99274 ; EInc=18.54670 cartesianDistance=9.45882 angle=0.000 pulseDistance=0.51000 => originalEInc=18.54670 adjustedEInc=18.54670 density=N/A
; 
; feature travel
PRIO_OFF
G0 X-19.50516 Y-4.2863 ; cartesianDistance=0.49652 (Travel)
; 
; feature fill
PRIO_ON
G1 X-15.5077 Y4.2863 E1807.53944 ; EInc=18.54670 cartesianDistance=9.45882 angle=0.000 pulseDistance=0.51000 => originalEInc=18.54670 adjustedEInc=18.54670 density=N/A
; 
; feature travel
PRIO_OFF
G0 X-16.00421 Y4.2863 ; cartesianDistance=0.49652 (Travel)
; 
; feature fill
PRIO_ON
G1 X-20.0017 Y-4.2863 E1826.08614 ; EInc=18.54670 cartesianDistance=9.45882 angle=0.000 pulseDistance=0.51000 => originalEInc=18.54670 adjustedEInc=18.54670 density=N/A
; 
; feature travel
PRIO_OFF
G0 X-20.4982 Y-4.2863 ; cartesianDistance=0.49652 (Travel)
; 
; feature fill
PRIO_ON
G1 X-16.5007 Y4.2863 E1844.63285 ; EInc=18.54670 cartesianDistance=9.45882 angle=0.000 pulseDistance=0.51000 => originalEInc=18.54671 adjustedEInc=18.54671 density=N/A
; 
; feature travel
PRIO_OFF
G0 X-16.99725 Y4.2863 ; cartesianDistance=0.49652 (Travel)
; 
; feature fill
PRIO_ON
G1 X-20.9947 Y-4.2863 E1863.17955 ; EInc=18.54670 cartesianDistance=9.45882 angle=0.000 pulseDistance=0.51000 => originalEInc=18.54670 adjustedEInc=18.54670 density=N/A
; 
; feature travel
PRIO_OFF
G0 X-21.49124 Y-4.2863 ; cartesianDistance=0.49652 (Travel)
; 
; feature fill
PRIO_ON
G1 X-17.4938 Y4.2863 E1881.72625 ; EInc=18.54670 cartesianDistance=9.45882 angle=0.000 pulseDistance=0.51000 => originalEInc=18.54670 adjustedEInc=18.54670 density=N/A
; 
; feature travel
PRIO_OFF
G0 X-17.99029 Y4.2863 ; cartesianDistance=0.49652 (Travel)
; 
; feature fill
PRIO_ON
G1 X-21.9878 Y-4.2863 E1900.27295 ; EInc=18.54670 cartesianDistance=9.45882 angle=0.000 pulseDistance=0.51000 => originalEInc=18.54670 adjustedEInc=18.54670 density=N/A
; 
; feature travel
PRIO_OFF
G0 X-22.48428 Y-4.2863 ; cartesianDistance=0.49652 (Travel)
; 
; feature fill
PRIO_ON
G1 X-18.4868 Y4.2863 E1918.81965 ; EInc=18.54670 cartesianDistance=9.45882 angle=0.000 pulseDistance=0.51000 => originalEInc=18.54670 adjustedEInc=18.54670 density=N/A
; 
; feature travel
PRIO_OFF
G0 X-18.98333 Y4.2863 ; cartesianDistance=0.49652 (Travel)
; 
; feature fill
PRIO_ON
G1 X-22.9808 Y-4.2863 E1937.36635 ; EInc=18.54670 cartesianDistance=9.45882 angle=0.000 pulseDistance=0.51000 => originalEInc=18.54670 adjustedEInc=18.54670 density=N/A
; 
; feature travel
PRIO_OFF
G0 X-23.47732 Y-4.2863 ; cartesianDistance=0.49652 (Travel)
; 
; feature fill
PRIO_ON
G1 X-19.4798 Y4.2863 E1955.91305 ; EInc=18.54670 cartesianDistance=9.45882 angle=0.000 pulseDistance=0.51000 => originalEInc=18.54670 adjustedEInc=18.54670 density=N/A
; 
; feature travel
PRIO_OFF
G0 X-19.97637 Y4.2863 ; cartesianDistance=0.49652 (Travel)
; 
; feature fill
PRIO_ON
G1 X-23.9738 Y-4.2863 E1974.45975 ; EInc=18.54670 cartesianDistance=9.45882 angle=0.000 pulseDistance=0.51000 => originalEInc=18.54670 adjustedEInc=18.54670 density=N/A
; 
; feature travel
PRIO_OFF
G0 X-24.47036 Y-4.2863 ; cartesianDistance=0.49652 (Travel)
; 
; feature fill
PRIO_ON
G1 X-20.4729 Y4.2863 E1993.00645 ; EInc=18.54670 cartesianDistance=9.45882 angle=0.000 pulseDistance=0.51000 => originalEInc=18.54670 adjustedEInc=18.54670 density=N/A
; 
; feature travel
PRIO_OFF
G0 X-20.96941 Y4.2863 ; cartesianDistance=0.49652 (Travel)
; 
; feature fill
PRIO_ON
G1 X-24.4947 Y-3.2737 E2009.36244 ; EInc=16.35599 cartesianDistance=8.34155 angle=0.000 pulseDistance=0.51000 => originalEInc=16.35599 adjustedEInc=16.35599 density=N/A
; 
; feature travel
PRIO_OFF
G0 X-24.4947 Y-2.20892 ; cartesianDistance=1.06479 (Travel)
; 
; feature fill
PRIO_ON
G1 X-21.4659 Y4.2863 E2023.41477 ; EInc=14.05233 cartesianDistance=7.16669 angle=0.000 pulseDistance=0.51000 => originalEInc=14.05233 adjustedEInc=14.05233 density=N/A
; 
; feature travel
PRIO_OFF
G0 X-21.96245 Y4.2863 ; cartesianDistance=0.49652 (Travel)
; 
; feature fill
PRIO_ON
G1 X-24.4947 Y-1.1441 E2035.16343 ; EInc=11.74867 cartesianDistance=5.99182 angle=0.000 pulseDistance=0.51000 => originalEInc=11.74866 adjustedEInc=11.74866 density=N/A
; 
; feature travel
PRIO_OFF
G0 X-24.4947 Y-0.07934 ; cartesianDistance=1.06479 (Travel)
; 
; feature fill
PRIO_ON
G1 X-22.4590 Y4.2863 E2044.60844 ; EInc=9.44501 cartesianDistance=4.81695 angle=0.000 pulseDistance=0.51000 => originalEInc=9.44501 adjustedEInc=9.44501 density=N/A
; 
; feature travel
PRIO_OFF
G0 X-22.95549 Y4.2863 ; cartesianDistance=0.49652 (Travel)
; 
; feature fill
PRIO_ON
G1 X-24.4947 Y0.9855 E2051.74978 ; EInc=7.14135 cartesianDistance=3.64209 angle=0.000 pulseDistance=0.51000 => originalEInc=7.14134 adjustedEInc=7.14134 density=N/A
; 
; feature travel
PRIO_OFF
G0 X-24.4947 Y2.05024 ; cartesianDistance=1.06479 (Travel)
; 
; feature fill
PRIO_ON
G1 X-23.4520 Y4.2863 E2056.58747 ; EInc=4.83769 cartesianDistance=2.46722 angle=0.000 pulseDistance=0.51000 => originalEInc=4.83769 adjustedEInc=4.83769 density=N/A
; 
; feature travel
PRIO_OFF
G0 X-23.94853 Y4.2863 ; cartesianDistance=0.49652 (Travel)
; 
; feature fill
PRIO_ON
G1 X-24.4947 Y3.1150 E2059.12149 ; EInc=2.53403 cartesianDistance=1.29235 angle=0.000 pulseDistance=0.51000 => originalEInc=2.53402 adjustedEInc=2.53402 density=N/A
; 
; feature travel
PRIO_OFF
G0 X-24.4947 Y4.17982 ; cartesianDistance=1.06479 (Travel)
; 
; feature fill
PRIO_ON
G1 X-24.4450 Y4.2863 E2059.35186 ; EInc=0.23037 cartesianDistance=0.11749 angle=0.000 pulseDistance=0.51000 => originalEInc=0.23037 adjustedEInc=0.23037 density=N/A
PRIO_OFF
LayersCompleted=2
M1
; 
;========================
; layer 2, Z = 0.7200
; 
; reset extrusion
STOPRE
PRESETON(E, 0)
DO PRIO_PULSE_DISTANCE=DROP_SCALE
DO PRIO_ON_PATH_OFFSET=0.5*PRIO_PULSE_DISTANCE
;outer: (25.2604,-5.0521) (25.2604,5.0521) (-25.2604,5.0521) (-25.2604,-5.0521) (22.2604,-5.0521) holes: !
;overhangs:!
; 
; feature plane change
G0 X-24.44505 Y4.2863 Z0.72 ; cartesianDistance=0.00000 (Plane Change)
; 
; feature travel
G0 X24.8454 Y-3.10697 ; cartesianDistance=49.84184 (Travel)
; 
; feature outer perimeter
G1 F24000 FL[E] = OuterPerimeterFrequency * DROP_SCALE * 60
PRIO_ON
G1 X24.8454 Y4.6370 E-243.05539 ; EInc=18.22111 cartesianDistance=7.74397 angle=90.000 pulseDistance=0.42500 => originalEInc=-2302.40725 adjustedEInc=-2302.40725 density=N/A
G1 X-24.8454 Y4.6370 E-126.13586 ; EInc=116.91953 cartesianDistance=49.69080 angle=90.000 pulseDistance=0.42500 => originalEInc=116.91953 adjustedEInc=116.91953 density=N/A
G1 X-24.8454 Y-4.6370 E-104.31468 ; EInc=21.82118 cartesianDistance=9.27400 angle=90.000 pulseDistance=0.42500 => originalEInc=21.82118 adjustedEInc=21.82118 density=N/A
G1 X24.8454 Y-4.6370 E12.60485 ; EInc=116.91953 cartesianDistance=49.69080 angle=90.000 pulseDistance=0.42500 => originalEInc=116.91953 adjustedEInc=116.91953 density=N/A
G1 X24.8454 Y-3.1070 E16.20491 ; EInc=3.60006 cartesianDistance=1.53003 angle=180.000 pulseDistance=0.42500 => originalEInc=3.60006 adjustedEInc=3.60006 density=N/A
; 
; feature travel
PRIO_OFF
G0 X24.4944 Y-3.10697 ; cartesianDistance=0.35100 (Travel)
; 
; feature inner perimeter
G1 F24000 FL[E] = InnerPerimeterFrequency * DROP_SCALE * 60
PRIO_ON
G1 X24.4944 Y-4.2860 E18.38829 ; EInc=2.18338 cartesianDistance=1.17903 angle=90.000 pulseDistance=0.54000 => originalEInc=2.18338 adjustedEInc=2.18338 density=N/A
G1 X-24.4944 Y-4.2860 E109.10829 ; EInc=90.72000 cartesianDistance=48.98880 angle=90.000 pulseDistance=0.54000 => originalEInc=90.72000 adjustedEInc=90.72000 density=N/A
G1 X-24.4944 Y4.2860 E124.98237 ; EInc=15.87407 cartesianDistance=8.57200 angle=90.000 pulseDistance=0.54000 => originalEInc=15.87408 adjustedEInc=15.87408 density=N/A
G1 X24.4944 Y4.2860 E215.70237 ; EInc=90.72000 cartesianDistance=48.98880 angle=90.000 pulseDistance=0.54000 => originalEInc=90.72000 adjustedEInc=90.72000 density=N/A
G1 X24.4944 Y-3.1070 E229.39306 ; EInc=13.69069 cartesianDistance=7.39297 angle=180.000 pulseDistance=0.54000 => originalEInc=13.69069 adjustedEInc=13.69069 density=N/A
; 
; feature travel
PRIO_OFF
G0 X24.4947 Y-3.23367 ; cartesianDistance=0.12669 (Travel)
; 
; feature fill
G1 F24000 FL[E] = FillFrequency * DROP_SCALE * 60
PRIO_ON
G1 X21.7577 Y4.2863 E245.08439 ; EInc=15.69133 cartesianDistance=8.00258 angle=0.000 pulseDistance=0.51000 => originalEInc=15.69133 adjustedEInc=15.69133 density=N/A
; 
; feature travel
PRIO_OFF
G0 X22.23654 Y4.2863 ; cartesianDistance=0.47888 (Travel)
; 
; feature fill
PRIO_ON
G1 X24.4947 Y-1.9180 E258.03033 ; EInc=12.94594 cartesianDistance=6.60243 angle=0.000 pulseDistance=0.51000 => originalEInc=12.94594 adjustedEInc=12.94594 density=N/A
; 
; feature travel
PRIO_OFF
G0 X24.4947 Y-0.60224 ; cartesianDistance=1.31571 (Travel)
; 
; feature fill
PRIO_ON
G1 X22.7154 Y4.2863 E268.23087 ; EInc=10.20054 cartesianDistance=5.20228 angle=0.000 pulseDistance=0.51000 => originalEInc=10.20054 adjustedEInc=10.20054 density=N/A
; 
; feature travel
PRIO_OFF
G0 X23.1943 Y4.2863 ; cartesianDistance=0.47888 (Travel)
; 
; feature fill
PRIO_ON
G1 X24.4947 Y0.7135 E275.68602 ; EInc=7.45515 cartesianDistance=3.80213 angle=0.000 pulseDistance=0.51000 => originalEInc=7.45515 adjustedEInc=7.45515 density=N/A
; 
; feature travel
PRIO_OFF
G0 X24.4947 Y2.02918 ; cartesianDistance=1.31571 (Travel)
; 
; feature fill
PRIO_ON
G1 X23.6732 Y4.2863 E280.39577 ; EInc=4.70975 cartesianDistance=2.40197 angle=0.000 pulseDistance=0.51000 => originalEInc=4.70975 adjustedEInc=4.70975 density=N/A
; 
; feature travel
PRIO_OFF
G0 X24.15206 Y4.2863 ; cartesianDistance=0.47888 (Travel)
; 
; feature fill
PRIO_ON
G1 X24.4947 Y3.3449 E282.36013 ; EInc=1.96436 cartesianDistance=1.00182 angle=0.000 pulseDistance=0.51000 => originalEInc=1.96436 adjustedEInc=1.96436 density=N/A
; 
; feature travel
PRIO_OFF
G0 X21.27878 Y4.2863 ; cartesianDistance=3.35088 (Travel)
; 
; feature fill
PRIO_ON
G1 X24.3989 Y-4.2863 E300.24792 ; EInc=17.88779 cartesianDistance=9.12277 angle=0.000 pulseDistance=0.51000 => originalEInc=17.88779 adjustedEInc=17.88779 density=N/A
; 
; feature travel
PRIO_OFF
G0 X23.92007 Y-4.2863 ; cartesianDistance=0.47888 (Travel)
; 
; feature fill
PRIO_ON
G1 X20.7999 Y4.2863 E318.13570 ; EInc=17.88779 cartesianDistance=9.12277 angle=0.000 pulseDistance=0.51000 => originalEInc=17.88778 adjustedEInc=17.88778 density=N/A
; 
; feature travel
PRIO_OFF
G0 X20.32102 Y4.2863 ; cartesianDistance=0.47888 (Travel)
; 
; feature fill
PRIO_ON
G1 X23.4412 Y-4.2863 E336.02349 ; EInc=17.88779 cartesianDistance=9.12277 angle=0.000 pulseDistance=0.51000 => originalEInc=17.88779 adjustedEInc=17.88779 density=N/A
; 
; feature travel
PRIO_OFF
G0 X22.96231 Y-4.2863 ; cartesianDistance=0.47888 (Travel)
; 
; feature fill
PRIO_ON
G1 X19.8421 Y4.2863 E353.91127 ; EInc=17.88779 cartesianDistance=9.12277 angle=0.000 pulseDistance=0.51000 => originalEInc=17.88778 adjustedEInc=17.88778 density=N/A
; 
; feature travel
PRIO_OFF
G0 X19.36326 Y4.2863 ; cartesianDistance=0.47888 (Travel)
; 
; feature fill
PRIO_ON
G1 X22.4834 Y-4.2863 E371.79906 ; EInc=17.88779 cartesianDistance=9.12277 angle=0.000 pulseDistance=0.51000 => originalEInc=17.88779 adjustedEInc=17.88779 density=N/A
; 
; feature travel
PRIO_OFF
G0 X22.00455 Y-4.2863 ; cartesianDistance=0.47888 (Travel)
; 
; feature fill
PRIO_ON
G1 X18.8844 Y4.2863 E389.68684 ; EInc=17.88779 cartesianDistance=9.12277 angle=0.000 pulseDistance=0.51000 => originalEInc=17.88778 adjustedEInc=17.88778 density=N/A
; 
; feature travel
PRIO_OFF
G0 X18.4055 Y4.2863 ; cartesianDistance=0.47888 (Travel)
; 
; feature fill
PRIO_ON
G1 X21.5257 Y-4.2863 E407.57463 ; EInc=17.88779 cartesianDistance=9.12277 angle=0.000 pulseDistance=0.51000 => originalEInc=17.88779 adjustedEInc=17.88779 density=N/A
; 
; feature travel
PRIO_OFF
G0 X21.04679 Y-4.2863 ; cartesianDistance=0.47888 (Travel)
; 
; feature fill
PRIO_ON
G1 X17.9266 Y4.2863 E425.46241 ; EInc=17.88779 cartesianDistance=9.12277 angle=0.000 pulseDistance=0.51000 => originalEInc=17.88778 adjustedEInc=17.88778 density=N/A
; 
; feature travel
PRIO_OFF
G0 X17.44774 Y4.2863 ; cartesianDistance=0.47888 (Travel)
; 
; feature fill
PRIO_ON
G1 X20.5679 Y-4.2863 E443.35020 ; EInc=17.88779 cartesianDistance=9.12277 angle=0.000 pulseDistance=0.51000 => originalEInc=17.88779 adjustedEInc=17.88779 density=N/A
; 
; feature travel
PRIO_OFF
G0 X20.08903 Y-4.2863 ; cartesianDistance=0.47888 (Travel)
; 
; feature fill
PRIO_ON
G1 X16.9689 Y4.2863 E461.23798 ; EInc=17.88779 cartesianDistance=9.12277 angle=0.000 pulseDistance=0.51000 => originalEInc=17.88778 adjustedEInc=17.88778 density=N/A
; 
; feature travel
PRIO_OFF
G0 X16.48998 Y4.2863 ; cartesianDistance=0.47888 (Travel)
; 
; feature fill
PRIO_ON
G1 X19.6102 Y-4.2863 E479.12577 ; EInc=17.88779 cartesianDistance=9.12277 angle=0.000 pulseDistance=0.51000 => originalEInc=17.88779 adjustedEInc=17.88779 density=N/A
; 
; feature travel
PRIO_OFF
G0 X19.13127 Y-4.2863 ; cartesianDistance=0.47888 (Travel)
; 
; feature fill
PRIO_ON
G1 X16.0111 Y4.2863 E497.01355 ; EInc=17.88779 cartesianDistance=9.12277 angle=0.000 pulseDistance=0.51000 => originalEInc=17.88778 adjustedEInc=17.88778 density=N/A
; 
; feature travel
PRIO_OFF
G0 X15.53222 Y4.2863 ; cartesianDistance=0.47888 (Travel)
; 
; feature fill
PRIO_ON
G1 X18.6524 Y-4.2863 E514.90134 ; EInc=17.88779 cartesianDistance=9.12277 angle=0.000 pulseDistance=0.51000 => originalEInc=17.88779 adjustedEInc=17.88779 density=N/A
; 
; feature travel
PRIO_OFF
G0 X18.17351 Y-4.2863 ; cartesianDistance=0.47888 (Travel)
; 
; feature fill
PRIO_ON
G1 X15.0533 Y4.2863 E532.78912 ; EInc=17.88779 cartesianDistance=9.12277 angle=0.000 pulseDistance=0.51000 => originalEInc=17.88778 adjustedEInc=17.88778 density=N/A
; 
; feature travel
PRIO_OFF
G0 X14.57446 Y4.2863 ; cartesianDistance=0.47888 (Travel)
; 
; feature fill
PRIO_ON
G1 X17.6946 Y-4.2863 E550.67691 ; EInc=17.88779 cartesianDistance=9.12277 angle=0.000 pulseDistance=0.51000 => originalEInc=17.88779 adjustedEInc=17.88779 density=N/A
; 
; feature travel
PRIO_OFF
G0 X17.21575 Y-4.2863 ; cartesianDistance=0.47888 (Travel)
; 
; feature fill
PRIO_ON
G1 X14.0956 Y4.2863 E568.56469 ; EInc=17.88779 cartesianDistance=9.12277 angle=0.000 pulseDistance=0.51000 => originalEInc=17.88778 adjustedEInc=17.88778 density=N/A
; 
; feature travel
PRIO_OFF
G0 X13.6167 Y4.2863 ; cartesianDistance=0.47888 (Travel)
; 
; feature fill
PRIO_ON
G1 X16.7369 Y-4.2863 E586.45248 ; EInc=17.88779 cartesianDistance=9.12277 angle=0.000 pulseDistance=0.51000 => originalEInc=17.88779 adjustedEInc=17.88779 density=N/A
; 
; feature travel
PRIO_OFF
G0 X16.25799 Y-4.2863 ; cartesianDistance=0.47888 (Travel)
; 
; feature fill
PRIO_ON
G1 X13.1378 Y4.2863 E604.34026 ; EInc=17.88779 cartesianDistance=9.12277 angle=0.000 pulseDistance=0.51000 => originalEInc=17.88778 adjustedEInc=17.88778 density=N/A
; 
; feature travel
PRIO_OFF
G0 X12.65894 Y4.2863 ; cartesianDistance=0.47888 (Travel)
; 
; feature fill
PRIO_ON
G1 X15.7791 Y-4.2863 E622.22805 ; EInc=17.88779 cartesianDistance=9.12277 angle=0.000 pulseDistance=0.51000 => originalEInc=17.88779 adjustedEInc=17.88779 density=N/A
; 
; feature travel
PRIO_OFF
G0 X15.30023 Y-4.2863 ; cartesianDistance=0.47888 (Travel)
; 
; feature fill
PRIO_ON
G1 X12.1801 Y4.2863 E640.11583 ; EInc=17.88779 cartesianDistance=9.12277 angle=0.000 pulseDistance=0.51000 => originalEInc=17.88778 adjustedEInc=17.88778 density=N/A
; 
; feature travel
PRIO_OFF
G0 X11.70118 Y4.2863 ; cartesianDistance=0.47888 (Travel)
; 
; feature fill
PRIO_ON
G1 X14.8214 Y-4.2863 E658.00362 ; EInc=17.88779 cartesianDistance=9.12277 angle=0.000 pulseDistance=0.51000 => originalEInc=17.88779 adjustedEInc=17.88779 density=N/A
; 
; feature travel
PRIO_OFF
G0 X14.34247 Y-4.2863 ; cartesianDistance=0.47888 (Travel)
; 
; feature fill
PRIO_ON
G1 X11.2223 Y4.2863 E675.89140 ; EInc=17.88779 cartesianDistance=9.12277 angle=0.000 pulseDistance=0.51000 => originalEInc=17.88778 adjustedEInc=17.88778 density=N/A
; 
; feature travel
PRIO_OFF
G0 X10.74342 Y4.2863 ; cartesianDistance=0.47888 (Travel)
; 
; feature fill
PRIO_ON
G1 X13.8636 Y-4.2863 E693.77919 ; EInc=17.88779 cartesianDistance=9.12277 angle=0.000 pulseDistance=0.51000 => originalEInc=17.88779 adjustedEInc=17.88779 density=N/A
; 
; feature travel
PRIO_OFF
G0 X13.38471 Y-4.2863 ; cartesianDistance=0.47888 (Travel)
; 
; feature fill
PRIO_ON
G1 X10.2645 Y4.2863 E711.66697 ; EInc=17.88779 cartesianDistance=9.12277 angle=0.000 pulseDistance=0.51000 => originalEInc=17.88778 adjustedEInc=17.88778 density=N/A
; 
; feature travel
PRIO_OFF
G0 X9.78566 Y4.2863 ; cartesianDistance=0.47888 (Travel)
; 
; feature fill
PRIO_ON
G1 X12.9058 Y-4.2863 E729.55476 ; EInc=17.88779 cartesianDistance=9.12277 angle=0.000 pulseDistance=0.51000 => originalEInc=17.88779 adjustedEInc=17.88779 density=N/A
; 
; feature travel
PRIO_OFF
G0 X12.42695 Y-4.2863 ; cartesianDistance=0.47888 (Travel)
; 
; feature fill
PRIO_ON
G1 X9.3068 Y4.2863 E747.44254 ; EInc=17.88779 cartesianDistance=9.12277 angle=0.000 pulseDistance=0.51000 => originalEInc=17.88778 adjustedEInc=17.88778 density=N/A
; 
; feature travel
PRIO_OFF
G0 X8.8279 Y4.2863 ; cartesianDistance=0.47888 (Travel)
; 
; feature fill
PRIO_ON
G1 X11.9481 Y-4.2863 E765.33033 ; EInc=17.88779 cartesianDistance=9.12277 angle=0.000 pulseDistance=0.51000 => originalEInc=17.88779 adjustedEInc=17.88779 density=N/A
; 
; feature travel
PRIO_OFF
G0 X11.46919 Y-4.2863 ; cartesianDistance=0.47888 (Travel)
; 
; feature fill
PRIO_ON
G1 X8.3490 Y4.2863 E783.21811 ; EInc=17.88779 cartesianDistance=9.12277 angle=0.000 pulseDistance=0.51000 => originalEInc=17.88778 adjustedEInc=17.88778 density=N/A
; 
; feature travel
PRIO_OFF
G0 X7.87014 Y4.2863 ; cartesianDistance=0.47888 (Travel)
; 
; feature fill
PRIO_ON
G1 X10.9903 Y-4.2863 E801.10590 ; EInc=17.88779 cartesianDistance=9.12277 angle=0.000 pulseDistance=0.51000 => originalEInc=17.88779 adjustedEInc=17.88779 density=N/A
; 
; feature travel
PRIO_OFF
G0 X10.51143 Y-4.2863 ; cartesianDistance=0.47888 (Travel)
; 
; feature fill
PRIO_ON
G1 X7.3913 Y4.2863 E818.99368 ; EInc=17.88779 cartesianDistance=9.12277 angle=0.000 pulseDistance=0.51000 => originalEInc=17.88778 adjustedEInc=17.88778 density=N/A
; 
; feature travel
PRIO_OFF
G0 X6.91238 Y4.2863 ; cartesianDistance=0.47888 (Travel)
; 
; feature fill
PRIO_ON
G1 X10.0326 Y-4.2863 E836.88147 ; EInc=17.88779 cartesianDistance=9.12277 angle=0.000 pulseDistance=0.51000 => originalEInc=17.88779 adjustedEInc=17.88779 density=N/A
; 
; feature travel
PRIO_OFF
G0 X9.55367 Y-4.2863 ; cartesianDistance=0.47888 (Travel)
; 
; feature fill
PRIO_ON
G1 X6.4335 Y4.2863 E854.76925 ; EInc=17.88779 cartesianDistance=9.12277 angle=0.000 pulseDistance=0.51000 => originalEInc=17.88778 adjustedEInc=17.88778 density=N/A
; 
; feature travel
PRIO_OFF
G0 X5.95462 Y4.2863 ; cartesianDistance=0.47888 (Travel)
; 
; feature fill
PRIO_ON
G1 X9.0748 Y-4.2863 E872.65704 ; EInc=17.88779 cartesianDistance=9.12277 angle=0.000 pulseDistance=0.51000 => originalEInc=17.88779 adjustedEInc=17.88779 density=N/A
; 
; feature travel
PRIO_OFF
G0 X8.59591 Y-4.2863 ; cartesianDistance=0.47888 (Travel)
; 
; feature fill
PRIO_ON
G1 X5.4757 Y4.2863 E890.54482 ; EInc=17.88779 cartesianDistance=9.12277 angle=0.000 pulseDistance=0.51000 => originalEInc=17.88778 adjustedEInc=17.88778 density=N/A
; 
; feature travel
PRIO_OFF
G0 X4.99686 Y4.2863 ; cartesianDistance=0.47888 (Travel)
; 
; feature fill
PRIO_ON
G1 X8.1170 Y-4.2863 E908.43261 ; EInc=17.88779 cartesianDistance=9.12277 angle=0.000 pulseDistance=0.51000 => originalEInc=17.88779 adjustedEInc=17.88779 density=N/A
; 
; feature travel
PRIO_OFF
G0 X7.63815 Y-4.2863 ; cartesianDistance=0.47888 (Travel)
; 
; feature fill
PRIO_ON
G1 X4.5180 Y4.2863 E926.32039 ; EInc=17.88779 cartesianDistance=9.12277 angle=0.000 pulseDistance=0.51000 => originalEInc=17.88778 adjustedEInc=17.88778 density=N/A
; 
; feature travel
PRIO_OFF
G0 X4.0391 Y4.2863 ; cartesianDistance=0.47888 (Travel)
; 
; feature fill
PRIO_ON
G1 X7.1593 Y-4.2863 E944.20818 ; EInc=17.88779 cartesianDistance=9.12277 angle=0.000 pulseDistance=0.51000 => originalEInc=17.88779 adjustedEInc=17.88779 density=N/A
; 
; feature travel
PRIO_OFF
G0 X6.68039 Y-4.2863 ; cartesianDistance=0.47888 (Travel)
; 
; feature fill
PRIO_ON
G1 X3.5602 Y4.2863 E962.09596 ; EInc=17.88779 cartesianDistance=9.12277 angle=0.000 pulseDistance=0.51000 => originalEInc=17.88778 adjustedEInc=17.88778 density=N/A
; 
; feature travel
PRIO_OFF
G0 X3.08134 Y4.2863 ; cartesianDistance=0.47888 (Travel)
; 
; feature fill
PRIO_ON
G1 X6.2015 Y-4.2863 E979.98375 ; EInc=17.88779 cartesianDistance=9.12277 angle=0.000 pulseDistance=0.51000 => originalEInc=17.88779 adjustedEInc=17.88779 density=N/A
; 
; feature travel
PRIO_OFF
G0 X5.72263 Y-4.2863 ; cartesianDistance=0.47888 (Travel)
; 
; feature fill
PRIO_ON
G1 X2.6025 Y4.2863 E997.87153 ; EInc=17.88779 cartesianDistance=9.12277 angle=0.000 pulseDistance=0.51000 => originalEInc=17.88778 adjustedEInc=17.88778 density=N/A
; 
; feature travel
PRIO_OFF
G0 X2.12358 Y4.2863 ; cartesianDistance=0.47888 (Travel)
; 
; feature fill
PRIO_ON
G1 X5.2438 Y-4.2863 E1015.75932 ; EInc=17.88779 cartesianDistance=9.12277 angle=0.000 pulseDistance=0.51000 => originalEInc=17.88779 adjustedEInc=17.88779 density=N/A
; 
; feature travel
PRIO_OFF
G0 X4.76487 Y-4.2863 ; cartesianDistance=0.47888 (Travel)
; 
; feature fill
PRIO_ON
G1 X1.6447 Y4.2863 E1033.64710 ; EInc=17.88779 cartesianDistance=9.12277 angle=0.000 pulseDistance=0.51000 => originalEInc=17.88778 adjustedEInc=17.88778 density=N/A
; 
; feature travel
PRIO_OFF
G0 X1.16582 Y4.2863 ; cartesianDistance=0.47888 (Travel)
; 
; feature fill
PRIO_ON
G1 X4.2860 Y-4.2863 E1051.53489 ; EInc=17.88779 cartesianDistance=9.12277 angle=0.000 pulseDistance=0.51000 => originalEInc=17.88779 adjustedEInc=17.88779 density=N/A
; 
; feature travel
PRIO_OFF
G0 X3.80711 Y-4.2863 ; cartesianDistance=0.47888 (Travel)
; 
; feature fill
PRIO_ON
G1 X0.6869 Y4.2863 E1069.42267 ; EInc=17.88779 cartesianDistance=9.12277 angle=0.000 pulseDistance=0.51000 => originalEInc=17.88778 adjustedEInc=17.88778 density=N/A
; 
; feature travel
PRIO_OFF
G0 X0.20806 Y4.2863 ; cartesianDistance=0.47888 (Travel)
; 
; feature fill
PRIO_ON
G1 X3.3282 Y-4.2863 E1087.31046 ; EInc=17.88779 cartesianDistance=9.12277 angle=0.000 pulseDistance=0.51000 => originalEInc=17.88779 adjustedEInc=17.88779 density=N/A
; 
; feature travel
PRIO_OFF
G0 X2.84935 Y-4.2863 ; cartesianDistance=0.47888 (Travel)
; 
; feature fill
PRIO_ON
G1 X0.0000 Y3.5422 E1095.47805 ; originalEInc=16.33518 adjustedEInc=8.16759 density=0.5
G1 X-0.2708 Y4.2863 E1097.03064 ; EInc=17.88779 cartesianDistance=9.12277 angle=0.000 pulseDistance=0.51000 => originalEInc=1.55260 adjustedEInc=1.55260 density=N/A
; 
; feature travel
PRIO_OFF
G0 X-0.7497 Y4.2863 ; cartesianDistance=0.47888 (Travel)
; 
; feature fill
PRIO_ON
G1 X0.0000 Y2.2265 E1101.32864 ; originalEInc=4.29800 adjustedEInc=4.29800 density=N/A
G1 X2.3705 Y-4.2863 E1108.12354 ; EInc=17.88779 cartesianDistance=9.12277 angle=0.000 pulseDistance=0.51000 => originalEInc=13.58979 adjustedEInc=6.79490 density=0.5
; 
; feature travel
PRIO_OFF
G0 X1.89159 Y-4.2863 ; cartesianDistance=0.47888 (Travel)
; 
; feature fill
PRIO_ON
G1 X0.0000 Y0.9108 E1113.54573 ; originalEInc=10.84439 adjustedEInc=5.42220 density=0.5
G1 X-1.2286 Y4.2863 E1120.58912 ; EInc=17.88779 cartesianDistance=9.12277 angle=0.000 pulseDistance=0.51000 => originalEInc=7.04339 adjustedEInc=7.04339 density=N/A
; 
; feature travel
PRIO_OFF
G0 X-1.70746 Y4.2863 ; cartesianDistance=0.47888 (Travel)
; 
; feature fill
PRIO_ON
G1 X0.0000 Y-0.4049 E1130.37791 ; originalEInc=9.78879 adjustedEInc=9.78879 density=N/A
G1 X1.4127 Y-4.2863 E1134.42741 ; EInc=17.88779 cartesianDistance=9.12277 angle=0.000 pulseDistance=0.51000 => originalEInc=8.09900 adjustedEInc=4.04950 density=0.5
; 
; feature travel
PRIO_OFF
G0 X0.93383 Y-4.2863 ; cartesianDistance=0.47888 (Travel)
; 
; feature fill
PRIO_ON
G1 X0.0000 Y-1.7206 E1137.10421 ; originalEInc=5.35360 adjustedEInc=2.67680 density=0.5
G1 X-2.1863 Y4.2863 E1149.63839 ; EInc=17.88779 cartesianDistance=9.12277 angle=0.000 pulseDistance=0.51000 => originalEInc=12.53418 adjustedEInc=12.53418 density=N/A
; 
; feature travel
PRIO_OFF
G0 X-2.66522 Y4.2863 ; cartesianDistance=0.47888 (Travel)
; 
; feature fill
PRIO_ON
G1 X0.0000 Y-3.0363 E1164.91797 ; originalEInc=15.27958 adjustedEInc=15.27958 density=N/A
G1 X0.4550 Y-4.2863 E1166.22208 ; EInc=17.88779 cartesianDistance=9.12277 angle=0.000 pulseDistance=0.51000 => originalEInc=2.60821 adjustedEInc=1.30410 density=0.5
; 
; feature travel
PRIO_OFF
G0 X-0.02393 Y-4.2863 ; cartesianDistance=0.47888 (Travel)
; 
; feature fill
PRIO_ON
G1 X-3.1441 Y4.2863 E1184.10986 ; EInc=17.88779 cartesianDistance=9.12277 angle=0.000 pulseDistance=0.51000 => originalEInc=17.88778 adjustedEInc=17.88778 density=N/A
; 
; feature travel
PRIO_OFF
G0 X-3.62298 Y4.2863 ; cartesianDistance=0.47888 (Travel)
; 
; feature fill
PRIO_ON
G1 X-0.5028 Y-4.2863 E1201.99765 ; EInc=17.88779 cartesianDistance=9.12277 angle=0.000 pulseDistance=0.51000 => originalEInc=17.88779 adjustedEInc=17.88779 density=N/A
; 
; feature travel
PRIO_OFF
G0 X-0.98169 Y-4.2863 ; cartesianDistance=0.47888 (Travel)
; 
; feature fill
PRIO_ON
G1 X-4.1019 Y4.2863 E1219.88543 ; EInc=17.88779 cartesianDistance=9.12277 angle=0.000 pulseDistance=0.51000 => originalEInc=17.88778 adjustedEInc=17.88778 density=N/A
; 
; feature travel
PRIO_OFF
G0 X-4.58074 Y4.2863 ; cartesianDistance=0.47888 (Travel)
; 
; feature fill
PRIO_ON
G1 X-1.4606 Y-4.2863 E1237.77322 ; EInc=17.88779 cartesianDistance=9.12277 angle=0.000 pulseDistance=0.51000 => originalEInc=17.88779 adjustedEInc=17.88779 density=N/A
; 
; feature travel
PRIO_OFF
G0 X-1.93945 Y-4.2863 ; cartesianDistance=0.47888 (Travel)
; 
; feature fill
PRIO_ON
G1 X-5.0596 Y4.2863 E1255.66100 ; EInc=17.88779 cartesianDistance=9.12277 angle=0.000 pulseDistance=0.51000 => originalEInc=17.88778 adjustedEInc=17.88778 density=N/A
; 
; feature travel
PRIO_OFF
G0 X-5.5385 Y4.2863 ; cartesianDistance=0.47888 (Travel)
; 
; feature fill
PRIO_ON
G1 X-2.4183 Y-4.2863 E1273.54879 ; EInc=17.88779 cartesianDistance=9.12277 angle=0.000 pulseDistance=0.51000 => originalEInc=17.88779 adjustedEInc=17.88779 density=N/A
; 
; feature travel
PRIO_OFF
G0 X-2.89721 Y-4.2863 ; cartesianDistance=0.47888 (Travel)
; 
; feature fill
PRIO_ON
G1 X-6.0174 Y4.2863 E1291.43657 ; EInc=17.88779 cartesianDistance=9.12277 angle=0.000 pulseDistance=0.51000 => originalEInc=17.88778 adjustedEInc=17.88778 density=N/A
; 
; feature travel
PRIO_OFF
G0 X-6.49626 Y4.2863 ; cartesianDistance=0.47888 (Travel)
; 
; feature fill
PRIO_ON
G1 X-3.3761 Y-4.2863 E1309.32436 ; EInc=17.88779 cartesianDistance=9.12277 angle=0.000 pulseDistance=0.51000 => originalEInc=17.88779 adjustedEInc=17.88779 density=N/A
; 
; feature travel
PRIO_OFF
G0 X-3.85497 Y-4.2863 ; cartesianDistance=0.47888 (Travel)
; 
; feature fill
PRIO_ON
G1 X-6.9751 Y4.2863 E1327.21214 ; EInc=17.88779 cartesianDistance=9.12277 angle=0.000 pulseDistance=0.51000 => originalEInc=17.88778 adjustedEInc=17.88778 density=N/A
; 
; feature travel
PRIO_OFF
G0 X-7.45402 Y4.2863 ; cartesianDistance=0.47888 (Travel)
; 
; feature fill
PRIO_ON
G1 X-4.3338 Y-4.2863 E1345.09993 ; EInc=17.88779 cartesianDistance=9.12277 angle=0.000 pulseDistance=0.51000 => originalEInc=17.88779 adjustedEInc=17.88779 density=N/A
; 
; feature travel
PRIO_OFF
G0 X-4.81273 Y-4.2863 ; cartesianDistance=0.47888 (Travel)
; 
; feature fill
PRIO_ON
G1 X-7.9329 Y4.2863 E1362.98771 ; EInc=17.88779 cartesianDistance=9.12277 angle=0.000 pulseDistance=0.51000 => originalEInc=17.88778 adjustedEInc=17.88778 density=N/A
; 
; feature travel
PRIO_OFF
G0 X-8.41178 Y4.2863 ; cartesianDistance=0.47888 (Travel)
; 
; feature fill
PRIO_ON
G1 X-5.2916 Y-4.2863 E1380.87550 ; EInc=17.88779 cartesianDistance=9.12277 angle=0.000 pulseDistance=0.51000 => originalEInc=17.88779 adjustedEInc=17.88779 density=N/A
; 
; feature travel
PRIO_OFF
G0 X-5.77049 Y-4.2863 ; cartesianDistance=0.47888 (Travel)
; 
; feature fill
PRIO_ON
G1 X-8.8907 Y4.2863 E1398.76329 ; EInc=17.88779 cartesianDistance=9.12277 angle=0.000 pulseDistance=0.51000 => originalEInc=17.88779 adjustedEInc=17.88779 density=N/A
; 
; feature travel
PRIO_OFF
G0 X-9.36954 Y4.2863 ; cartesianDistance=0.47888 (Travel)
; 
; feature fill
PRIO_ON
G1 X-6.2494 Y-4.2863 E1416.65107 ; EInc=17.88779 cartesianDistance=9.12277 angle=0.000 pulseDistance=0.51000 => originalEInc=17.88778 adjustedEInc=17.88778 density=N/A
; 
; feature travel
PRIO_OFF
G0 X-6.72825 Y-4.2863 ; cartesianDistance=0.47888 (Travel)
; 
; feature fill
PRIO_ON
G1 X-9.8484 Y4.2863 E1434.53886 ; EInc=17.88779 cartesianDistance=9.12277 angle=0.000 pulseDistance=0.51000 => originalEInc=17.88779 adjustedEInc=17.88779 density=N/A
; 
; feature travel
PRIO_OFF
G0 X-10.3273 Y4.2863 ; cartesianDistance=0.47888 (Travel)
; 
; feature fill
PRIO_ON
G1 X-7.2071 Y-4.2863 E1452.42664 ; EInc=17.88779 cartesianDistance=9.12277 angle=0.000 pulseDistance=0.51000 => originalEInc=17.88778 adjustedEInc=17.88778 density=N/A
; 
; feature travel
PRIO_OFF
G0 X-7.68601 Y-4.2863 ; cartesianDistance=0.47888 (Travel)
; 
; feature fill
PRIO_ON
G1 X-10.8062 Y4.2863 E1470.31443 ; EInc=17.88779 cartesianDistance=9.12277 angle=0.000 pulseDistance=0.51000 => originalEInc=17.88779 adjustedEInc=17.88779 density=N/A
; 
; feature travel
PRIO_OFF
G0 X-11.28506 Y4.2863 ; cartesianDistance=0.47888 (Travel)
; 
; feature fill
PRIO_ON
G1 X-8.1649 Y-4.2863 E1488.20221 ; EInc=17.88779 cartesianDistance=9.12277 angle=0.000 pulseDistance=0.51000 => originalEInc=17.88778 adjustedEInc=17.88778 density=N/A
; 
; feature travel
PRIO_OFF
G0 X-8.64377 Y-4.2863 ; cartesianDistance=0.47888 (Travel)
; 
; feature fill
PRIO_ON
G1 X-11.7639 Y4.2863 E1506.09000 ; EInc=17.88779 cartesianDistance=9.12277 angle=0.000 pulseDistance=0.51000 => originalEInc=17.88779 adjustedEInc=17.88779 density=N/A
; 
; feature travel
PRIO_OFF
G0 X-12.24282 Y4.2863 ; cartesianDistance=0.47888 (Travel)
; 
; feature fill
PRIO_ON
G1 X-9.1227 Y-4.2863 E1523.97778 ; EInc=17.88779 cartesianDistance=9.12277 angle=0.000 pulseDistance=0.51000 => originalEInc=17.88778 adjustedEInc=17.88778 density=N/A
; 
; feature travel
PRIO_OFF
G0 X-9.60153 Y-4.2863 ; cartesianDistance=0.47888 (Travel)
; 
; feature fill
PRIO_ON
G1 X-12.7217 Y4.2863 E1541.86557 ; EInc=17.88779 cartesianDistance=9.12277 angle=0.000 pulseDistance=0.51000 => originalEInc=17.88779 adjustedEInc=17.88779 density=N/A
; 
; feature travel
PRIO_OFF
G0 X-13.20058 Y4.2863 ; cartesianDistance=0.47888 (Travel)
; 
; feature fill
PRIO_ON
G1 X-10.0804 Y-4.2863 E1559.75335 ; EInc=17.88779 cartesianDistance=9.12277 angle=0.000 pulseDistance=0.51000 => originalEInc=17.88778 adjustedEInc=17.88778 density=N/A
; 
; feature travel
PRIO_OFF
G0 X-10.55929 Y-4.2863 ; cartesianDistance=0.47888 (Travel)
; 
; feature fill
PRIO_ON
G1 X-13.6795 Y4.2863 E1577.64114 ; EInc=17.88779 cartesianDistance=9.12277 angle=0.000 pulseDistance=0.51000 => originalEInc=17.88779 adjustedEInc=17.88779 density=N/A
; 
; feature travel
PRIO_OFF
G0 X-14.15834 Y4.2863 ; cartesianDistance=0.47888 (Travel)
; 
; feature fill
PRIO_ON
G1 X-11.0382 Y-4.2863 E1595.52892 ; EInc=17.88779 cartesianDistance=9.12277 angle=0.000 pulseDistance=0.51000 => originalEInc=17.88778 adjustedEInc=17.88778 density=N/A
; 
; feature travel
PRIO_OFF
G0 X-11.51705 Y-4.2863 ; cartesianDistance=0.47888 (Travel)
; 
; feature fill
PRIO_ON
G1 X-14.6372 Y4.2863 E1613.41671 ; EInc=17.88779 cartesianDistance=9.12277 angle=0.000 pulseDistance=0.51000 => originalEInc=17.88779 adjustedEInc=17.88779 density=N/A
; 
; feature travel
PRIO_OFF
G0 X-15.1161 Y4.2863 ; cartesianDistance=0.47888 (Travel)
; 
; feature fill
PRIO_ON
G1 X-11.9959 Y-4.2863 E1631.30449 ; EInc=17.88779 cartesianDistance=9.12277 angle=0.000 pulseDistance=0.51000 => originalEInc=17.88778 adjustedEInc=17.88778 density=N/A
; 
; feature travel
PRIO_OFF
G0 X-12.47481 Y-4.2863 ; cartesianDistance=0.47888 (Travel)
; 
; feature fill
PRIO_ON
G1 X-15.5950 Y4.2863 E1649.19228 ; EInc=17.88779 cartesianDistance=9.12277 angle=0.000 pulseDistance=0.51000 => originalEInc=17.88779 adjustedEInc=17.88779 density=N/A
; 
; feature travel
PRIO_OFF
G0 X-16.07386 Y4.2863 ; cartesianDistance=0.47888 (Travel)
; 
; feature fill
PRIO_ON
G1 X-12.9537 Y-4.2863 E1667.08006 ; EInc=17.88779 cartesianDistance=9.12277 angle=0.000 pulseDistance=0.51000 => originalEInc=17.88778 adjustedEInc=17.88778 density=N/A
; 
; feature travel
PRIO_OFF
G0 X-13.43257 Y-4.2863 ; cartesianDistance=0.47888 (Travel)
; 
; feature fill
PRIO_ON
G1 X-16.5527 Y4.2863 E1684.96785 ; EInc=17.88779 cartesianDistance=9.12277 angle=0.000 pulseDistance=0.51000 => originalEInc=17.88779 adjustedEInc=17.88779 density=N/A
; 
; feature travel
PRIO_OFF
G0 X-17.03162 Y4.2863 ; cartesianDistance=0.47888 (Travel)
; 
; feature fill
PRIO_ON
G1 X-13.9115 Y-4.2863 E1702.85563 ; EInc=17.88779 cartesianDistance=9.12277 angle=0.000 pulseDistance=0.51000 => originalEInc=17.88778 adjustedEInc=17.88778 density=N/A
; 
; feature travel
PRIO_OFF
G0 X-14.39033 Y-4.2863 ; cartesianDistance=0.47888 (Travel)
; 
; feature fill
PRIO_ON
G1 X-17.5105 Y4.2863 E1720.74342 ; EInc=17.88779 cartesianDistance=9.12277 angle=0.000 pulseDistance=0.51000 => originalEInc=17.88779 adjustedEInc=17.88779 density=N/A
; 
; feature travel
PRIO_OFF
G0 X-17.98938 Y4.2863 ; cartesianDistance=0.47888 (Travel)
; 
; feature fill
PRIO_ON
G1 X-14.8692 Y-4.2863 E1738.63120 ; EInc=17.88779 cartesianDistance=9.12277 angle=0.000 pulseDistance=0.51000 => originalEInc=17.88778 adjustedEInc=17.88778 density=N/A
; 
; feature travel
PRIO_OFF
G0 X-15.34809 Y-4.2863 ; cartesianDistance=0.47888 (Travel)
; 
; feature fill
PRIO_ON
G1 X-18.4683 Y4.2863 E1756.51899 ; EInc=17.88779 cartesianDistance=9.12277 angle=0.000 pulseDistance=0.51000 => originalEInc=17.88779 adjustedEInc=17.88779 density=N/A
; 
; feature travel
PRIO_OFF
G0 X-18.94714 Y4.2863 ; cartesianDistance=0.47888 (Travel)
; 
; feature fill
PRIO_ON
G1 X-15.8270 Y-4.2863 E1774.40677 ; EInc=17.88779 cartesianDistance=9.12277 angle=0.000 pulseDistance=0.51000 => originalEInc=17.88778 adjustedEInc=17.88778 density=N/A
; 
; feature travel
PRIO_OFF
G0 X-16.30585 Y-4.2863 ; cartesianDistance=0.47888 (Travel)
; 
; feature fill
PRIO_ON
G1 X-19.4260 Y4.2863 E1792.29456 ; EInc=17.88779 cartesianDistance=9.12277 angle=0.000 pulseDistance=0.51000 => originalEInc=17.88779 adjustedEInc=17.88779 density=N/A
; 
; feature travel
PRIO_OFF
G0 X-19.9049 Y4.2863 ; cartesianDistance=0.47888 (Travel)
; 
; feature fill
PRIO_ON
G1 X-16.7847 Y-4.2863 E1810.18234 ; EInc=17.88779 cartesianDistance=9.12277 angle=0.000 pulseDistance=0.51000 => originalEInc=17.88778 adjustedEInc=17.88778 density=N/A
; 
; feature travel
PRIO_OFF
G0 X-17.26361 Y-4.2863 ; cartesianDistance=0.47888 (Travel)
; 
; feature fill
PRIO_ON
G1 X-20.3838 Y4.2863 E1828.07013 ; EInc=17.88779 cartesianDistance=9.12277 angle=0.000 pulseDistance=0.51000 => originalEInc=17.88779 adjustedEInc=17.88779 density=N/A
; 
; feature travel
PRIO_OFF
G0 X-20.86266 Y4.2863 ; cartesianDistance=0.47888 (Travel)
; 
; feature fill
PRIO_ON
G1 X-17.7425 Y-4.2863 E1845.95791 ; EInc=17.88779 cartesianDistance=9.12277 angle=0.000 pulseDistance=0.51000 => originalEInc=17.88778 adjustedEInc=17.88778 density=N/A
; 
; feature travel
PRIO_OFF
G0 X-18.22137 Y-4.2863 ; cartesianDistance=0.47888 (Travel)
; 
; feature fill
PRIO_ON
G1 X-21.3415 Y4.2863 E1863.84570 ; EInc=17.88779 cartesianDistance=9.12277 angle=0.000 pulseDistance=0.51000 => originalEInc=17.88779 adjustedEInc=17.88779 density=N/A
; 
; feature travel
PRIO_OFF
G0 X-21.82042 Y4.2863 ; cartesianDistance=0.47888 (Travel)
; 
; feature fill
PRIO_ON
G1 X-18.7003 Y-4.2863 E1881.73348 ; EInc=17.88779 cartesianDistance=9.12277 angle=0.000 pulseDistance=0.51000 => originalEInc=17.88778 adjustedEInc=17.88778 density=N/A
; 
; feature travel
PRIO_OFF
G0 X-19.17913 Y-4.2863 ; cartesianDistance=0.47888 (Travel)
; 
; feature fill
PRIO_ON
G1 X-22.2993 Y4.2863 E1899.62127 ; EInc=17.88779 cartesianDistance=9.12277 angle=0.000 pulseDistance=0.51000 => originalEInc=17.88779 adjustedEInc=17.88779 density=N/A
; 
; feature travel
PRIO_OFF
G0 X-22.77818 Y4.2863 ; cartesianDistance=0.47888 (Travel)
; 
; feature fill
PRIO_ON
G1 X-19.6580 Y-4.2863 E1917.50905 ; EInc=17.88779 cartesianDistance=9.12277 angle=0.000 pulseDistance=0.51000 => originalEInc=17.88778 adjustedEInc=17.88778 density=N/A
; 
; feature travel
PRIO_OFF
G0 X-20.13689 Y-4.2863 ; cartesianDistance=0.47888 (Travel)
; 
; feature fill
PRIO_ON
G1 X-23.2571 Y4.2863 E1935.39684 ; EInc=17.88779 cartesianDistance=9.12277 angle=0.000 pulseDistance=0.51000 => originalEInc=17.88779 adjustedEInc=17.88779 density=N/A
; 
; feature travel
PRIO_OFF
G0 X-23.73594 Y4.2863 ; cartesianDistance=0.47888 (Travel)
; 
; feature fill
PRIO_ON
G1 X-20.6158 Y-4.2863 E1953.28462 ; EInc=17.88779 cartesianDistance=9.12277 angle=0.000 pulseDistance=0.51000 => originalEInc=17.88778 adjustedEInc=17.88778 density=N/A
; 
; feature travel
PRIO_OFF
G0 X-21.09465 Y-4.2863 ; cartesianDistance=0.47888 (Travel)
; 
; feature fill
PRIO_ON
G1 X-24.2148 Y4.2863 E1971.17241 ; EInc=17.88779 cartesianDistance=9.12277 angle=0.000 pulseDistance=0.51000 => originalEInc=17.88779 adjustedEInc=17.88779 density=N/A
; 
; feature travel
PRIO_OFF
G0 X-24.4947 Y3.73954 ; cartesianDistance=0.61423 (Travel)
; 
; feature fill
PRIO_ON
G1 X-21.5735 Y-4.2863 E1987.91932 ; EInc=16.74691 cartesianDistance=8.54092 angle=0.000 pulseDistance=0.51000 => originalEInc=16.74691 adjustedEInc=16.74691 density=N/A
; 
; feature travel
PRIO_OFF
G0 X-22.05241 Y-4.2863 ; cartesianDistance=0.47888 (Travel)
; 
; feature fill
PRIO_ON
G1 X-24.4947 Y2.4238 E2001.92083 ; EInc=14.00151 cartesianDistance=7.14077 angle=0.000 pulseDistance=0.51000 => originalEInc=14.00151 adjustedEInc=14.00151 density=N/A
; 
; feature travel
PRIO_OFF
G0 X-24.4947 Y1.10812 ; cartesianDistance=1.31571 (Travel)
; 
; feature fill
PRIO_ON
G1 X-22.5313 Y-4.2863 E2013.17695 ; EInc=11.25612 cartesianDistance=5.74062 angle=0.000 pulseDistance=0.51000 => originalEInc=11.25612 adjustedEInc=11.25612 density=N/A
; 
; feature travel
PRIO_OFF
G0 X-23.01017 Y-4.2863 ; cartesianDistance=0.47888 (Travel)
; 
; feature fill
PRIO_ON
G1 X-24.4947 Y-0.2076 E2021.68767 ; EInc=8.51072 cartesianDistance=4.34047 angle=0.000 pulseDistance=0.51000 => originalEInc=8.51072 adjustedEInc=8.51072 density=N/A
; 
; feature travel
PRIO_OFF
G0 X-24.4947 Y-1.5233 ; cartesianDistance=1.31571 (Travel)
; 
; feature fill
PRIO_ON
G1 X-23.4890 Y-4.2863 E2027.45300 ; EInc=5.76533 cartesianDistance=2.94032 angle=0.000 pulseDistance=0.51000 => originalEInc=5.76533 adjustedEInc=5.76533 density=N/A
; 
; feature travel
PRIO_OFF
G0 X-23.96793 Y-4.2863 ; cartesianDistance=0.47888 (Travel)
; 
; feature fill
PRIO_ON
G1 X-24.4947 Y-2.8390 E2030.47294 ; EInc=3.01993 cartesianDistance=1.54017 angle=0.000 pulseDistance=0.51000 => originalEInc=3.01994 adjustedEInc=3.01994 density=N/A
; 
; feature travel
PRIO_OFF
G0 X-24.4947 Y-4.15473 ; cartesianDistance=1.31571 (Travel)
; 
; feature fill
PRIO_ON
G1 X-24.4468 Y-4.2863 E2030.74748 ; EInc=0.27454 cartesianDistance=0.14002 angle=0.000 pulseDistance=0.51000 => originalEInc=0.27454 adjustedEInc=0.27454 density=N/A
PRIO_OFF
LayersCompleted=3
M1
; 
;========================
; layer 3, Z = 0.9600
; 
; reset extrusion
STOPRE
PRESETON(E, 0)
DO PRIO_PULSE_DISTANCE=DROP_SCALE
DO PRIO_ON_PATH_OFFSET=0.5*PRIO_PULSE_DISTANCE
;outer: (25.2604,-5.0521) (25.2604,5.0521) (-25.2604,5.0521) (-25.2604,-5.0521) (21.0604,-5.0521) holes: !
;overhangs:!
; 
; feature plane change
G0 X-24.44681 Y-4.2863 Z0.96 ; cartesianDistance=0.00000 (Plane Change)
; 
; feature travel
G0 X4.1599 Y-4.637 ; cartesianDistance=28.60886 (Travel)
; 
; feature outer perimeter
G1 F24000 FL[E] = OuterPerimeterFrequency * DROP_SCALE * 60
PRIO_ON
G1 X-24.8454 Y-4.6370 E-221.44383 ; EInc=68.24776 cartesianDistance=29.00530 angle=90.000 pulseDistance=0.42500 => originalEInc=-2252.19131 adjustedEInc=-2252.19131 density=N/A
G1 X-24.8454 Y4.6370 E-199.62266 ; EInc=21.82118 cartesianDistance=9.27400 angle=90.000 pulseDistance=0.42500 => originalEInc=21.82117 adjustedEInc=21.82117 density=N/A
G1 X24.8454 Y4.6370 E-82.70313 ; EInc=116.91953 cartesianDistance=49.69080 angle=90.000 pulseDistance=0.42500 => originalEInc=116.91953 adjustedEInc=116.91953 density=N/A
G1 X24.8454 Y-4.6370 E-60.88195 ; EInc=21.82118 cartesianDistance=9.27400 angle=90.000 pulseDistance=0.42500 => originalEInc=21.82118 adjustedEInc=21.82118 density=N/A
G1 X4.1599 Y-4.6370 E-12.21018 ; EInc=48.67177 cartesianDistance=20.68550 angle=180.000 pulseDistance=0.42500 => originalEInc=48.67177 adjustedEInc=48.67177 density=N/A
; 
; feature travel
PRIO_OFF
G0 X4.1599 Y-4.286 ; cartesianDistance=0.35100 (Travel)
; 
; feature inner perimeter
G1 F24000 FL[E] = InnerPerimeterFrequency * DROP_SCALE * 60
PRIO_ON
G1 X24.4944 Y-4.2860 E25.44631 ; EInc=37.65649 cartesianDistance=20.33450 angle=90.000 pulseDistance=0.54000 => originalEInc=37.65649 adjustedEInc=37.65649 density=N/A
G1 X24.4944 Y4.2860 E41.32038 ; EInc=15.87407 cartesianDistance=8.57200 angle=90.000 pulseDistance=0.54000 => originalEInc=15.87407 adjustedEInc=15.87407 density=N/A
G1 X-24.4944 Y4.2860 E132.04038 ; EInc=90.72000 cartesianDistance=48.98880 angle=90.000 pulseDistance=0.54000 => originalEInc=90.72000 adjustedEInc=90.72000 density=N/A
G1 X-24.4944 Y-4.2860 E147.91446 ; EInc=15.87407 cartesianDistance=8.57200 angle=90.000 pulseDistance=0.54000 => originalEInc=15.87408 adjustedEInc=15.87408 density=N/A
G1 X4.1599 Y-4.2860 E200.97797 ; EInc=53.06351 cartesianDistance=28.65430 angle=180.000 pulseDistance=0.54000 => originalEInc=53.06351 adjustedEInc=53.06351 density=N/A
; 
; feature travel
PRIO_OFF
G0 X4.36113 Y-4.2863 ; cartesianDistance=0.20123 (Travel)
; 
; feature fill
G1 F24000 FL[E] = FillFrequency * DROP_SCALE * 60
PRIO_ON
G1 X0.0000 Y-2.2527 E205.69559 ; originalEInc=9.43524 adjustedEInc=4.71762 density=0.5
G1 X-14.0229 Y4.2863 E236.03387 ; EInc=39.77353 cartesianDistance=20.28450 angle=0.000 pulseDistance=0.51000 => originalEInc=30.33829 adjustedEInc=30.33829 density=N/A
; 
; feature travel
PRIO_OFF
G0 X-12.95808 Y4.2863 ; cartesianDistance=1.06479 (Travel)
; 
; feature fill
PRIO_ON
G1 X0.0000 Y-1.7562 E264.06850 ; originalEInc=28.03463 adjustedEInc=28.03463 density=N/A
G1 X5.4259 Y-4.2863 E269.93795 ; EInc=39.77353 cartesianDistance=20.28450 angle=0.000 pulseDistance=0.51000 => originalEInc=11.73890 adjustedEInc=5.86945 density=0.5
; 
; feature travel
PRIO_OFF
G0 X6.49071 Y-4.2863 ; cartesianDistance=1.06479 (Travel)
; 
; feature fill
PRIO_ON
G1 X0.0000 Y-1.2596 E276.95923 ; originalEInc=14.04256 adjustedEInc=7.02128 density=0.5
G1 X-11.8933 Y4.2863 E302.69020 ; EInc=39.77353 cartesianDistance=20.28450 angle=0.000 pulseDistance=0.51000 => originalEInc=25.73097 adjustedEInc=25.73097 density=N/A
; 
; feature travel
PRIO_OFF
G0 X-10.8285 Y4.2863 ; cartesianDistance=1.06479 (Travel)
; 
; feature fill
PRIO_ON
G1 X0.0000 Y-0.7631 E326.11751 ; originalEInc=23.42731 adjustedEInc=23.42731 density=N/A
G1 X7.5555 Y-4.2863 E334.29062 ; EInc=39.77353 cartesianDistance=20.28450 angle=0.000 pulseDistance=0.51000 => originalEInc=16.34622 adjustedEInc=8.17311 density=0.5
; 
; feature travel
PRIO_OFF
G0 X8.62029 Y-4.2863 ; cartesianDistance=1.06479 (Travel)
; 
; feature fill
PRIO_ON
G1 X0.0000 Y-0.2666 E343.61556 ; originalEInc=18.64987 adjustedEInc=9.32494 density=0.5
G1 X-9.7637 Y4.2863 E364.73921 ; EInc=39.77353 cartesianDistance=20.28450 angle=0.000 pulseDistance=0.51000 => originalEInc=21.12365 adjustedEInc=21.12365 density=N/A
; 
; feature travel
PRIO_OFF
G0 X-8.69892 Y4.2863 ; cartesianDistance=1.06479 (Travel)
; 
; feature fill
PRIO_ON
G1 X0.0000 Y0.2299 E383.55920 ; originalEInc=18.81999 adjustedEInc=18.81999 density=N/A
G1 X9.6851 Y-4.2863 E394.03597 ; EInc=39.77353 cartesianDistance=20.28450 angle=0.000 pulseDistance=0.51000 => originalEInc=20.95354 adjustedEInc=10.47677 density=0.5
; 
; feature travel
PRIO_OFF
G0 X10.74987 Y-4.2863 ; cartesianDistance=1.06479 (Travel)
; 
; feature fill
PRIO_ON
G1 X-0.0000 Y0.7264 E405.66456 ; originalEInc=23.25720 adjustedEInc=11.62860 density=0.5
G1 X-7.6341 Y4.2863 E422.18090 ; EInc=39.77353 cartesianDistance=20.28450 angle=0.000 pulseDistance=0.51000 => originalEInc=16.51633 adjustedEInc=16.51633 density=N/A
; 
; feature travel
PRIO_OFF
G0 X-6.56934 Y4.2863 ; cartesianDistance=1.06479 (Travel)
; 
; feature fill
PRIO_ON
G1 X-0.0000 Y1.2230 E436.39358 ; originalEInc=14.21268 adjustedEInc=14.21268 density=N/A
G1 X11.8147 Y-4.2863 E449.17400 ; EInc=39.77353 cartesianDistance=20.28450 angle=0.000 pulseDistance=0.51000 => originalEInc=25.56085 adjustedEInc=12.78043 density=0.5
; 
; feature travel
PRIO_OFF
G0 X12.87945 Y-4.2863 ; cartesianDistance=1.06479 (Travel)
; 
; feature fill
PRIO_ON
G1 X0.0000 Y1.7195 E463.10626 ; originalEInc=27.86451 adjustedEInc=13.93226 density=0.5
G1 X-5.5046 Y4.2863 E475.01528 ; EInc=39.77353 cartesianDistance=20.28450 angle=0.000 pulseDistance=0.51000 => originalEInc=11.90902 adjustedEInc=11.90902 density=N/A
; 
; feature travel
PRIO_OFF
G0 X-4.43976 Y4.2863 ; cartesianDistance=1.06479 (Travel)
; 
; feature fill
PRIO_ON
G1 X0.0000 Y2.2160 E484.62064 ; originalEInc=9.60536 adjustedEInc=9.60536 density=N/A
G1 X13.9442 Y-4.2863 E499.70472 ; EInc=39.77353 cartesianDistance=20.28450 angle=0.000 pulseDistance=0.51000 => originalEInc=30.16817 adjustedEInc=15.08409 density=0.5
; 
; feature travel
PRIO_OFF
G0 X15.00904 Y-4.2863 ; cartesianDistance=1.06479 (Travel)
; 
; feature fill
PRIO_ON
G1 X-0.0000 Y2.7125 E515.94065 ; originalEInc=32.47185 adjustedEInc=16.23593 density=0.5
G1 X-3.3750 Y4.2863 E523.24233 ; EInc=39.77353 cartesianDistance=20.28450 angle=0.000 pulseDistance=0.51000 => originalEInc=7.30168 adjustedEInc=7.30168 density=N/A
; 
; feature travel
PRIO_OFF
G0 X-2.31017 Y4.2863 ; cartesianDistance=1.06479 (Travel)
; 
; feature fill
PRIO_ON
G1 X0.0000 Y3.2091 E528.24035 ; originalEInc=4.99802 adjustedEInc=4.99802 density=N/A
G1 X16.0738 Y-4.2863 E545.62810 ; EInc=39.77353 cartesianDistance=20.28450 angle=0.000 pulseDistance=0.51000 => originalEInc=34.77551 adjustedEInc=17.38775 density=0.5
; 
; feature travel
PRIO_OFF
G0 X17.13862 Y-4.2863 ; cartesianDistance=1.06479 (Travel)
; 
; feature fill
PRIO_ON
G1 X0.0000 Y3.7056 E564.16768 ; originalEInc=37.07916 adjustedEInc=18.53958 density=0.5
G1 X-1.2454 Y4.2863 E566.86204 ; EInc=39.77353 cartesianDistance=20.28450 angle=0.000 pulseDistance=0.51000 => originalEInc=2.69436 adjustedEInc=2.69436 density=N/A
; 
; feature travel
PRIO_OFF
G0 X-0.18059 Y4.2863 ; cartesianDistance=1.06479 (Travel)
; 
; feature fill
PRIO_ON
G1 X0.0000 Y4.2021 E567.25275 ; originalEInc=0.39070 adjustedEInc=0.39070 density=N/A
G1 X18.2034 Y-4.2863 E586.94416 ; EInc=39.77353 cartesianDistance=20.28450 angle=0.000 pulseDistance=0.51000 => originalEInc=39.38283 adjustedEInc=19.69141 density=0.5
; 
; feature travel
PRIO_OFF
G0 X19.2682 Y-4.2863 ; cartesianDistance=1.06479 (Travel)
; 
; feature fill
PRIO_ON
G1 X0.8842 Y4.2863 E626.71769 ; EInc=39.77353 cartesianDistance=20.28450 angle=0.000 pulseDistance=0.51000 => originalEInc=39.77353 adjustedEInc=39.77353 density=N/A
; 
; feature travel
PRIO_OFF
G0 X1.94899 Y4.2863 ; cartesianDistance=1.06479 (Travel)
; 
; feature fill
PRIO_ON
G1 X20.3330 Y-4.2863 E666.49122 ; EInc=39.77353 cartesianDistance=20.28450 angle=0.000 pulseDistance=0.51000 => originalEInc=39.77353 adjustedEInc=39.77353 density=N/A
; 
; feature travel
PRIO_OFF
G0 X21.39778 Y-4.2863 ; cartesianDistance=1.06479 (Travel)
; 
; feature fill
PRIO_ON
G1 X3.0138 Y4.2863 E706.26475 ; EInc=39.77353 cartesianDistance=20.28450 angle=0.000 pulseDistance=0.51000 => originalEInc=39.77353 adjustedEInc=39.77353 density=N/A
; 
; feature travel
PRIO_OFF
G0 X4.07857 Y4.2863 ; cartesianDistance=1.06479 (Travel)
; 
; feature fill
PRIO_ON
G1 X22.4626 Y-4.2863 E746.03828 ; EInc=39.77353 cartesianDistance=20.28450 angle=0.000 pulseDistance=0.51000 => originalEInc=39.77353 adjustedEInc=39.77353 density=N/A
; 
; feature travel
PRIO_OFF
G0 X23.52736 Y-4.2863 ; cartesianDistance=1.06479 (Travel)
; 
; feature fill
PRIO_ON
G1 X5.1434 Y4.2863 E785.81181 ; EInc=39.77353 cartesianDistance=20.28450 angle=0.000 pulseDistance=0.51000 => originalEInc=39.77353 adjustedEInc=39.77353 density=N/A
; 
; feature travel
PRIO_OFF
G0 X6.20815 Y4.2863 ; cartesianDistance=1.06479 (Travel)
; 
; feature fill
PRIO_ON
G1 X24.4947 Y-4.2409 E825.37450 ; EInc=39.56269 cartesianDistance=20.17697 angle=0.000 pulseDistance=0.51000 => originalEInc=39.56269 adjustedEInc=39.56269 density=N/A
; 
; feature travel
PRIO_OFF
G0 X24.4947 Y-3.74434 ; cartesianDistance=0.49652 (Travel)
; 
; feature fill
PRIO_ON
G1 X7.2729 Y4.2863 E862.63353 ; EInc=37.25903 cartesianDistance=19.00211 angle=0.000 pulseDistance=0.51000 => originalEInc=37.25903 adjustedEInc=37.25903 density=N/A
; 
; feature travel
PRIO_OFF
G0 X8.33773 Y4.2863 ; cartesianDistance=1.06479 (Travel)
; 
; feature fill
PRIO_ON
G1 X24.4947 Y-3.2478 E897.58891 ; EInc=34.95537 cartesianDistance=17.82724 angle=0.000 pulseDistance=0.51000 => originalEInc=34.95538 adjustedEInc=34.95538 density=N/A
; 
; feature travel
PRIO_OFF
G0 X24.4947 Y-2.7513 ; cartesianDistance=0.49652 (Travel)
; 
; feature fill
PRIO_ON
G1 X9.4025 Y4.2863 E930.24062 ; EInc=32.65171 cartesianDistance=16.65237 angle=0.000 pulseDistance=0.51000 => originalEInc=32.65171 adjustedEInc=32.65171 density=N/A
; 
; feature travel
PRIO_OFF
G0 X10.46731 Y4.2863 ; cartesianDistance=1.06479 (Travel)
; 
; feature fill
PRIO_ON
G1 X24.4947 Y-2.2548 E960.58867 ; EInc=30.34805 cartesianDistance=15.47751 angle=0.000 pulseDistance=0.51000 => originalEInc=30.34805 adjustedEInc=30.34805 density=N/A
; 
; feature travel
PRIO_OFF
G0 X24.4947 Y-1.75826 ; cartesianDistance=0.49652 (Travel)
; 
; feature fill
PRIO_ON
G1 X11.5321 Y4.2863 E988.63307 ; EInc=28.04439 cartesianDistance=14.30264 angle=0.000 pulseDistance=0.51000 => originalEInc=28.04440 adjustedEInc=28.04440 density=N/A
; 
; feature travel
PRIO_OFF
G0 X12.5969 Y4.2863 ; cartesianDistance=1.06479 (Travel)
; 
; feature fill
PRIO_ON
G1 X24.4947 Y-1.2617 E1014.37380 ; EInc=25.74073 cartesianDistance=13.12777 angle=0.000 pulseDistance=0.51000 => originalEInc=25.74073 adjustedEInc=25.74073 density=N/A
; 
; feature travel
PRIO_OFF
G0 X24.4947 Y-0.76522 ; cartesianDistance=0.49652 (Travel)
; 
; feature fill
PRIO_ON
G1 X13.6617 Y4.2863 E1037.81087 ; EInc=23.43707 cartesianDistance=11.95291 angle=0.000 pulseDistance=0.51000 => originalEInc=23.43707 adjustedEInc=23.43707 density=N/A
; 
; feature travel
PRIO_OFF
G0 X14.72648 Y4.2863 ; cartesianDistance=1.06479 (Travel)
; 
; feature fill
PRIO_ON
G1 X24.4947 Y-0.2687 E1058.94429 ; EInc=21.13341 cartesianDistance=10.77804 angle=0.000 pulseDistance=0.51000 => originalEInc=21.13342 adjustedEInc=21.13342 density=N/A
; 
; feature travel
PRIO_OFF
G0 X24.4947 Y0.22782 ; cartesianDistance=0.49652 (Travel)
; 
; feature fill
PRIO_ON
G1 X15.7913 Y4.2863 E1077.77404 ; EInc=18.82975 cartesianDistance=9.60317 angle=0.000 pulseDistance=0.51000 => originalEInc=18.82975 adjustedEInc=18.82975 density=N/A
; 
; feature travel
PRIO_OFF
G0 X16.85606 Y4.2863 ; cartesianDistance=1.06479 (Travel)
; 
; feature fill
PRIO_ON
