;---BEGIN HEADER
; Generated by DropletSlicer
; Version: 3.4.4
; Date: Wednesday, May 29, 2024
; Time: 04:22:00 PM
G64 ;continuous path mode
G71 ;millimeters
G56 ;origin at center
OVR=100
OVRRAP=20
DO PRIO_ON_PATH_OFFSET=0.5*PRIO_PULSE_DISTANCE
RECOMMENDED_RECIPE="4008 Aluminum Wire"
CheckRecommendedRecipe
BUILDPROCESSORINTERFACEVERSION=1177
CheckBPVersion
OuterPerimeterFrequency=300
InnerPerimeterFrequency=400
ThinFeatureFrequency=300
UnsupportedStepoutFrequency=300
SupportedStepoutFrequency=300
FillFrequency=400
SupportWallFrequency=100
SupportPillarFrequency=100
;BUILDPROCESSORINTERFACEVERSION=1177
PART_MASS_CONSUMPTION=0
SUPPORT_MASS_CONSUMPTION=0
G0 X0 Y0 ;reset z
MSG("Print Started")
;---END HEADER
;---BEGIN PRINT STATISTICS
;TOTAL WIRE FEED ESTIMATE:
;    Total Drops: 97,460.43
;      Total Mass: 14.13 g
;    Part Drops: 97,460.43
;      Part Mass: 14.13 g
;    Support Drops: 0.00
;      Support Mass: 0.00 g
;    Part Density: 100.0%
;---END PRINT STATISTICS
;XY Extents: [-24.845 -4.637] [24.845 4.637]
;NaiveEstimatedPrintTime=484.25931344209994
;SupportedStepoutFrequency=300
EstimatedPrintTime=453.9104919433594
;ZCount = 1
;ExtraChevronOffset = 10
NumberOfLayers=42
LayersCompleted=0
;Mass values below are in kilograms
TOTAL_MASS=0.014131762
PART_MASS=0.014131762
SUPPORT_MASS=0.000000000
CheckMass
DO PRIO_PULSE_DISTANCE=DROP_SCALE
DO PRIO_ON_PATH_OFFSET=0.5*PRIO_PULSE_DISTANCE
PARAM_SETUP
;ChunkSize=5
; 
;========================
; layer 0, Z = 0.2400
; 
; reset extrusion
STOPRE
PRESETON(E, 0)
DO PRIO_PULSE_DISTANCE=DROP_SCALE
DO PRIO_ON_PATH_OFFSET=0.5*PRIO_PULSE_DISTANCE
FEATURE_TYPE=0
;outer: (25.2604,-5.0521) (25.2604,5.0521) (-25.2604,5.0521) (-25.2604,-5.0521) (24.6604,-5.0521) holes: !
;overhangs:!
; 
; feature plane change
G0 X0 Y0 Z0.24 ;Plane Change
; 
; feature travel
G0 X17.63483 Y-4.637 ;Travel
; 
; feature outer perimeter
G1 F24000 FL[E] = OuterPerimeterFrequency * DROP_SCALE * 60
DO PRIO_PULSE_DISTANCE=DROP_SCALE
DO PRIO_ON_PATH_OFFSET=0.5*PRIO_PULSE_DISTANCE
PRIO_ON
G1 X24.8454 Y-4.6370 E16.96604 
G1 X24.8454 Y4.6370 E38.78721 
G1 X-24.8454 Y4.6370 E155.70674 
G1 X-24.8454 Y-4.6370 E177.52792 
G1 X17.6348 Y-4.6370 E277.48141 
; 
; feature travel
PRIO_OFF
G0 X17.63483 Y-4.286 ;Travel
; 
; feature inner perimeter
G1 F24000 FL[E] = InnerPerimeterFrequency * DROP_SCALE * 60
PRIO_ON
G1 X-24.4944 Y-4.2860 E355.49851 
G1 X-24.4944 Y4.2860 E371.37259 
G1 X24.4944 Y4.2860 E462.09259 
G1 X24.4944 Y-4.2860 E477.96666 
G1 X17.6348 Y-4.2860 E490.66956 
; 
; feature travel
PRIO_OFF
G0 X17.86945 Y-4.2863 ;Travel
; 
; feature fill
G1 F24000 FL[E] = FillFrequency * DROP_SCALE * 60
PRIO_ON
G1 X24.4947 Y-1.8749 E504.49397 
; 
; feature travel
PRIO_OFF
G0 X24.4947 Y-1.39602 ;Travel
; 
; feature fill
PRIO_ON
G1 X16.5537 Y-4.2863 E521.06377 
; 
; feature travel
PRIO_OFF
G0 X15.23802 Y-4.2863 ;Travel
; 
; feature fill
PRIO_ON
G1 X24.4947 Y-0.9171 E540.37897 
; 
; feature travel
PRIO_OFF
G0 X24.4947 Y-0.43826 ;Travel
; 
; feature fill
PRIO_ON
G1 X13.9223 Y-4.2863 E562.43957 
; 
; feature travel
PRIO_OFF
G0 X12.6066 Y-4.2863 ;Travel
; 
; feature fill
PRIO_ON
G1 X24.4947 Y0.0406 E587.24556 
; 
; feature travel
PRIO_OFF
G0 X24.4947 Y0.5195 ;Travel
; 
; feature fill
PRIO_ON
G1 X11.2909 Y-4.2863 E614.79694 
; 
; feature travel
PRIO_OFF
G0 X9.97517 Y-4.2863 ;Travel
; 
; feature fill
PRIO_ON
G1 X24.4947 Y0.9984 E645.09372 
; 
; feature travel
PRIO_OFF
G0 X24.4947 Y1.47726 ;Travel
; 
; feature fill
PRIO_ON
G1 X8.6595 Y-4.2863 E678.13590 
; 
; feature travel
PRIO_OFF
G0 X7.34375 Y-4.2863 ;Travel
; 
; feature fill
PRIO_ON
G1 X24.4947 Y1.9561 E713.92346 
; 
; feature travel
PRIO_OFF
G0 X24.4947 Y2.43502 ;Travel
; 
; feature fill
PRIO_ON
G1 X6.0280 Y-4.2863 E752.45643 
; 
; feature travel
PRIO_OFF
G0 X4.71233 Y-4.2863 ;Travel
; 
; feature fill
PRIO_ON
G1 X24.4947 Y2.9139 E793.73479 
; 
; feature travel
PRIO_OFF
G0 X24.4947 Y3.39278 ;Travel
; 
; feature fill
PRIO_ON
G1 X3.3966 Y-4.2863 E837.75854 
; 
; feature travel
PRIO_OFF
G0 X2.0809 Y-4.2863 ;Travel
; 
; feature fill
PRIO_ON
G1 X24.4947 Y3.8717 E884.52769 
; 
; feature travel
PRIO_OFF
G0 X24.31821 Y4.2863 ;Travel
; 
; feature fill
PRIO_ON
G1 X0.7652 Y-4.2863 E933.67398 
; 
; feature travel
PRIO_OFF
G0 X-0.55052 Y-4.2863 ;Travel
; 
; feature fill
PRIO_ON
G1 X0.0000 Y-4.0859 E934.82271 
G1 X23.0025 Y4.2863 E958.82148 ; => originalEInc=47.99755 adjustedEInc=23.99878 density=0.5
; 
; feature travel
PRIO_OFF
G0 X21.68679 Y4.2863 ;Travel
; 
; feature fill
PRIO_ON
G1 X0.0000 Y-3.6070 E981.44757 ; => originalEInc=45.25217 adjustedEInc=22.62609 density=0.5
G1 X-1.8662 Y-4.2863 E985.34169 
; 
; feature travel
PRIO_OFF
G0 X-3.18195 Y-4.2863 ;Travel
; 
; feature fill
PRIO_ON
G1 X0.0000 Y-3.1282 E991.98122 
G1 X20.3711 Y4.2863 E1013.23459 ; => originalEInc=42.50675 adjustedEInc=21.25338 density=0.5
; 
; feature travel
PRIO_OFF
G0 X19.05537 Y4.2863 ;Travel
; 
; feature fill
PRIO_ON
G1 X0.0000 Y-2.6493 E1033.11528 ; => originalEInc=39.76137 adjustedEInc=19.88068 density=0.5
G1 X-4.4977 Y-4.2863 E1042.50020 
; 
; feature travel
PRIO_OFF
G0 X-5.81337 Y-4.2863 ;Travel
; 
; feature fill
PRIO_ON
G1 X0.0000 Y-2.1704 E1054.63051 
G1 X17.7397 Y4.2863 E1073.13849 ; => originalEInc=37.01597 adjustedEInc=18.50798 density=0.5
; 
; feature travel
PRIO_OFF
G0 X16.42394 Y4.2863 ;Travel
; 
; feature fill
PRIO_ON
G1 X0.0000 Y-1.6915 E1090.27379 ; => originalEInc=34.27058 adjustedEInc=17.13529 density=0.5
G1 X-7.1291 Y-4.2863 E1105.14949 
; 
; feature travel
PRIO_OFF
G0 X-8.44479 Y-4.2863 ;Travel
; 
; feature fill
PRIO_ON
G1 X0.0000 Y-1.2126 E1122.77059 
G1 X15.1082 Y4.2863 E1138.53319 ; => originalEInc=31.52519 adjustedEInc=15.76260 density=0.5
; 
; feature travel
PRIO_OFF
G0 X13.79252 Y4.2863 ;Travel
; 
; feature fill
PRIO_ON
G1 X0.0000 Y-0.7338 E1152.92308 ; => originalEInc=28.77978 adjustedEInc=14.38989 density=0.5
G1 X-9.7605 Y-4.2863 E1173.28958 
; 
; feature travel
PRIO_OFF
G0 X-11.07622 Y-4.2863 ;Travel
; 
; feature fill
PRIO_ON
G1 X-0.0000 Y-0.2549 E1196.40147 
G1 X12.4768 Y4.2863 E1209.41867 ; => originalEInc=26.03440 adjustedEInc=13.01720 density=0.5
; 
; feature travel
PRIO_OFF
G0 X11.16109 Y4.2863 ;Travel
; 
; feature fill
PRIO_ON
G1 X0.0000 Y0.2240 E1221.06316 ; => originalEInc=23.28899 adjustedEInc=11.64450 density=0.5
G1 X-12.3919 Y-4.2863 E1246.92045 
; 
; feature travel
PRIO_OFF
G0 X-13.70764 Y-4.2863 ;Travel
; 
; feature fill
PRIO_ON
G1 X0.0000 Y0.7029 E1275.52314 
G1 X9.8454 Y4.2863 E1285.79494 ; => originalEInc=20.54360 adjustedEInc=10.27180 density=0.5
; 
; feature travel
PRIO_OFF
G0 X8.52967 Y4.2863 ;Travel
; 
; feature fill
PRIO_ON
G1 X0.0000 Y1.1818 E1294.69405 ; => originalEInc=17.79821 adjustedEInc=8.89910 density=0.5
G1 X-15.0234 Y-4.2863 E1326.04212 
; 
; feature travel
PRIO_OFF
G0 X-16.33907 Y-4.2863 ;Travel
; 
; feature fill
PRIO_ON
G1 X0.0000 Y1.6606 E1360.13559 
G1 X7.2140 Y4.2863 E1367.66200 ; => originalEInc=15.05281 adjustedEInc=7.52641 density=0.5
; 
; feature travel
PRIO_OFF
G0 X5.89825 Y4.2863 ;Travel
; 
; feature fill
PRIO_ON
G1 X0.0000 Y2.1395 E1373.81571 ; => originalEInc=12.30742 adjustedEInc=6.15371 density=0.5
G1 X-17.6548 Y-4.2863 E1410.65457 
; 
; feature travel
PRIO_OFF
G0 X-18.97049 Y-4.2863 ;Travel
; 
; feature fill
PRIO_ON
G1 X-0.0000 Y2.6184 E1450.23885 
G1 X4.5825 Y4.2863 E1455.01985 ; => originalEInc=9.56202 adjustedEInc=4.78101 density=0.5
; 
; feature travel
PRIO_OFF
G0 X3.26682 Y4.2863 ;Travel
; 
; feature fill
PRIO_ON
G1 X0.0000 Y3.0973 E1458.42817 ; => originalEInc=6.81662 adjustedEInc=3.40831 density=0.5
G1 X-20.2862 Y-4.2863 E1500.75783 
; 
; feature travel
PRIO_OFF
G0 X-21.60191 Y-4.2863 ;Travel
; 
; feature fill
PRIO_ON
G1 X0.0000 Y3.5762 E1545.83288 
G1 X1.9511 Y4.2863 E1547.86850 ; => originalEInc=4.07123 adjustedEInc=2.03562 density=0.5
; 
; feature travel
PRIO_OFF
G0 X0.6354 Y4.2863 ;Travel
; 
; feature fill
PRIO_ON
G1 X0.0000 Y4.0550 E1548.53142 ; => originalEInc=1.32584 adjustedEInc=0.66292 density=0.5
G1 X-22.9176 Y-4.2863 E1596.35187 
; 
; feature travel
PRIO_OFF
G0 X-24.23334 Y-4.2863 ;Travel
; 
; feature fill
PRIO_ON
G1 X-0.6803 Y4.2863 E1645.49815 
; 
; feature travel
PRIO_OFF
G0 X-1.99603 Y4.2863 ;Travel
; 
; feature fill
PRIO_ON
G1 X-24.4947 Y-3.9026 E1692.44441 
; 
; feature travel
PRIO_OFF
G0 X-24.4947 Y-3.42367 ;Travel
; 
; feature fill
PRIO_ON
G1 X-3.3117 Y4.2863 E1736.64527 
; 
; feature travel
PRIO_OFF
G0 X-4.62745 Y4.2863 ;Travel
; 
; feature fill
PRIO_ON
G1 X-24.4947 Y-2.9448 E1778.10073 
; 
; feature travel
PRIO_OFF
G0 X-24.4947 Y-2.46591 ;Travel
; 
; feature fill
PRIO_ON
G1 X-5.9432 Y4.2863 E1816.81080 
; 
; feature travel
PRIO_OFF
G0 X-7.25887 Y4.2863 ;Travel
; 
; feature fill
PRIO_ON
G1 X-24.4947 Y-1.9870 E1852.77547 
; 
; feature travel
PRIO_OFF
G0 X-24.4947 Y-1.50815 ;Travel
; 
; feature fill
PRIO_ON
G1 X-8.5746 Y4.2863 E1885.99475 
; 
; feature travel
PRIO_OFF
G0 X-9.8903 Y4.2863 ;Travel
; 
; feature fill
PRIO_ON
G1 X-24.4947 Y-1.0293 E1916.46864 
; 
; feature travel
PRIO_OFF
G0 X-24.4947 Y-0.55039 ;Travel
; 
; feature fill
PRIO_ON
G1 X-11.2060 Y4.2863 E1944.19713 
; 
; feature travel
PRIO_OFF
G0 X-12.52172 Y4.2863 ;Travel
; 
; feature fill
PRIO_ON
G1 X-24.4947 Y-0.0715 E1969.18022 
; 
; feature travel
PRIO_OFF
G0 X-24.4947 Y0.40737 ;Travel
; 
; feature fill
PRIO_ON
G1 X-13.8374 Y4.2863 E1991.41792 
; 
; feature travel
PRIO_OFF
G0 X-15.15314 Y4.2863 ;Travel
; 
; feature fill
PRIO_ON
G1 X-24.4947 Y0.8862 E2010.91022 
; 
; feature travel
PRIO_OFF
G0 X-24.4947 Y1.36513 ;Travel
; 
; feature fill
PRIO_ON
G1 X-16.4689 Y4.2863 E2027.65713 
; 
; feature travel
PRIO_OFF
G0 X-17.78457 Y4.2863 ;Travel
; 
; feature fill
PRIO_ON
G1 X-24.4947 Y1.8440 E2041.65865 
; 
; feature travel
PRIO_OFF
G0 X-24.4947 Y2.32289 ;Travel
; 
; feature fill
PRIO_ON
G1 X-19.1003 Y4.2863 E2052.91477 
; 
; feature travel
PRIO_OFF
G0 X-20.41599 Y4.2863 ;Travel
; 
; feature fill
PRIO_ON
G1 X-24.4947 Y2.8018 E2061.42549 
; 
; feature travel
PRIO_OFF
G0 X-24.4947 Y3.28065 ;Travel
; 
; feature fill
PRIO_ON
G1 X-21.7317 Y4.2863 E2067.19082 
; 
; feature travel
PRIO_OFF
G0 X-23.04742 Y4.2863 ;Travel
; 
; feature fill
PRIO_ON
G1 X-24.4947 Y3.7595 E2070.21076 
; 
; feature travel
PRIO_OFF
G0 X-24.4947 Y4.23841 ;Travel
; 
; feature fill
PRIO_ON
G1 X-24.3631 Y4.2863 E2070.48530 
; 
; feature travel
PRIO_OFF
G0 X19.18516 Y-4.2863 ;Travel
; 
; feature fill
PRIO_ON
G1 X24.4947 Y-2.3538 E2081.56431 
; 
; feature travel
PRIO_OFF
G0 X24.4947 Y-2.83266 ;Travel
; 
; feature fill
PRIO_ON
G1 X20.5009 Y-4.2863 E2089.89793 
; 
; feature travel
PRIO_OFF
G0 X21.81658 Y-4.2863 ;Travel
; 
; feature fill
PRIO_ON
G1 X24.4947 Y-3.3115 E2095.48615 
; 
; feature travel
PRIO_OFF
G0 X24.4947 Y-3.79042 ;Travel
; 
; feature fill
PRIO_ON
G1 X23.1323 Y-4.2863 E2098.32898 
PRIO_OFF
LayersCompleted=1
M1
; 
;========================
; layer 1, Z = 0.4800
; 
; reset extrusion
STOPRE
PRESETON(E, 0)
DO PRIO_PULSE_DISTANCE=DROP_SCALE
DO PRIO_ON_PATH_OFFSET=0.5*PRIO_PULSE_DISTANCE
;outer: (25.2604,-5.0521) (25.2604,5.0521) (-25.2604,5.0521) (-25.2604,-5.0521) (23.4604,-5.0521) holes: !
;overhangs:!
; 
; feature plane change
G0 X23.13229 Y-4.2863 Z0.48 ;Plane Change
; 
; feature travel
G0 X20.77862 Y4.637 ;Travel
; 
; feature outer perimeter
G1 F24000 FL[E] = OuterPerimeterFrequency * DROP_SCALE * 60
PRIO_ON
G1 X24.8454 Y4.6370 E-212.38635 
G1 X24.8454 Y-4.6370 E-190.56517 
G1 X-24.8454 Y-4.6370 E-73.64564 
G1 X-24.8454 Y4.6370 E-51.82447 
G1 X20.7786 Y4.6370 E55.52616 
; 
; feature travel
PRIO_OFF
G0 X20.77862 Y4.286 ;Travel
; 
; feature inner perimeter
G1 F24000 FL[E] = InnerPerimeterFrequency * DROP_SCALE * 60
PRIO_ON
G1 X-24.4944 Y4.2860 E139.36508 
G1 X-24.4944 Y-4.2860 E155.23916 
G1 X24.4944 Y-4.2860 E245.95916 
G1 X24.4944 Y4.2860 E261.83323 
G1 X20.7786 Y4.2860 E268.71431 
; 
; feature travel
PRIO_OFF
G0 X20.73828 Y4.2863 ;Travel
; 
; feature fill
G1 F24000 FL[E] = FillFrequency * DROP_SCALE * 60
PRIO_ON
G1 X16.7408 Y-4.2863 E287.26101 
; 
; feature travel
PRIO_OFF
G0 X17.23733 Y-4.2863 ;Travel
; 
; feature fill
PRIO_ON
G1 X21.2348 Y4.2863 E305.80771 
; 
; feature travel
PRIO_OFF
G0 X21.73132 Y4.2863 ;Travel
; 
; feature fill
PRIO_ON
G1 X17.7339 Y-4.2863 E324.35441 
; 
; feature travel
PRIO_OFF
G0 X18.23037 Y-4.2863 ;Travel
; 
; feature fill
PRIO_ON
G1 X22.2278 Y4.2863 E342.90111 
; 
; feature travel
PRIO_OFF
G0 X22.72436 Y4.2863 ;Travel
; 
; feature fill
PRIO_ON
G1 X18.7269 Y-4.2863 E361.44782 
; 
; feature travel
PRIO_OFF
G0 X19.22341 Y-4.2863 ;Travel
; 
; feature fill
PRIO_ON
G1 X23.2209 Y4.2863 E379.99452 
; 
; feature travel
PRIO_OFF
G0 X23.7174 Y4.2863 ;Travel
; 
; feature fill
PRIO_ON
G1 X19.7199 Y-4.2863 E398.54122 
; 
; feature travel
PRIO_OFF
G0 X20.21645 Y-4.2863 ;Travel
; 
; feature fill
PRIO_ON
G1 X24.2139 Y4.2863 E417.08792 
; 
; feature travel
PRIO_OFF
G0 X24.4947 Y3.82365 ;Travel
; 
; feature fill
PRIO_ON
G1 X20.7130 Y-4.2863 E434.63368 
; 
; feature travel
PRIO_OFF
G0 X21.20949 Y-4.2863 ;Travel
; 
; feature fill
PRIO_ON
G1 X24.4947 Y2.7589 E449.87578 
; 
; feature travel
PRIO_OFF
G0 X24.4947 Y1.69407 ;Travel
; 
; feature fill
PRIO_ON
G1 X21.7060 Y-4.2863 E462.81422 
; 
; feature travel
PRIO_OFF
G0 X22.20253 Y-4.2863 ;Travel
; 
; feature fill
PRIO_ON
G1 X24.4947 Y0.6293 E473.44900 
; 
; feature travel
PRIO_OFF
G0 X24.4947 Y-0.43552 ;Travel
; 
; feature fill
PRIO_ON
G1 X22.6990 Y-4.2863 E481.78012 
; 
; feature travel
PRIO_OFF
G0 X23.19557 Y-4.2863 ;Travel
; 
; feature fill
PRIO_ON
G1 X24.4947 Y-1.5003 E487.80758 
; 
; feature travel
PRIO_OFF
G0 X24.4947 Y-2.5651 ;Travel
; 
; feature fill
PRIO_ON
G1 X23.6921 Y-4.2863 E491.53138 
; 
; feature travel
PRIO_OFF
G0 X24.18861 Y-4.2863 ;Travel
; 
; feature fill
PRIO_ON
G1 X24.4947 Y-3.6299 E492.95152 
; 
; feature travel
PRIO_OFF
G0 X16.24429 Y-4.2863 ;Travel
; 
; feature fill
PRIO_ON
G1 X20.2418 Y4.2863 E511.49822 
; 
; feature travel
PRIO_OFF
G0 X19.74524 Y4.2863 ;Travel
; 
; feature fill
PRIO_ON
G1 X15.7478 Y-4.2863 E530.04492 
; 
; feature travel
PRIO_OFF
G0 X15.25125 Y-4.2863 ;Travel
; 
; feature fill
PRIO_ON
G1 X19.2487 Y4.2863 E548.59162 
; 
; feature travel
PRIO_OFF
G0 X18.7522 Y4.2863 ;Travel
; 
; feature fill
PRIO_ON
G1 X14.7547 Y-4.2863 E567.13832 
; 
; feature travel
PRIO_OFF
G0 X14.25821 Y-4.2863 ;Travel
; 
; feature fill
PRIO_ON
G1 X18.2557 Y4.2863 E585.68502 
; 
; feature travel
PRIO_OFF
G0 X17.75916 Y4.2863 ;Travel
; 
; feature fill
PRIO_ON
G1 X13.7617 Y-4.2863 E604.23172 
; 
; feature travel
PRIO_OFF
G0 X13.26517 Y-4.2863 ;Travel
; 
; feature fill
PRIO_ON
G1 X17.2626 Y4.2863 E622.77842 
; 
; feature travel
PRIO_OFF
G0 X16.76612 Y4.2863 ;Travel
; 
; feature fill
PRIO_ON
G1 X12.7686 Y-4.2863 E641.32512 
; 
; feature travel
PRIO_OFF
G0 X12.27213 Y-4.2863 ;Travel
; 
; feature fill
PRIO_ON
G1 X16.2696 Y4.2863 E659.87182 
; 
; feature travel
PRIO_OFF
G0 X15.77308 Y4.2863 ;Travel
; 
; feature fill
PRIO_ON
G1 X11.7756 Y-4.2863 E678.41853 
; 
; feature travel
PRIO_OFF
G0 X11.27909 Y-4.2863 ;Travel
; 
; feature fill
PRIO_ON
G1 X15.2766 Y4.2863 E696.96523 
; 
; feature travel
PRIO_OFF
G0 X14.78004 Y4.2863 ;Travel
; 
; feature fill
PRIO_ON
G1 X10.7826 Y-4.2863 E715.51193 
; 
; feature travel
PRIO_OFF
G0 X10.28605 Y-4.2863 ;Travel
; 
; feature fill
PRIO_ON
G1 X14.2835 Y4.2863 E734.05863 
; 
; feature travel
PRIO_OFF
G0 X13.787 Y4.2863 ;Travel
; 
; feature fill
PRIO_ON
G1 X9.7895 Y-4.2863 E752.60533 
; 
; feature travel
PRIO_OFF
G0 X9.29301 Y-4.2863 ;Travel
; 
; feature fill
PRIO_ON
G1 X13.2905 Y4.2863 E771.15203 
; 
; feature travel
PRIO_OFF
G0 X12.79396 Y4.2863 ;Travel
; 
; feature fill
PRIO_ON
G1 X8.7965 Y-4.2863 E789.69873 
; 
; feature travel
PRIO_OFF
G0 X8.29997 Y-4.2863 ;Travel
; 
; feature fill
PRIO_ON
G1 X12.2974 Y4.2863 E808.24543 
; 
; feature travel
PRIO_OFF
G0 X11.80092 Y4.2863 ;Travel
; 
; feature fill
PRIO_ON
G1 X7.8034 Y-4.2863 E826.79213 
; 
; feature travel
PRIO_OFF
G0 X7.30693 Y-4.2863 ;Travel
; 
; feature fill
PRIO_ON
G1 X11.3044 Y4.2863 E845.33884 
; 
; feature travel
PRIO_OFF
G0 X10.80788 Y4.2863 ;Travel
; 
; feature fill
PRIO_ON
G1 X6.8104 Y-4.2863 E863.88554 
; 
; feature travel
PRIO_OFF
G0 X6.31389 Y-4.2863 ;Travel
; 
; feature fill
PRIO_ON
G1 X10.3114 Y4.2863 E882.43224 
; 
; feature travel
PRIO_OFF
G0 X9.81484 Y4.2863 ;Travel
; 
; feature fill
PRIO_ON
G1 X5.8174 Y-4.2863 E900.97894 
; 
; feature travel
PRIO_OFF
G0 X5.32085 Y-4.2863 ;Travel
; 
; feature fill
PRIO_ON
G1 X9.3183 Y4.2863 E919.52564 
; 
; feature travel
PRIO_OFF
G0 X8.8218 Y4.2863 ;Travel
; 
; feature fill
PRIO_ON
G1 X4.8243 Y-4.2863 E938.07234 
; 
; feature travel
PRIO_OFF
G0 X4.32781 Y-4.2863 ;Travel
; 
; feature fill
PRIO_ON
G1 X8.3253 Y4.2863 E956.61904 
; 
; feature travel
PRIO_OFF
G0 X7.82876 Y4.2863 ;Travel
; 
; feature fill
PRIO_ON
G1 X3.8313 Y-4.2863 E975.16574 
; 
; feature travel
PRIO_OFF
G0 X3.33477 Y-4.2863 ;Travel
; 
; feature fill
PRIO_ON
G1 X7.3322 Y4.2863 E993.71244 
; 
; feature travel
PRIO_OFF
G0 X6.83572 Y4.2863 ;Travel
; 
; feature fill
PRIO_ON
G1 X2.8382 Y-4.2863 E1012.25915 
; 
; feature travel
PRIO_OFF
G0 X2.34173 Y-4.2863 ;Travel
; 
; feature fill
PRIO_ON
G1 X6.3392 Y4.2863 E1030.80585 
; 
; feature travel
PRIO_OFF
G0 X5.84268 Y4.2863 ;Travel
; 
; feature fill
PRIO_ON
G1 X1.8452 Y-4.2863 E1049.35255 
; 
; feature travel
PRIO_OFF
G0 X1.34869 Y-4.2863 ;Travel
; 
; feature fill
PRIO_ON
G1 X5.3462 Y4.2863 E1067.89925 
; 
; feature travel
PRIO_OFF
G0 X4.84964 Y4.2863 ;Travel
; 
; feature fill
PRIO_ON
G1 X0.8522 Y-4.2863 E1086.44595 
; 
; feature travel
PRIO_OFF
G0 X0.35565 Y-4.2863 ;Travel
; 
; feature fill
PRIO_ON
G1 X4.3531 Y4.2863 E1104.99265 
; 
; feature travel
PRIO_OFF
G0 X3.8566 Y4.2863 ;Travel
; 
; feature fill
PRIO_ON
G1 X0.0000 Y-3.9842 E1113.93920 ; => originalEInc=17.89312 adjustedEInc=8.94656 density=0.5
G1 X-0.1409 Y-4.2863 E1114.59279 
; 
; feature travel
PRIO_OFF
G0 X-0.63739 Y-4.2863 ;Travel
; 
; feature fill
PRIO_ON
G1 X0.0000 Y-2.9194 E1117.55003 
G1 X3.3601 Y4.2863 E1125.34476 ; => originalEInc=15.58946 adjustedEInc=7.79473 density=0.5
; 
; feature travel
PRIO_OFF
G0 X2.86356 Y4.2863 ;Travel
; 
; feature fill
PRIO_ON
G1 X0.0000 Y-1.8546 E1131.98766 ; => originalEInc=13.28580 adjustedEInc=6.64290 density=0.5
G1 X-1.1339 Y-4.2863 E1137.24856 
; 
; feature travel
PRIO_OFF
G0 X-1.63043 Y-4.2863 ;Travel
; 
; feature fill
PRIO_ON
G1 X0.0000 Y-0.7898 E1144.81311 
G1 X2.3670 Y4.2863 E1150.30419 ; => originalEInc=10.98214 adjustedEInc=5.49107 density=0.5
; 
; feature travel
PRIO_OFF
G0 X1.87052 Y4.2863 ;Travel
; 
; feature fill
PRIO_ON
G1 X0.0000 Y0.2750 E1154.64343 ; => originalEInc=8.67849 adjustedEInc=4.33924 density=0.5
G1 X-2.1269 Y-4.2863 E1164.51165 
; 
; feature travel
PRIO_OFF
G0 X-2.62347 Y-4.2863 ;Travel
; 
; feature fill
PRIO_ON
G1 X0.0000 Y1.3397 E1176.68353 
G1 X1.3740 Y4.2863 E1179.87094 ; => originalEInc=6.37482 adjustedEInc=3.18741 density=0.5
; 
; feature travel
PRIO_OFF
G0 X0.87748 Y4.2863 ;Travel
; 
; feature fill
PRIO_ON
G1 X0.0000 Y2.4045 E1181.90652 ; => originalEInc=4.07116 adjustedEInc=2.03558 density=0.5
G1 X-3.1200 Y-4.2863 E1196.38206 
; 
; feature travel
PRIO_OFF
G0 X-3.61651 Y-4.2863 ;Travel
; 
; feature fill
PRIO_ON
G1 X0.0000 Y3.4693 E1213.16125 
G1 X0.3810 Y4.2863 E1214.04501 ; => originalEInc=1.76751 adjustedEInc=0.88375 density=0.5
; 
; feature travel
PRIO_OFF
G0 X-0.11556 Y4.2863 ;Travel
; 
; feature fill
PRIO_ON
G1 X-4.1130 Y-4.2863 E1232.59171 
; 
; feature travel
PRIO_OFF
G0 X-4.60955 Y-4.2863 ;Travel
; 
; feature fill
PRIO_ON
G1 X-0.6121 Y4.2863 E1251.13841 
; 
; feature travel
PRIO_OFF
G0 X-1.10861 Y4.2863 ;Travel
; 
; feature fill
PRIO_ON
G1 X-5.1061 Y-4.2863 E1269.68511 
; 
; feature travel
PRIO_OFF
G0 X-5.60259 Y-4.2863 ;Travel
; 
; feature fill
PRIO_ON
G1 X-1.6051 Y4.2863 E1288.23181 
; 
; feature travel
PRIO_OFF
G0 X-2.10165 Y4.2863 ;Travel
; 
; feature fill
PRIO_ON
G1 X-6.0991 Y-4.2863 E1306.77851 
; 
; feature travel
PRIO_OFF
G0 X-6.59563 Y-4.2863 ;Travel
; 
; feature fill
PRIO_ON
G1 X-2.5982 Y4.2863 E1325.32522 
; 
; feature travel
PRIO_OFF
G0 X-3.09469 Y4.2863 ;Travel
; 
; feature fill
PRIO_ON
G1 X-7.0922 Y-4.2863 E1343.87192 
; 
; feature travel
PRIO_OFF
G0 X-7.58867 Y-4.2863 ;Travel
; 
; feature fill
PRIO_ON
G1 X-3.5912 Y4.2863 E1362.41862 
; 
; feature travel
PRIO_OFF
G0 X-4.08773 Y4.2863 ;Travel
; 
; feature fill
PRIO_ON
G1 X-8.0852 Y-4.2863 E1380.96532 
; 
; feature travel
PRIO_OFF
G0 X-8.58171 Y-4.2863 ;Travel
; 
; feature fill
PRIO_ON
G1 X-4.5842 Y4.2863 E1399.51202 
; 
; feature travel
PRIO_OFF
G0 X-5.08077 Y4.2863 ;Travel
; 
; feature fill
PRIO_ON
G1 X-9.0782 Y-4.2863 E1418.05872 
; 
; feature travel
PRIO_OFF
G0 X-9.57475 Y-4.2863 ;Travel
; 
; feature fill
PRIO_ON
G1 X-5.5773 Y4.2863 E1436.60542 
; 
; feature travel
PRIO_OFF
G0 X-6.07381 Y4.2863 ;Travel
; 
; feature fill
PRIO_ON
G1 X-10.0713 Y-4.2863 E1455.15212 
; 
; feature travel
PRIO_OFF
G0 X-10.56779 Y-4.2863 ;Travel
; 
; feature fill
PRIO_ON
G1 X-6.5703 Y4.2863 E1473.69882 
; 
; feature travel
PRIO_OFF
G0 X-7.06685 Y4.2863 ;Travel
; 
; feature fill
PRIO_ON
G1 X-11.0643 Y-4.2863 E1492.24553 
; 
; feature travel
PRIO_OFF
G0 X-11.56083 Y-4.2863 ;Travel
; 
; feature fill
PRIO_ON
G1 X-7.5634 Y4.2863 E1510.79223 
; 
; feature travel
PRIO_OFF
G0 X-8.05989 Y4.2863 ;Travel
; 
; feature fill
PRIO_ON
G1 X-12.0573 Y-4.2863 E1529.33893 
; 
; feature travel
PRIO_OFF
G0 X-12.55387 Y-4.2863 ;Travel
; 
; feature fill
PRIO_ON
G1 X-8.5564 Y4.2863 E1547.88563 
; 
; feature travel
PRIO_OFF
G0 X-9.05293 Y4.2863 ;Travel
; 
; feature fill
PRIO_ON
G1 X-13.0504 Y-4.2863 E1566.43233 
; 
; feature travel
PRIO_OFF
G0 X-13.54692 Y-4.2863 ;Travel
; 
; feature fill
PRIO_ON
G1 X-9.5495 Y4.2863 E1584.97903 
; 
; feature travel
PRIO_OFF
G0 X-10.04597 Y4.2863 ;Travel
; 
; feature fill
PRIO_ON
G1 X-14.0434 Y-4.2863 E1603.52573 
; 
; feature travel
PRIO_OFF
G0 X-14.53996 Y-4.2863 ;Travel
; 
; feature fill
PRIO_ON
G1 X-10.5425 Y4.2863 E1622.07243 
; 
; feature travel
PRIO_OFF
G0 X-11.03901 Y4.2863 ;Travel
; 
; feature fill
PRIO_ON
G1 X-15.0365 Y-4.2863 E1640.61913 
; 
; feature travel
PRIO_OFF
G0 X-15.533 Y-4.2863 ;Travel
; 
; feature fill
PRIO_ON
G1 X-11.5355 Y4.2863 E1659.16584 
; 
; feature travel
PRIO_OFF
G0 X-12.03205 Y4.2863 ;Travel
; 
; feature fill
PRIO_ON
G1 X-16.0295 Y-4.2863 E1677.71254 
; 
; feature travel
PRIO_OFF
G0 X-16.52604 Y-4.2863 ;Travel
; 
; feature fill
PRIO_ON
G1 X-12.5286 Y4.2863 E1696.25924 
; 
; feature travel
PRIO_OFF
G0 X-13.02509 Y4.2863 ;Travel
; 
; feature fill
PRIO_ON
G1 X-17.0226 Y-4.2863 E1714.80594 
; 
; feature travel
PRIO_OFF
G0 X-17.51908 Y-4.2863 ;Travel
; 
; feature fill
PRIO_ON
G1 X-13.5216 Y4.2863 E1733.35264 
; 
; feature travel
PRIO_OFF
G0 X-14.01813 Y4.2863 ;Travel
; 
; feature fill
PRIO_ON
G1 X-18.0156 Y-4.2863 E1751.89934 
; 
; feature travel
PRIO_OFF
G0 X-18.51212 Y-4.2863 ;Travel
; 
; feature fill
PRIO_ON
G1 X-14.5146 Y4.2863 E1770.44604 
; 
; feature travel
PRIO_OFF
G0 X-15.01117 Y4.2863 ;Travel
; 
; feature fill
PRIO_ON
G1 X-19.0086 Y-4.2863 E1788.99274 
; 
; feature travel
PRIO_OFF
G0 X-19.50516 Y-4.2863 ;Travel
; 
; feature fill
PRIO_ON
G1 X-15.5077 Y4.2863 E1807.53944 
; 
; feature travel
PRIO_OFF
G0 X-16.00421 Y4.2863 ;Travel
; 
; feature fill
PRIO_ON
G1 X-20.0017 Y-4.2863 E1826.08614 
; 
; feature travel
PRIO_OFF
G0 X-20.4982 Y-4.2863 ;Travel
; 
; feature fill
PRIO_ON
G1 X-16.5007 Y4.2863 E1844.63285 
; 
; feature travel
PRIO_OFF
G0 X-16.99725 Y4.2863 ;Travel
; 
; feature fill
PRIO_ON
G1 X-20.9947 Y-4.2863 E1863.17955 
; 
; feature travel
PRIO_OFF
G0 X-21.49124 Y-4.2863 ;Travel
; 
; feature fill
PRIO_ON
G1 X-17.4938 Y4.2863 E1881.72625 
; 
; feature travel
PRIO_OFF
G0 X-17.99029 Y4.2863 ;Travel
; 
; feature fill
PRIO_ON
G1 X-21.9878 Y-4.2863 E1900.27295 
; 
; feature travel
PRIO_OFF
G0 X-22.48428 Y-4.2863 ;Travel
; 
; feature fill
PRIO_ON
G1 X-18.4868 Y4.2863 E1918.81965 
; 
; feature travel
PRIO_OFF
G0 X-18.98333 Y4.2863 ;Travel
; 
; feature fill
PRIO_ON
G1 X-22.9808 Y-4.2863 E1937.36635 
; 
; feature travel
PRIO_OFF
G0 X-23.47732 Y-4.2863 ;Travel
; 
; feature fill
PRIO_ON
G1 X-19.4798 Y4.2863 E1955.91305 
; 
; feature travel
PRIO_OFF
G0 X-19.97637 Y4.2863 ;Travel
; 
; feature fill
PRIO_ON
G1 X-23.9738 Y-4.2863 E1974.45975 
; 
; feature travel
PRIO_OFF
G0 X-24.47036 Y-4.2863 ;Travel
; 
; feature fill
PRIO_ON
G1 X-20.4729 Y4.2863 E1993.00645 
; 
; feature travel
PRIO_OFF
G0 X-20.96941 Y4.2863 ;Travel
; 
; feature fill
PRIO_ON
G1 X-24.4947 Y-3.2737 E2009.36244 
; 
; feature travel
PRIO_OFF
G0 X-24.4947 Y-2.20892 ;Travel
; 
; feature fill
PRIO_ON
G1 X-21.4659 Y4.2863 E2023.41477 
; 
; feature travel
PRIO_OFF
G0 X-21.96245 Y4.2863 ;Travel
; 
; feature fill
PRIO_ON
G1 X-24.4947 Y-1.1441 E2035.16343 
; 
; feature travel
PRIO_OFF
G0 X-24.4947 Y-0.07934 ;Travel
; 
; feature fill
PRIO_ON
G1 X-22.4590 Y4.2863 E2044.60844 
; 
; feature travel
PRIO_OFF
G0 X-22.95549 Y4.2863 ;Travel
; 
; feature fill
PRIO_ON
G1 X-24.4947 Y0.9855 E2051.74978 
; 
; feature travel
PRIO_OFF
G0 X-24.4947 Y2.05024 ;Travel
; 
; feature fill
PRIO_ON
G1 X-23.4520 Y4.2863 E2056.58747 
; 
; feature travel
PRIO_OFF
G0 X-23.94853 Y4.2863 ;Travel
; 
; feature fill
PRIO_ON
G1 X-24.4947 Y3.1150 E2059.12149 
; 
; feature travel
PRIO_OFF
G0 X-24.4947 Y4.17982 ;Travel
; 
; feature fill
PRIO_ON
G1 X-24.4450 Y4.2863 E2059.35186 
PRIO_OFF
LayersCompleted=2
M1
; 
;========================
; layer 2, Z = 0.7200
; 
; reset extrusion
STOPRE
PRESETON(E, 0)
DO PRIO_PULSE_DISTANCE=DROP_SCALE
DO PRIO_ON_PATH_OFFSET=0.5*PRIO_PULSE_DISTANCE
;outer: (25.2604,-5.0521) (25.2604,5.0521) (-25.2604,5.0521) (-25.2604,-5.0521) (22.2604,-5.0521) holes: !
;overhangs:!
; 
; feature plane change
G0 X-24.44505 Y4.2863 Z0.72 ;Plane Change
; 
; feature travel
G0 X18.80579 Y-4.637 ;Travel
; 
; feature outer perimeter
G1 F24000 FL[E] = OuterPerimeterFrequency * DROP_SCALE * 60
PRIO_ON
G1 X24.8454 Y-4.6370 E-247.06566 
G1 X24.8454 Y4.6370 E-225.24448 
G1 X-24.8454 Y4.6370 E-108.32495 
G1 X-24.8454 Y-4.6370 E-86.50378 
G1 X18.8058 Y-4.6370 E16.20491 
; 
; feature travel
PRIO_OFF
G0 X18.80579 Y-4.286 ;Travel
; 
; feature inner perimeter
G1 F24000 FL[E] = InnerPerimeterFrequency * DROP_SCALE * 60
PRIO_ON
G1 X-24.4944 Y-4.2860 E96.39045 
G1 X-24.4944 Y4.2860 E112.26453 
G1 X24.4944 Y4.2860 E202.98453 
G1 X24.4944 Y-4.2860 E218.85860 
G1 X18.8058 Y-4.2860 E229.39306 
; 
; feature travel
PRIO_OFF
G0 X18.65239 Y-4.2863 ;Travel
; 
; feature fill
G1 F24000 FL[E] = FillFrequency * DROP_SCALE * 60
PRIO_ON
G1 X15.5322 Y4.2863 E247.28084 
; 
; feature travel
PRIO_OFF
G0 X16.0111 Y4.2863 ;Travel
; 
; feature fill
PRIO_ON
G1 X19.1313 Y-4.2863 E265.16863 
; 
; feature travel
PRIO_OFF
G0 X19.61015 Y-4.2863 ;Travel
; 
; feature fill
PRIO_ON
G1 X16.4900 Y4.2863 E283.05642 
; 
; feature travel
PRIO_OFF
G0 X16.96886 Y4.2863 ;Travel
; 
; feature fill
PRIO_ON
G1 X20.0890 Y-4.2863 E300.94420 
; 
; feature travel
PRIO_OFF
G0 X20.56791 Y-4.2863 ;Travel
; 
; feature fill
PRIO_ON
G1 X17.4477 Y4.2863 E318.83199 
; 
; feature travel
PRIO_OFF
G0 X17.92662 Y4.2863 ;Travel
; 
; feature fill
PRIO_ON
G1 X21.0468 Y-4.2863 E336.71977 
; 
; feature travel
PRIO_OFF
G0 X21.52567 Y-4.2863 ;Travel
; 
; feature fill
PRIO_ON
G1 X18.4055 Y4.2863 E354.60756 
; 
; feature travel
PRIO_OFF
G0 X18.88438 Y4.2863 ;Travel
; 
; feature fill
PRIO_ON
G1 X22.0045 Y-4.2863 E372.49534 
; 
; feature travel
PRIO_OFF
G0 X22.48343 Y-4.2863 ;Travel
; 
; feature fill
PRIO_ON
G1 X19.3633 Y4.2863 E390.38313 
; 
; feature travel
PRIO_OFF
G0 X19.84214 Y4.2863 ;Travel
; 
; feature fill
PRIO_ON
G1 X22.9623 Y-4.2863 E408.27091 
; 
; feature travel
PRIO_OFF
G0 X23.44119 Y-4.2863 ;Travel
; 
; feature fill
PRIO_ON
G1 X20.3210 Y4.2863 E426.15870 
; 
; feature travel
PRIO_OFF
G0 X20.7999 Y4.2863 ;Travel
; 
; feature fill
PRIO_ON
G1 X23.9201 Y-4.2863 E444.04648 
; 
; feature travel
PRIO_OFF
G0 X24.39895 Y-4.2863 ;Travel
; 
; feature fill
PRIO_ON
G1 X21.2788 Y4.2863 E461.93427 
; 
; feature travel
PRIO_OFF
G0 X21.75766 Y4.2863 ;Travel
; 
; feature fill
PRIO_ON
G1 X24.4947 Y-3.2337 E477.62560 
; 
; feature travel
PRIO_OFF
G0 X24.4947 Y-1.91795 ;Travel
; 
; feature fill
PRIO_ON
G1 X22.2365 Y4.2863 E490.57154 
; 
; feature travel
PRIO_OFF
G0 X22.71542 Y4.2863 ;Travel
; 
; feature fill
PRIO_ON
G1 X24.4947 Y-0.6022 E500.77208 
; 
; feature travel
PRIO_OFF
G0 X24.4947 Y0.71347 ;Travel
; 
; feature fill
PRIO_ON
G1 X23.1943 Y4.2863 E508.22723 
; 
; feature travel
PRIO_OFF
G0 X23.67318 Y4.2863 ;Travel
; 
; feature fill
PRIO_ON
G1 X24.4947 Y2.0292 E512.93698 
; 
; feature travel
PRIO_OFF
G0 X24.4947 Y3.34489 ;Travel
; 
; feature fill
PRIO_ON
G1 X24.1521 Y4.2863 E514.90134 
; 
; feature travel
PRIO_OFF
G0 X15.05334 Y4.2863 ;Travel
; 
; feature fill
PRIO_ON
G1 X18.1735 Y-4.2863 E532.78912 
; 
; feature travel
PRIO_OFF
G0 X17.69463 Y-4.2863 ;Travel
; 
; feature fill
PRIO_ON
G1 X14.5745 Y4.2863 E550.67691 
; 
; feature travel
PRIO_OFF
G0 X14.09558 Y4.2863 ;Travel
; 
; feature fill
PRIO_ON
G1 X17.2157 Y-4.2863 E568.56469 
; 
; feature travel
PRIO_OFF
G0 X16.73687 Y-4.2863 ;Travel
; 
; feature fill
PRIO_ON
G1 X13.6167 Y4.2863 E586.45248 
; 
; feature travel
PRIO_OFF
G0 X13.13782 Y4.2863 ;Travel
; 
; feature fill
PRIO_ON
G1 X16.2580 Y-4.2863 E604.34026 
; 
; feature travel
PRIO_OFF
G0 X15.77911 Y-4.2863 ;Travel
; 
; feature fill
PRIO_ON
G1 X12.6589 Y4.2863 E622.22805 
; 
; feature travel
PRIO_OFF
G0 X12.18006 Y4.2863 ;Travel
; 
; feature fill
PRIO_ON
G1 X15.3002 Y-4.2863 E640.11583 
; 
; feature travel
PRIO_OFF
G0 X14.82135 Y-4.2863 ;Travel
; 
; feature fill
PRIO_ON
G1 X11.7012 Y4.2863 E658.00362 
; 
; feature travel
PRIO_OFF
G0 X11.2223 Y4.2863 ;Travel
; 
; feature fill
PRIO_ON
G1 X14.3425 Y-4.2863 E675.89140 
; 
; feature travel
PRIO_OFF
G0 X13.86359 Y-4.2863 ;Travel
; 
; feature fill
PRIO_ON
G1 X10.7434 Y4.2863 E693.77919 
; 
; feature travel
PRIO_OFF
G0 X10.26454 Y4.2863 ;Travel
; 
; feature fill
PRIO_ON
G1 X13.3847 Y-4.2863 E711.66697 
; 
; feature travel
PRIO_OFF
G0 X12.90583 Y-4.2863 ;Travel
; 
; feature fill
PRIO_ON
G1 X9.7857 Y4.2863 E729.55476 
; 
; feature travel
PRIO_OFF
G0 X9.30678 Y4.2863 ;Travel
; 
; feature fill
PRIO_ON
G1 X12.4269 Y-4.2863 E747.44254 
; 
; feature travel
PRIO_OFF
G0 X11.94807 Y-4.2863 ;Travel
; 
; feature fill
PRIO_ON
G1 X8.8279 Y4.2863 E765.33033 
; 
; feature travel
PRIO_OFF
G0 X8.34902 Y4.2863 ;Travel
; 
; feature fill
PRIO_ON
G1 X11.4692 Y-4.2863 E783.21811 
; 
; feature travel
PRIO_OFF
G0 X10.99031 Y-4.2863 ;Travel
; 
; feature fill
PRIO_ON
G1 X7.8701 Y4.2863 E801.10590 
; 
; feature travel
PRIO_OFF
G0 X7.39126 Y4.2863 ;Travel
; 
; feature fill
PRIO_ON
G1 X10.5114 Y-4.2863 E818.99368 
; 
; feature travel
PRIO_OFF
G0 X10.03255 Y-4.2863 ;Travel
; 
; feature fill
PRIO_ON
G1 X6.9124 Y4.2863 E836.88147 
; 
; feature travel
PRIO_OFF
G0 X6.4335 Y4.2863 ;Travel
; 
; feature fill
PRIO_ON
G1 X9.5537 Y-4.2863 E854.76925 
; 
; feature travel
PRIO_OFF
G0 X9.07479 Y-4.2863 ;Travel
; 
; feature fill
PRIO_ON
G1 X5.9546 Y4.2863 E872.65704 
; 
; feature travel
PRIO_OFF
G0 X5.47574 Y4.2863 ;Travel
; 
; feature fill
PRIO_ON
G1 X8.5959 Y-4.2863 E890.54482 
; 
; feature travel
PRIO_OFF
G0 X8.11703 Y-4.2863 ;Travel
; 
; feature fill
PRIO_ON
G1 X4.9969 Y4.2863 E908.43261 
; 
; feature travel
PRIO_OFF
G0 X4.51798 Y4.2863 ;Travel
; 
; feature fill
PRIO_ON
G1 X7.6382 Y-4.2863 E926.32039 
; 
; feature travel
PRIO_OFF
G0 X7.15927 Y-4.2863 ;Travel
; 
; feature fill
PRIO_ON
G1 X4.0391 Y4.2863 E944.20818 
; 
; feature travel
PRIO_OFF
G0 X3.56022 Y4.2863 ;Travel
; 
; feature fill
PRIO_ON
G1 X6.6804 Y-4.2863 E962.09596 
; 
; feature travel
PRIO_OFF
G0 X6.20151 Y-4.2863 ;Travel
; 
; feature fill
PRIO_ON
G1 X3.0813 Y4.2863 E979.98375 
; 
; feature travel
PRIO_OFF
G0 X2.60246 Y4.2863 ;Travel
; 
; feature fill
PRIO_ON
G1 X5.7226 Y-4.2863 E997.87153 
; 
; feature travel
PRIO_OFF
G0 X5.24375 Y-4.2863 ;Travel
; 
; feature fill
PRIO_ON
G1 X2.1236 Y4.2863 E1015.75932 
; 
; feature travel
PRIO_OFF
G0 X1.6447 Y4.2863 ;Travel
; 
; feature fill
PRIO_ON
G1 X4.7649 Y-4.2863 E1033.64710 
; 
; feature travel
PRIO_OFF
G0 X4.28599 Y-4.2863 ;Travel
; 
; feature fill
PRIO_ON
G1 X1.1658 Y4.2863 E1051.53489 
; 
; feature travel
PRIO_OFF
G0 X0.68694 Y4.2863 ;Travel
; 
; feature fill
PRIO_ON
G1 X3.8071 Y-4.2863 E1069.42267 
; 
; feature travel
PRIO_OFF
G0 X3.32823 Y-4.2863 ;Travel
; 
; feature fill
PRIO_ON
G1 X0.2081 Y4.2863 E1087.31046 
; 
; feature travel
PRIO_OFF
G0 X-0.27082 Y4.2863 ;Travel
; 
; feature fill
PRIO_ON
G1 X0.0000 Y3.5422 E1088.86305 
G1 X2.8493 Y-4.2863 E1097.03064 ; => originalEInc=16.33518 adjustedEInc=8.16759 density=0.5
; 
; feature travel
PRIO_OFF
G0 X2.37047 Y-4.2863 ;Travel
; 
; feature fill
PRIO_ON
G1 X-0.0000 Y2.2265 E1103.82554 ; => originalEInc=13.58979 adjustedEInc=6.79490 density=0.5
G1 X-0.7497 Y4.2863 E1108.12354 
; 
; feature travel
PRIO_OFF
G0 X-1.22858 Y4.2863 ;Travel
; 
; feature fill
PRIO_ON
G1 X0.0000 Y0.9108 E1115.16692 
G1 X1.8916 Y-4.2863 E1120.58912 ; => originalEInc=10.84439 adjustedEInc=5.42220 density=0.5
; 
; feature travel
PRIO_OFF
G0 X1.41271 Y-4.2863 ;Travel
; 
; feature fill
PRIO_ON
G1 X0.0000 Y-0.4049 E1124.63862 ; => originalEInc=8.09900 adjustedEInc=4.04950 density=0.5
G1 X-1.7075 Y4.2863 E1134.42741 
; 
; feature travel
PRIO_OFF
G0 X-2.18634 Y4.2863 ;Travel
; 
; feature fill
PRIO_ON
G1 X0.0000 Y-1.7206 E1146.96159 
G1 X0.9338 Y-4.2863 E1149.63839 ; => originalEInc=5.35360 adjustedEInc=2.67680 density=0.5
; 
; feature travel
PRIO_OFF
G0 X0.45495 Y-4.2863 ;Travel
; 
; feature fill
PRIO_ON
G1 X0.0000 Y-3.0363 E1150.94249 ; => originalEInc=2.60821 adjustedEInc=1.30410 density=0.5
G1 X-2.6652 Y4.2863 E1166.22208 
; 
; feature travel
PRIO_OFF
G0 X-3.1441 Y4.2863 ;Travel
; 
; feature fill
PRIO_ON
G1 X-0.0239 Y-4.2863 E1184.10986 
; 
; feature travel
PRIO_OFF
G0 X-0.50281 Y-4.2863 ;Travel
; 
; feature fill
PRIO_ON
G1 X-3.6230 Y4.2863 E1201.99765 
; 
; feature travel
PRIO_OFF
G0 X-4.10186 Y4.2863 ;Travel
; 
; feature fill
PRIO_ON
G1 X-0.9817 Y-4.2863 E1219.88543 
; 
; feature travel
PRIO_OFF
G0 X-1.46057 Y-4.2863 ;Travel
; 
; feature fill
PRIO_ON
G1 X-4.5807 Y4.2863 E1237.77322 
; 
; feature travel
PRIO_OFF
G0 X-5.05962 Y4.2863 ;Travel
; 
; feature fill
PRIO_ON
G1 X-1.9394 Y-4.2863 E1255.66100 
; 
; feature travel
PRIO_OFF
G0 X-2.41833 Y-4.2863 ;Travel
; 
; feature fill
PRIO_ON
G1 X-5.5385 Y4.2863 E1273.54879 
; 
; feature travel
PRIO_OFF
G0 X-6.01738 Y4.2863 ;Travel
; 
; feature fill
PRIO_ON
G1 X-2.8972 Y-4.2863 E1291.43657 
; 
; feature travel
PRIO_OFF
G0 X-3.37609 Y-4.2863 ;Travel
; 
; feature fill
PRIO_ON
G1 X-6.4963 Y4.2863 E1309.32436 
; 
; feature travel
PRIO_OFF
G0 X-6.97514 Y4.2863 ;Travel
; 
; feature fill
PRIO_ON
G1 X-3.8550 Y-4.2863 E1327.21214 
; 
; feature travel
PRIO_OFF
G0 X-4.33385 Y-4.2863 ;Travel
; 
; feature fill
PRIO_ON
G1 X-7.4540 Y4.2863 E1345.09993 
; 
; feature travel
PRIO_OFF
G0 X-7.9329 Y4.2863 ;Travel
; 
; feature fill
PRIO_ON
G1 X-4.8127 Y-4.2863 E1362.98771 
; 
; feature travel
PRIO_OFF
G0 X-5.29161 Y-4.2863 ;Travel
; 
; feature fill
PRIO_ON
G1 X-8.4118 Y4.2863 E1380.87550 
; 
; feature travel
PRIO_OFF
G0 X-8.89066 Y4.2863 ;Travel
; 
; feature fill
PRIO_ON
G1 X-5.7705 Y-4.2863 E1398.76329 
; 
; feature travel
PRIO_OFF
G0 X-6.24937 Y-4.2863 ;Travel
; 
; feature fill
PRIO_ON
G1 X-9.3695 Y4.2863 E1416.65107 
; 
; feature travel
PRIO_OFF
G0 X-9.84842 Y4.2863 ;Travel
; 
; feature fill
PRIO_ON
G1 X-6.7283 Y-4.2863 E1434.53886 
; 
; feature travel
PRIO_OFF
G0 X-7.20713 Y-4.2863 ;Travel
; 
; feature fill
PRIO_ON
G1 X-10.3273 Y4.2863 E1452.42664 
; 
; feature travel
PRIO_OFF
G0 X-10.80618 Y4.2863 ;Travel
; 
; feature fill
PRIO_ON
G1 X-7.6860 Y-4.2863 E1470.31443 
; 
; feature travel
PRIO_OFF
G0 X-8.16489 Y-4.2863 ;Travel
; 
; feature fill
PRIO_ON
G1 X-11.2851 Y4.2863 E1488.20221 
; 
; feature travel
PRIO_OFF
G0 X-11.76394 Y4.2863 ;Travel
; 
; feature fill
PRIO_ON
G1 X-8.6438 Y-4.2863 E1506.09000 
; 
; feature travel
PRIO_OFF
G0 X-9.12265 Y-4.2863 ;Travel
; 
; feature fill
PRIO_ON
G1 X-12.2428 Y4.2863 E1523.97778 
; 
; feature travel
PRIO_OFF
G0 X-12.7217 Y4.2863 ;Travel
; 
; feature fill
PRIO_ON
G1 X-9.6015 Y-4.2863 E1541.86557 
; 
; feature travel
PRIO_OFF
G0 X-10.08041 Y-4.2863 ;Travel
; 
; feature fill
PRIO_ON
G1 X-13.2006 Y4.2863 E1559.75335 
; 
; feature travel
PRIO_OFF
G0 X-13.67946 Y4.2863 ;Travel
; 
; feature fill
PRIO_ON
G1 X-10.5593 Y-4.2863 E1577.64114 
; 
; feature travel
PRIO_OFF
G0 X-11.03817 Y-4.2863 ;Travel
; 
; feature fill
PRIO_ON
G1 X-14.1583 Y4.2863 E1595.52892 
; 
; feature travel
PRIO_OFF
G0 X-14.63722 Y4.2863 ;Travel
; 
; feature fill
PRIO_ON
G1 X-11.5170 Y-4.2863 E1613.41671 
; 
; feature travel
PRIO_OFF
G0 X-11.99593 Y-4.2863 ;Travel
; 
; feature fill
PRIO_ON
G1 X-15.1161 Y4.2863 E1631.30449 
; 
; feature travel
PRIO_OFF
G0 X-15.59498 Y4.2863 ;Travel
; 
; feature fill
PRIO_ON
G1 X-12.4748 Y-4.2863 E1649.19228 
; 
; feature travel
PRIO_OFF
G0 X-12.95369 Y-4.2863 ;Travel
; 
; feature fill
PRIO_ON
G1 X-16.0739 Y4.2863 E1667.08006 
; 
; feature travel
PRIO_OFF
G0 X-16.55274 Y4.2863 ;Travel
; 
; feature fill
PRIO_ON
G1 X-13.4326 Y-4.2863 E1684.96785 
; 
; feature travel
PRIO_OFF
G0 X-13.91145 Y-4.2863 ;Travel
; 
; feature fill
PRIO_ON
G1 X-17.0316 Y4.2863 E1702.85563 
; 
; feature travel
PRIO_OFF
G0 X-17.5105 Y4.2863 ;Travel
; 
; feature fill
PRIO_ON
G1 X-14.3903 Y-4.2863 E1720.74342 
; 
; feature travel
PRIO_OFF
G0 X-14.86921 Y-4.2863 ;Travel
; 
; feature fill
PRIO_ON
G1 X-17.9894 Y4.2863 E1738.63120 
; 
; feature travel
PRIO_OFF
G0 X-18.46826 Y4.2863 ;Travel
; 
; feature fill
PRIO_ON
G1 X-15.3481 Y-4.2863 E1756.51899 
; 
; feature travel
PRIO_OFF
G0 X-15.82697 Y-4.2863 ;Travel
; 
; feature fill
PRIO_ON
G1 X-18.9471 Y4.2863 E1774.40677 
; 
; feature travel
PRIO_OFF
G0 X-19.42602 Y4.2863 ;Travel
; 
; feature fill
PRIO_ON
G1 X-16.3058 Y-4.2863 E1792.29456 
; 
; feature travel
PRIO_OFF
G0 X-16.78473 Y-4.2863 ;Travel
; 
; feature fill
PRIO_ON
G1 X-19.9049 Y4.2863 E1810.18234 
; 
; feature travel
PRIO_OFF
G0 X-20.38378 Y4.2863 ;Travel
; 
; feature fill
PRIO_ON
G1 X-17.2636 Y-4.2863 E1828.07013 
; 
; feature travel
PRIO_OFF
G0 X-17.74249 Y-4.2863 ;Travel
; 
; feature fill
PRIO_ON
G1 X-20.8627 Y4.2863 E1845.95791 
; 
; feature travel
PRIO_OFF
G0 X-21.34154 Y4.2863 ;Travel
; 
; feature fill
PRIO_ON
G1 X-18.2214 Y-4.2863 E1863.84570 
; 
; feature travel
PRIO_OFF
G0 X-18.70025 Y-4.2863 ;Travel
; 
; feature fill
PRIO_ON
G1 X-21.8204 Y4.2863 E1881.73348 
; 
; feature travel
PRIO_OFF
G0 X-22.2993 Y4.2863 ;Travel
; 
; feature fill
PRIO_ON
G1 X-19.1791 Y-4.2863 E1899.62127 
; 
; feature travel
PRIO_OFF
G0 X-19.65801 Y-4.2863 ;Travel
; 
; feature fill
PRIO_ON
G1 X-22.7782 Y4.2863 E1917.50905 
; 
; feature travel
PRIO_OFF
G0 X-23.25706 Y4.2863 ;Travel
; 
; feature fill
PRIO_ON
G1 X-20.1369 Y-4.2863 E1935.39684 
; 
; feature travel
PRIO_OFF
G0 X-20.61577 Y-4.2863 ;Travel
; 
; feature fill
PRIO_ON
G1 X-23.7359 Y4.2863 E1953.28462 
; 
; feature travel
PRIO_OFF
G0 X-24.21482 Y4.2863 ;Travel
; 
; feature fill
PRIO_ON
G1 X-21.0947 Y-4.2863 E1971.17241 
; 
; feature travel
PRIO_OFF
G0 X-21.57353 Y-4.2863 ;Travel
; 
; feature fill
PRIO_ON
G1 X-24.4947 Y3.7395 E1987.91932 
; 
; feature travel
PRIO_OFF
G0 X-24.4947 Y2.42383 ;Travel
; 
; feature fill
PRIO_ON
G1 X-22.0524 Y-4.2863 E2001.92083 
; 
; feature travel
PRIO_OFF
G0 X-22.53129 Y-4.2863 ;Travel
; 
; feature fill
PRIO_ON
G1 X-24.4947 Y1.1081 E2013.17695 
; 
; feature travel
PRIO_OFF
G0 X-24.4947 Y-0.20759 ;Travel
; 
; feature fill
PRIO_ON
G1 X-23.0102 Y-4.2863 E2021.68767 
; 
; feature travel
PRIO_OFF
G0 X-23.48905 Y-4.2863 ;Travel
; 
; feature fill
PRIO_ON
G1 X-24.4947 Y-1.5233 E2027.45300 
; 
; feature travel
PRIO_OFF
G0 X-24.4947 Y-2.83902 ;Travel
; 
; feature fill
PRIO_ON
G1 X-23.9679 Y-4.2863 E2030.47294 
; 
; feature travel
PRIO_OFF
G0 X-24.44681 Y-4.2863 ;Travel
; 
; feature fill
PRIO_ON
G1 X-24.4947 Y-4.1547 E2030.74748 
PRIO_OFF
LayersCompleted=3
M1
; 
;========================
; layer 3, Z = 0.9600
; 
; reset extrusion
STOPRE
PRESETON(E, 0)
DO PRIO_PULSE_DISTANCE=DROP_SCALE
DO PRIO_ON_PATH_OFFSET=0.5*PRIO_PULSE_DISTANCE
;outer: (25.2604,-5.0521) (25.2604,5.0521) (-25.2604,5.0521) (-25.2604,-5.0521) (21.0604,-5.0521) holes: !
;overhangs:!
; 
; feature plane change
G0 X-24.4947 Y-4.15473 Z0.96 ;Plane Change
; 
; feature travel
G0 X-23.94903 Y4.637 ;Travel
; 
; feature outer perimeter
G1 F24000 FL[E] = OuterPerimeterFrequency * DROP_SCALE * 60
PRIO_ON
G1 X24.8454 Y4.6370 E-174.88116 
G1 X24.8454 Y-4.6370 E-153.05998 
G1 X-24.8454 Y-4.6370 E-36.14045 
G1 X-24.8454 Y4.6370 E-14.31928 
G1 X-23.9490 Y4.6370 E-12.21018 
; 
; feature travel
PRIO_OFF
G0 X-23.94903 Y4.286 ;Travel
; 
; feature inner perimeter
G1 F24000 FL[E] = InnerPerimeterFrequency * DROP_SCALE * 60
PRIO_ON
G1 X-24.4944 Y4.2860 E-11.20024 
G1 X-24.4944 Y-4.2860 E4.67384 
G1 X24.4944 Y-4.2860 E95.39384 
G1 X24.4944 Y4.2860 E111.26791 
G1 X-23.9490 Y4.2860 E200.97797 
; 
; feature travel
PRIO_OFF
G0 X-23.60599 Y4.2863 ;Travel
; 
; feature fill
G1 F24000 FL[E] = FillFrequency * DROP_SCALE * 60
PRIO_ON
G1 X-5.2220 Y-4.2863 E240.75150 
; 
; feature travel
PRIO_OFF
G0 X-6.28678 Y-4.2863 ;Travel
; 
; feature fill
PRIO_ON
G1 X-24.4947 Y4.2042 E280.14408 
; 
; feature travel
PRIO_OFF
G0 X-24.4947 Y3.70767 ;Travel
; 
; feature fill
PRIO_ON
G1 X-7.3516 Y-4.2863 E317.23301 
; 
; feature travel
PRIO_OFF
G0 X-8.41636 Y-4.2863 ;Travel
; 
; feature fill
PRIO_ON
G1 X-24.4947 Y3.2111 E352.01827 
; 
; feature travel
PRIO_OFF
G0 X-24.4947 Y2.71463 ;Travel
; 
; feature fill
PRIO_ON
G1 X-9.4811 Y-4.2863 E384.49988 
; 
; feature travel
PRIO_OFF
G0 X-10.54594 Y-4.2863 ;Travel
; 
; feature fill
PRIO_ON
G1 X-24.4947 Y2.2181 E414.67782 
; 
; feature travel
PRIO_OFF
G0 X-24.4947 Y1.72159 ;Travel
; 
; feature fill
PRIO_ON
G1 X-11.6107 Y-4.2863 E442.55211 
; 
; feature travel
PRIO_OFF
G0 X-12.67552 Y-4.2863 ;Travel
; 
; feature fill
PRIO_ON
G1 X-24.4947 Y1.2251 E468.12273 
; 
; feature travel
PRIO_OFF
G0 X-24.4947 Y0.72855 ;Travel
; 
; feature fill
PRIO_ON
G1 X-13.7403 Y-4.2863 E491.38970 
; 
; feature travel
PRIO_OFF
G0 X-14.8051 Y-4.2863 ;Travel
; 
; feature fill
PRIO_ON
G1 X-24.4947 Y0.2320 E512.35300 
; 
; feature travel
PRIO_OFF
G0 X-24.4947 Y-0.26449 ;Travel
; 
; feature fill
PRIO_ON
G1 X-15.8699 Y-4.2863 E531.01265 
; 
; feature travel
PRIO_OFF
G0 X-16.93469 Y-4.2863 ;Travel
; 
; feature fill
PRIO_ON
G1 X-24.4947 Y-0.7610 E547.36863 
; 
; feature travel
PRIO_OFF
G0 X-24.4947 Y-1.25753 ;Travel
; 
; feature fill
PRIO_ON
G1 X-17.9995 Y-4.2863 E561.42096 
; 
; feature travel
PRIO_OFF
G0 X-19.06427 Y-4.2863 ;Travel
; 
; feature fill
PRIO_ON
G1 X-24.4947 Y-1.7541 E573.16963 
; 
; feature travel
PRIO_OFF
G0 X-24.4947 Y-2.25057 ;Travel
; 
; feature fill
PRIO_ON
G1 X-20.1291 Y-4.2863 E582.61463 
; 
; feature travel
PRIO_OFF
G0 X-21.19385 Y-4.2863 ;Travel
; 
; feature fill
PRIO_ON
G1 X-24.4947 Y-2.7471 E589.75598 
; 
; feature travel
PRIO_OFF
G0 X-24.4947 Y-3.24361 ;Travel
; 
; feature fill
PRIO_ON
G1 X-22.2586 Y-4.2863 E594.59366 
; 
; feature travel
PRIO_OFF
G0 X-23.32343 Y-4.2863 ;Travel
; 
; feature fill
PRIO_ON
G1 X-24.4947 Y-3.7401 E597.12769 
; 
; feature travel
PRIO_OFF
G0 X-24.4947 Y-4.23665 ;Travel
; 
; feature fill
PRIO_ON
G1 X-24.3882 Y-4.2863 E597.35805 
; 
; feature travel
PRIO_OFF
G0 X-22.5412 Y4.2863 ;Travel
; 
; feature fill
PRIO_ON
G1 X-4.1572 Y-4.2863 E637.13158 
; 
; feature travel
PRIO_OFF
G0 X-3.09241 Y-4.2863 ;Travel
; 
; feature fill
PRIO_ON
G1 X-21.4764 Y4.2863 E676.90511 
; 
; feature travel
PRIO_OFF
G0 X-20.41162 Y4.2863 ;Travel
; 
; feature fill
PRIO_ON
G1 X-2.0276 Y-4.2863 E716.67864 
; 
; feature travel
PRIO_OFF
G0 X-0.96283 Y-4.2863 ;Travel
; 
; feature fill
PRIO_ON
G1 X-19.3468 Y4.2863 E756.45217 
; 
; feature travel
PRIO_OFF
G0 X-18.28203 Y4.2863 ;Travel
; 
; feature fill
PRIO_ON
G1 X0.0000 Y-4.2388 E796.00509 
G1 X0.1020 Y-4.2863 E796.11539 ; => originalEInc=0.22061 adjustedEInc=0.11031 density=0.5
; 
; feature travel
PRIO_OFF
G0 X1.16676 Y-4.2863 ;Travel
; 
; feature fill
PRIO_ON
G1 X0.0000 Y-3.7422 E797.37753 ; => originalEInc=2.52427 adjustedEInc=1.26213 density=0.5
G1 X-17.2172 Y4.2863 E834.62679 
; 
; feature travel
PRIO_OFF
G0 X-16.15245 Y4.2863 ;Travel
; 
; feature fill
PRIO_ON
G1 X0.0000 Y-3.2457 E869.57239 
G1 X2.2315 Y-4.2863 E871.98635 ; => originalEInc=4.82793 adjustedEInc=2.41396 density=0.5
; 
; feature travel
PRIO_OFF
G0 X3.29634 Y-4.2863 ;Travel
; 
; feature fill
PRIO_ON
G1 X0.0000 Y-2.7492 E875.55215 ; => originalEInc=7.13159 adjustedEInc=3.56579 density=0.5
G1 X-15.0877 Y4.2863 E908.19409 
; 
; feature travel
PRIO_OFF
G0 X-14.02287 Y4.2863 ;Travel
; 
; feature fill
PRIO_ON
G1 X0.0000 Y-2.2527 E938.53237 
G1 X4.3611 Y-4.2863 E943.24999 ; => originalEInc=9.43524 adjustedEInc=4.71762 density=0.5
; 
; feature travel
PRIO_OFF
G0 X5.42592 Y-4.2863 ;Travel
; 
; feature fill
PRIO_ON
G1 X0.0000 Y-1.7562 E949.11944 ; => originalEInc=11.73890 adjustedEInc=5.86945 density=0.5
G1 X-12.9581 Y4.2863 E977.15407 
; 
; feature travel
PRIO_OFF
G0 X-11.89329 Y4.2863 ;Travel
; 
; feature fill
PRIO_ON
G1 X0.0000 Y-1.2596 E1002.88504 
G1 X6.4907 Y-4.2863 E1009.90632 ; => originalEInc=14.04256 adjustedEInc=7.02128 density=0.5
; 
; feature travel
PRIO_OFF
G0 X7.5555 Y-4.2863 ;Travel
; 
; feature fill
PRIO_ON
G1 X0.0000 Y-0.7631 E1018.07943 ; => originalEInc=16.34622 adjustedEInc=8.17311 density=0.5
G1 X-10.8285 Y4.2863 E1041.50674 
; 
; feature travel
PRIO_OFF
G0 X-9.76371 Y4.2863 ;Travel
; 
; feature fill
PRIO_ON
G1 X0.0000 Y-0.2666 E1062.63039 
G1 X8.6203 Y-4.2863 E1071.95533 ; => originalEInc=18.64988 adjustedEInc=9.32494 density=0.5
; 
; feature travel
PRIO_OFF
G0 X9.68508 Y-4.2863 ;Travel
; 
; feature fill
PRIO_ON
G1 X0.0000 Y0.2299 E1082.43210 ; => originalEInc=20.95354 adjustedEInc=10.47677 density=0.5
G1 X-8.6989 Y4.2863 E1101.25209 
; 
; feature travel
PRIO_OFF
G0 X-7.63413 Y4.2863 ;Travel
; 
; feature fill
PRIO_ON
G1 X0.0000 Y0.7264 E1117.76842 
G1 X10.7499 Y-4.2863 E1129.39702 ; => originalEInc=23.25720 adjustedEInc=11.62860 density=0.5
; 
; feature travel
PRIO_OFF
G0 X11.81466 Y-4.2863 ;Travel
; 
; feature fill
PRIO_ON
G1 X0.0000 Y1.2230 E1142.17745 ; => originalEInc=25.56085 adjustedEInc=12.78043 density=0.5
G1 X-6.5693 Y4.2863 E1156.39012 
; 
; feature travel
PRIO_OFF
G0 X-5.50455 Y4.2863 ;Travel
; 
; feature fill
PRIO_ON
G1 X0.0000 Y1.7195 E1168.29914 
G1 X12.8795 Y-4.2863 E1182.23139 ; => originalEInc=27.86451 adjustedEInc=13.93225 density=0.5
; 
; feature travel
PRIO_OFF
G0 X13.94424 Y-4.2863 ;Travel
; 
; feature fill
PRIO_ON
G1 X-0.0000 Y2.2160 E1197.31548 ; => originalEInc=30.16817 adjustedEInc=15.08409 density=0.5
G1 X-4.4398 Y4.2863 E1206.92084 
; 
; feature travel
PRIO_OFF
G0 X-3.37496 Y4.2863 ;Travel
; 
; feature fill
PRIO_ON
G1 X-0.0000 Y2.7125 E1214.22252 
G1 X15.0090 Y-4.2863 E1230.45844 ; => originalEInc=32.47185 adjustedEInc=16.23593 density=0.5
; 
; feature travel
PRIO_OFF
G0 X16.07383 Y-4.2863 ;Travel
; 
; feature fill
PRIO_ON
G1 X0.0000 Y3.2091 E1247.84620 ; => originalEInc=34.77551 adjustedEInc=17.38775 density=0.5
G1 X-2.3102 Y4.2863 E1252.84422 
; 
; feature travel
PRIO_OFF
G0 X-1.24538 Y4.2863 ;Travel
; 
; feature fill
PRIO_ON
G1 X0.0000 Y3.7056 E1255.53858 
G1 X17.1386 Y-4.2863 E1274.07816 ; => originalEInc=37.07917 adjustedEInc=18.53958 density=0.5
; 
; feature travel
PRIO_OFF
G0 X18.20341 Y-4.2863 ;Travel
; 
; feature fill
PRIO_ON
G1 X0.0000 Y4.2021 E1293.76958 ; => originalEInc=39.38283 adjustedEInc=19.69141 density=0.5
G1 X-0.1806 Y4.2863 E1294.16028 
; 
; feature travel
PRIO_OFF
G0 X0.8842 Y4.2863 ;Travel
; 
; feature fill
PRIO_ON
G1 X19.2682 Y-4.2863 E1333.93381 
; 
; feature travel
PRIO_OFF
G0 X20.33299 Y-4.2863 ;Travel
; 
; feature fill
PRIO_ON
G1 X1.9490 Y4.2863 E1373.70734 
; 
; feature travel
PRIO_OFF
G0 X3.01378 Y4.2863 ;Travel
; 
; feature fill
PRIO_ON
G1 X21.3978 Y-4.2863 E1413.48086 
; 
; feature travel
PRIO_OFF
G0 X22.46257 Y-4.2863 ;Travel
; 
; feature fill
PRIO_ON
G1 X4.0786 Y4.2863 E1453.25439 
; 
; feature travel
PRIO_OFF
G0 X5.14336 Y4.2863 ;Travel
; 
; feature fill
PRIO_ON
G1 X23.5274 Y-4.2863 E1493.02792 
; 
; feature travel
PRIO_OFF
G0 X24.4947 Y-4.24086 ;Travel
; 
; feature fill
PRIO_ON
G1 X6.2081 Y4.2863 E1532.59062 
; 
; feature travel
PRIO_OFF
G0 X7.27294 Y4.2863 ;Travel
; 
; feature fill
PRIO_ON
G1 X24.4947 Y-3.7443 E1569.84965 
; 
; feature travel
PRIO_OFF
G0 X24.4947 Y-3.24782 ;Travel
; 
; feature fill
PRIO_ON
G1 X8.3377 Y4.2863 E1604.80502 
; 
; feature travel
PRIO_OFF
G0 X9.40252 Y4.2863 ;Travel
; 
; feature fill
PRIO_ON
G1 X24.4947 Y-2.7513 E1637.45674 
; 
; feature travel
PRIO_OFF
G0 X24.4947 Y-2.25478 ;Travel
; 
; feature fill
PRIO_ON
G1 X10.4673 Y4.2863 E1667.80479 
; 
; feature travel
PRIO_OFF
G0 X11.53211 Y4.2863 ;Travel
; 
; feature fill
PRIO_ON
G1 X24.4947 Y-1.7583 E1695.84918 
; 
; feature travel
PRIO_OFF
G0 X24.4947 Y-1.26174 ;Travel
; 
; feature fill
PRIO_ON
G1 X12.5969 Y4.2863 E1721.58992 
; 
; feature travel
PRIO_OFF
G0 X13.66169 Y4.2863 ;Travel
; 
; feature fill
PRIO_ON
G1 X24.4947 Y-0.7652 E1745.02699 
; 
; feature travel
PRIO_OFF
G0 X24.4947 Y-0.2687 ;Travel
; 
; feature fill
PRIO_ON
G1 X14.7265 Y4.2863 E1766.16040 
; 
; feature travel
PRIO_OFF
G0 X15.79127 Y4.2863 ;Travel
; 
; feature fill
PRIO_ON
G1 X24.4947 Y0.2278 E1784.99016 
; 
; feature travel
PRIO_OFF
G0 X24.4947 Y0.72434 ;Travel
; 
; feature fill
PRIO_ON
G1 X16.8561 Y4.2863 E1801.51625 
; 
; feature travel
PRIO_OFF
G0 X17.92085 Y4.2863 ;Travel
; 
; feature fill
PRIO_ON
G1 X24.4947 Y1.2209 E1815.73868 
; 
; feature travel
PRIO_OFF
G0 X24.4947 Y1.71738 ;Travel
; 
; feature fill
PRIO_ON
G1 X18.9856 Y4.2863 E1827.65746 
; 
; feature travel
PRIO_OFF
G0 X20.05043 Y4.2863 ;Travel
; 
; feature fill
PRIO_ON
G1 X24.4947 Y2.2139 E1837.27257 
; 
; feature travel
PRIO_OFF
G0 X24.4947 Y2.71042 ;Travel
; 
; feature fill
PRIO_ON
G1 X21.1152 Y4.2863 E1844.58403 
; 
; feature travel
PRIO_OFF
G0 X22.18001 Y4.2863 ;Travel
; 
; feature fill
PRIO_ON
G1 X24.4947 Y3.2069 E1849.59182 
; 
; feature travel
PRIO_OFF
G0 X24.4947 Y3.70346 ;Travel
; 
; feature fill
PRIO_ON
G1 X23.2448 Y4.2863 E1852.29596 
; 
; feature travel
PRIO_OFF
G0 X24.30959 Y4.2863 ;Travel
; 
; feature fill
PRIO_ON
G1 X24.4947 Y4.2000 E1852.69643 
PRIO_OFF
LayersCompleted=4
M1
; 
;========================
; layer 4, Z = 1.2000
; 
; reset extrusion
STOPRE
PRESETON(E, 0)
DO PRIO_PULSE_DISTANCE=DROP_SCALE
DO PRIO_ON_PATH_OFFSET=0.5*PRIO_PULSE_DISTANCE
;outer: (25.2604,-5.0521) (25.2604,5.0521) (-25.2604,5.0521) (-25.2604,-5.0521) (19.8604,-5.0521) holes: !
;overhangs:!
; 
; feature plane change
G0 X24.4947 Y4.19998 Z1.2 ;Plane Change
; 
; feature travel
G0 X10.87413 Y4.637 ;Travel
; 
; feature outer perimeter
G1 F24000 FL[E] = OuterPerimeterFrequency * DROP_SCALE * 60
PRIO_ON
G1 X-24.8454 Y4.6370 E-383.86105 
G1 X-24.8454 Y-4.6370 E-362.03988 
G1 X24.8454 Y-4.6370 E-245.12035 
G1 X24.8454 Y4.6370 E-223.29917 
G1 X10.8741 Y4.6370 E-190.42559 
; 
; feature travel
PRIO_OFF
G0 X10.87413 Y4.286 ;Travel
; 
; feature inner perimeter
G1 F24000 FL[E] = InnerPerimeterFrequency * DROP_SCALE * 60
PRIO_ON
G1 X24.4944 Y4.2860 E-165.20286 
G1 X24.4944 Y-4.2860 E-149.32879 
G1 X-24.4944 Y-4.2860 E-58.60879 
G1 X-24.4944 Y4.2860 E-42.73471 
G1 X10.8741 Y4.2860 E22.76256 
; 
; feature travel
PRIO_OFF
G0 X11.07622 Y4.2863 ;Travel
; 
; feature fill
G1 F24000 FL[E] = FillFrequency * DROP_SCALE * 60
PRIO_ON
G1 X0.0000 Y0.2549 E34.31851 ; => originalEInc=23.11189 adjustedEInc=11.55595 density=0.5
G1 X-12.4768 Y-4.2863 E60.35290 
; 
; feature travel
PRIO_OFF
G0 X-11.16109 Y-4.2863 ;Travel
; 
; feature fill
PRIO_ON
G1 X0.0000 Y-0.2240 E83.64189 
G1 X12.3919 Y4.2863 E96.57054 ; => originalEInc=25.85729 adjustedEInc=12.92864 density=0.5
; 
; feature travel
PRIO_OFF
G0 X13.70764 Y4.2863 ;Travel
; 
; feature fill
PRIO_ON
G1 X0.0000 Y-0.7029 E110.87188 ; => originalEInc=28.60269 adjustedEInc=14.30134 density=0.5
G1 X-9.8454 Y-4.2863 E131.41548 
; 
; feature travel
PRIO_OFF
G0 X-8.52967 Y-4.2863 ;Travel
; 
; feature fill
PRIO_ON
G1 X-0.0000 Y-1.1818 E149.21369 
G1 X15.0234 Y4.2863 E164.88773 ; => originalEInc=31.34807 adjustedEInc=15.67404 density=0.5
; 
; feature travel
PRIO_OFF
G0 X16.33907 Y4.2863 ;Travel
; 
; feature fill
PRIO_ON
G1 X0.0000 Y-1.6606 E181.93447 ; => originalEInc=34.09348 adjustedEInc=17.04674 density=0.5
G1 X-7.2140 Y-4.2863 E196.98728 
; 
; feature travel
PRIO_OFF
G0 X-5.89825 Y-4.2863 ;Travel
; 
; feature fill
PRIO_ON
G1 X0.0000 Y-2.1395 E209.29470 
G1 X17.6548 Y4.2863 E227.71413 ; => originalEInc=36.83886 adjustedEInc=18.41943 density=0.5
; 
; feature travel
PRIO_OFF
G0 X18.97049 Y4.2863 ;Travel
; 
; feature fill
PRIO_ON
G1 X0.0000 Y-2.6184 E247.50627 ; => originalEInc=39.58427 adjustedEInc=19.79214 density=0.5
G1 X-4.5825 Y-4.2863 E257.06828 
; 
; feature travel
PRIO_OFF
G0 X-3.26682 Y-4.2863 ;Travel
; 
; feature fill
PRIO_ON
G1 X-0.0000 Y-3.0973 E263.88491 
G1 X20.2862 Y4.2863 E285.04974 ; => originalEInc=42.32966 adjustedEInc=21.16483 density=0.5
; 
; feature travel
PRIO_OFF
G0 X21.60191 Y4.2863 ;Travel
; 
; feature fill
PRIO_ON
G1 X0.0000 Y-3.5762 E307.58726 ; => originalEInc=45.07506 adjustedEInc=22.53753 density=0.5
G1 X-1.9511 Y-4.2863 E311.65850 
; 
; feature travel
PRIO_OFF
G0 X-0.6354 Y-4.2863 ;Travel
; 
; feature fill
PRIO_ON
G1 X-0.0000 Y-4.0550 E312.98434 
G1 X22.9176 Y4.2863 E336.89456 ; => originalEInc=47.82044 adjustedEInc=23.91022 density=0.5
; 
; feature travel
PRIO_OFF
G0 X24.23334 Y4.2863 ;Travel
; 
; feature fill
PRIO_ON
G1 X0.6803 Y-4.2863 E386.04085 
; 
; feature travel
PRIO_OFF
G0 X1.99603 Y-4.2863 ;Travel
; 
; feature fill
PRIO_ON
G1 X24.4947 Y3.9026 E432.98710 
; 
; feature travel
PRIO_OFF
G0 X24.4947 Y3.42367 ;Travel
; 
; feature fill
PRIO_ON
G1 X3.3117 Y-4.2863 E477.18796 
; 
; feature travel
PRIO_OFF
G0 X4.62745 Y-4.2863 ;Travel
; 
; feature fill
PRIO_ON
G1 X24.4947 Y2.9448 E518.64343 
; 
; feature travel
PRIO_OFF
G0 X24.4947 Y2.46591 ;Travel
; 
; feature fill
PRIO_ON
G1 X5.9432 Y-4.2863 E557.35350 
; 
; feature travel
PRIO_OFF
G0 X7.25887 Y-4.2863 ;Travel
; 
; feature fill
PRIO_ON
G1 X24.4947 Y1.9870 E593.31817 
; 
; feature travel
PRIO_OFF
G0 X24.4947 Y1.50815 ;Travel
; 
; feature fill
PRIO_ON
G1 X8.5746 Y-4.2863 E626.53745 
; 
; feature travel
PRIO_OFF
G0 X9.8903 Y-4.2863 ;Travel
; 
; feature fill
PRIO_ON
G1 X24.4947 Y1.0293 E657.01134 
; 
; feature travel
PRIO_OFF
G0 X24.4947 Y0.55039 ;Travel
; 
; feature fill
PRIO_ON
G1 X11.2060 Y-4.2863 E684.73983 
; 
; feature travel
PRIO_OFF
G0 X12.52172 Y-4.2863 ;Travel
; 
; feature fill
PRIO_ON
G1 X24.4947 Y0.0715 E709.72292 
; 
; feature travel
PRIO_OFF
G0 X24.4947 Y-0.40737 ;Travel
; 
; feature fill
PRIO_ON
G1 X13.8374 Y-4.2863 E731.96062 
; 
; feature travel
PRIO_OFF
G0 X15.15314 Y-4.2863 ;Travel
; 
; feature fill
PRIO_ON
G1 X24.4947 Y-0.8862 E751.45292 
; 
; feature travel
PRIO_OFF
G0 X24.4947 Y-1.36513 ;Travel
; 
; feature fill
PRIO_ON
G1 X16.4689 Y-4.2863 E768.19983 
; 
; feature travel
PRIO_OFF
G0 X17.78457 Y-4.2863 ;Travel
; 
; feature fill
PRIO_ON
G1 X24.4947 Y-1.8440 E782.20135 
; 
; feature travel
PRIO_OFF
G0 X24.4947 Y-2.32289 ;Travel
; 
; feature fill
PRIO_ON
G1 X19.1003 Y-4.2863 E793.45747 
; 
; feature travel
PRIO_OFF
G0 X20.41599 Y-4.2863 ;Travel
; 
; feature fill
PRIO_ON
G1 X24.4947 Y-2.8018 E801.96819 
; 
; feature travel
PRIO_OFF
G0 X24.4947 Y-3.28065 ;Travel
; 
; feature fill
PRIO_ON
G1 X21.7317 Y-4.2863 E807.73352 
; 
; feature travel
PRIO_OFF
G0 X23.04742 Y-4.2863 ;Travel
; 
; feature fill
PRIO_ON
G1 X24.4947 Y-3.7595 E810.75346 
; 
; feature travel
PRIO_OFF
G0 X24.4947 Y-4.23841 ;Travel
; 
; feature fill
PRIO_ON
G1 X24.3631 Y-4.2863 E811.02799 
; 
; feature travel
PRIO_OFF
G0 X9.76051 Y4.2863 ;Travel
; 
; feature fill
PRIO_ON
G1 X0.0000 Y0.7338 E821.21124 ; => originalEInc=20.36650 adjustedEInc=10.18325 density=0.5
G1 X-13.7925 Y-4.2863 E849.99102 
; 
; feature travel
PRIO_OFF
G0 X-15.10823 Y-4.2863 ;Travel
; 
; feature fill
PRIO_ON
G1 X0.0000 Y1.2126 E881.51622 
G1 X8.4448 Y4.2863 E890.32677 ; => originalEInc=17.62110 adjustedEInc=8.81055 density=0.5
; 
; feature travel
PRIO_OFF
G0 X7.12908 Y4.2863 ;Travel
; 
; feature fill
PRIO_ON
G1 X-0.0000 Y1.6915 E897.76462 ; => originalEInc=14.87570 adjustedEInc=7.43785 density=0.5
G1 X-16.4239 Y-4.2863 E932.03519 
; 
; feature travel
PRIO_OFF
G0 X-17.73965 Y-4.2863 ;Travel
; 
; feature fill
PRIO_ON
G1 X0.0000 Y2.1704 E969.05117 
G1 X5.8134 Y4.2863 E975.11633 ; => originalEInc=12.13032 adjustedEInc=6.06516 density=0.5
; 
; feature travel
PRIO_OFF
G0 X4.49766 Y4.2863 ;Travel
; 
; feature fill
PRIO_ON
G1 X0.0000 Y2.6493 E979.80878 ; => originalEInc=9.38492 adjustedEInc=4.69246 density=0.5
G1 X-19.0554 Y-4.2863 E1019.57015 
; 
; feature travel
PRIO_OFF
G0 X-20.37108 Y-4.2863 ;Travel
; 
; feature fill
PRIO_ON
G1 X0.0000 Y3.1282 E1062.07691 
G1 X3.1820 Y4.2863 E1065.39667 ; => originalEInc=6.63953 adjustedEInc=3.31976 density=0.5
; 
; feature travel
PRIO_OFF
G0 X1.86623 Y4.2863 ;Travel
; 
; feature fill
PRIO_ON
G1 X0.0000 Y3.6070 E1067.34373 ; => originalEInc=3.89412 adjustedEInc=1.94706 density=0.5
G1 X-21.6868 Y-4.2863 E1112.59589 
; 
; feature travel
PRIO_OFF
G0 X-23.0025 Y-4.2863 ;Travel
; 
; feature fill
PRIO_ON
G1 X0.0000 Y4.0859 E1160.59345 
G1 X0.5505 Y4.2863 E1161.16782 ; => originalEInc=1.14873 adjustedEInc=0.57436 density=0.5
; 
; feature travel
PRIO_OFF
G0 X-0.76519 Y4.2863 ;Travel
; 
; feature fill
PRIO_ON
G1 X-24.3182 Y-4.2863 E1210.31410 
; 
; feature travel
PRIO_OFF
G0 X-24.4947 Y-3.87166 ;Travel
; 
; feature fill
PRIO_ON
G1 X-2.0809 Y4.2863 E1257.08325 
; 
; feature travel
PRIO_OFF
G0 X-3.39661 Y4.2863 ;Travel
; 
; feature fill
PRIO_ON
G1 X-24.4947 Y-3.3928 E1301.10701 
; 
; feature travel
PRIO_OFF
G0 X-24.4947 Y-2.9139 ;Travel
; 
; feature fill
PRIO_ON
G1 X-4.7123 Y4.2863 E1342.38537 
; 
; feature travel
PRIO_OFF
G0 X-6.02804 Y4.2863 ;Travel
; 
; feature fill
PRIO_ON
G1 X-24.4947 Y-2.4350 E1380.91833 
; 
; feature travel
PRIO_OFF
G0 X-24.4947 Y-1.95614 ;Travel
; 
; feature fill
PRIO_ON
G1 X-7.3438 Y4.2863 E1416.70590 
; 
; feature travel
PRIO_OFF
G0 X-8.65946 Y4.2863 ;Travel
; 
; feature fill
PRIO_ON
G1 X-24.4947 Y-1.4773 E1449.74807 
; 
; feature travel
PRIO_OFF
G0 X-24.4947 Y-0.99838 ;Travel
; 
; feature fill
PRIO_ON
G1 X-9.9752 Y4.2863 E1480.04485 
; 
; feature travel
PRIO_OFF
G0 X-11.29089 Y4.2863 ;Travel
; 
; feature fill
PRIO_ON
G1 X-24.4947 Y-0.5195 E1507.59624 
; 
; feature travel
PRIO_OFF
G0 X-24.4947 Y-0.04062 ;Travel
; 
; feature fill
PRIO_ON
G1 X-12.6066 Y4.2863 E1532.40223 
; 
; feature travel
PRIO_OFF
G0 X-13.92231 Y4.2863 ;Travel
; 
; feature fill
PRIO_ON
G1 X-24.4947 Y0.4383 E1554.46282 
; 
; feature travel
PRIO_OFF
G0 X-24.4947 Y0.91714 ;Travel
; 
; feature fill
PRIO_ON
G1 X-15.2380 Y4.2863 E1573.77802 
; 
; feature travel
PRIO_OFF
G0 X-16.55373 Y4.2863 ;Travel
; 
; feature fill
PRIO_ON
G1 X-24.4947 Y1.3960 E1590.34783 
; 
; feature travel
PRIO_OFF
G0 X-24.4947 Y1.8749 ;Travel
; 
; feature fill
PRIO_ON
G1 X-17.8695 Y4.2863 E1604.17224 
; 
; feature travel
PRIO_OFF
G0 X-19.18516 Y4.2863 ;Travel
; 
; feature fill
PRIO_ON
G1 X-24.4947 Y2.3538 E1615.25125 
; 
; feature travel
PRIO_OFF
G0 X-24.4947 Y2.83266 ;Travel
; 
; feature fill
PRIO_ON
G1 X-20.5009 Y4.2863 E1623.58487 
; 
; feature travel
PRIO_OFF
G0 X-21.81658 Y4.2863 ;Travel
; 
; feature fill
PRIO_ON
G1 X-24.4947 Y3.3115 E1629.17309 
; 
; feature travel
PRIO_OFF
G0 X-24.4947 Y3.79042 ;Travel
; 
; feature fill
PRIO_ON
G1 X-23.1323 Y4.2863 E1632.01592 
PRIO_OFF
LayersCompleted=5
M1
; 
;========================
; layer 5, Z = 1.4400
; 
; reset extrusion
STOPRE
PRESETON(E, 0)
DO PRIO_PULSE_DISTANCE=DROP_SCALE
DO PRIO_ON_PATH_OFFSET=0.5*PRIO_PULSE_DISTANCE
;outer: (25.2604,-5.0521) (25.2604,5.0521) (-25.2604,5.0521) (-25.2604,-5.0521) (18.6604,-5.0521) holes: !
;overhangs:!
; 
; feature plane change
G0 X-23.13229 Y4.2863 Z1.44 ;Plane Change
; 
; feature travel
G0 X-14.84923 Y-4.637 ;Travel
; 
; feature outer perimeter
G1 F24000 FL[E] = OuterPerimeterFrequency * DROP_SCALE * 60
PRIO_ON
G1 X-24.8454 Y-4.6370 E-664.74791 
G1 X-24.8454 Y4.6370 E-642.92674 
G1 X24.8454 Y4.6370 E-526.00721 
G1 X24.8454 Y-4.6370 E-504.18603 
G1 X-14.8492 Y-4.6370 E-410.78690 
; 
; feature travel
PRIO_OFF
G0 X-14.84923 Y-4.286 ;Travel
; 
; feature inner perimeter
G1 F24000 FL[E] = InnerPerimeterFrequency * DROP_SCALE * 60
PRIO_ON
G1 X24.4944 Y-4.2860 E-337.92832 
G1 X24.4944 Y4.2860 E-322.05425 
G1 X-24.4944 Y4.2860 E-231.33425 
G1 X-24.4944 Y-4.2860 E-215.46017 
G1 X-14.8492 Y-4.2860 E-197.59875 
; 
; feature travel
PRIO_OFF
G0 X-14.78004 Y-4.2863 ;Travel
; 
; feature fill
G1 F24000 FL[E] = FillFrequency * DROP_SCALE * 60
PRIO_ON
G1 X-10.7826 Y4.2863 E-179.05205 
; 
; feature travel
PRIO_OFF
G0 X-10.28605 Y4.2863 ;Travel
; 
; feature fill
PRIO_ON
G1 X-14.2835 Y-4.2863 E-160.50535 
; 
; feature travel
PRIO_OFF
G0 X-13.787 Y-4.2863 ;Travel
; 
; feature fill
PRIO_ON
G1 X-9.7895 Y4.2863 E-141.95865 
; 
; feature travel
PRIO_OFF
G0 X-9.29301 Y4.2863 ;Travel
; 
; feature fill
PRIO_ON
G1 X-13.2905 Y-4.2863 E-123.41195 
; 
; feature travel
PRIO_OFF
G0 X-12.79396 Y-4.2863 ;Travel
; 
; feature fill
PRIO_ON
G1 X-8.7965 Y4.2863 E-104.86524 
; 
; feature travel
PRIO_OFF
G0 X-8.29997 Y4.2863 ;Travel
; 
; feature fill
PRIO_ON
G1 X-12.2974 Y-4.2863 E-86.31854 
; 
; feature travel
PRIO_OFF
G0 X-11.80092 Y-4.2863 ;Travel
; 
; feature fill
PRIO_ON
G1 X-7.8034 Y4.2863 E-67.77184 
; 
; feature travel
PRIO_OFF
G0 X-7.30693 Y4.2863 ;Travel
; 
; feature fill
PRIO_ON
G1 X-11.3044 Y-4.2863 E-49.22514 
; 
; feature travel
PRIO_OFF
G0 X-10.80788 Y-4.2863 ;Travel
; 
; feature fill
PRIO_ON
G1 X-6.8104 Y4.2863 E-30.67844 
; 
; feature travel
PRIO_OFF
G0 X-6.31389 Y4.2863 ;Travel
; 
; feature fill
PRIO_ON
G1 X-10.3114 Y-4.2863 E-12.13174 
; 
; feature travel
PRIO_OFF
G0 X-9.81484 Y-4.2863 ;Travel
; 
; feature fill
PRIO_ON
G1 X-5.8174 Y4.2863 E6.41496 
; 
; feature travel
PRIO_OFF
G0 X-5.32085 Y4.2863 ;Travel
; 
; feature fill
PRIO_ON
G1 X-9.3183 Y-4.2863 E24.96166 
; 
; feature travel
PRIO_OFF
G0 X-8.8218 Y-4.2863 ;Travel
; 
; feature fill
PRIO_ON
G1 X-4.8243 Y4.2863 E43.50836 
; 
; feature travel
PRIO_OFF
G0 X-4.32781 Y4.2863 ;Travel
; 
; feature fill
PRIO_ON
G1 X-8.3253 Y-4.2863 E62.05506 
; 
; feature travel
PRIO_OFF
G0 X-7.82876 Y-4.2863 ;Travel
; 
; feature fill
PRIO_ON
G1 X-3.8313 Y4.2863 E80.60177 
; 
; feature travel
PRIO_OFF
G0 X-3.33477 Y4.2863 ;Travel
; 
; feature fill
PRIO_ON
G1 X-7.3322 Y-4.2863 E99.14847 
; 
; feature travel
PRIO_OFF
G0 X-6.83572 Y-4.2863 ;Travel
; 
; feature fill
PRIO_ON
G1 X-2.8382 Y4.2863 E117.69517 
; 
; feature travel
PRIO_OFF
G0 X-2.34173 Y4.2863 ;Travel
; 
; feature fill
PRIO_ON
G1 X-6.3392 Y-4.2863 E136.24187 
; 
; feature travel
PRIO_OFF
G0 X-5.84268 Y-4.2863 ;Travel
; 
; feature fill
PRIO_ON
G1 X-1.8452 Y4.2863 E154.78857 
; 
; feature travel
PRIO_OFF
G0 X-1.34869 Y4.2863 ;Travel
; 
; feature fill
PRIO_ON
G1 X-5.3462 Y-4.2863 E173.33527 
; 
; feature travel
PRIO_OFF
G0 X-4.84964 Y-4.2863 ;Travel
; 
; feature fill
PRIO_ON
G1 X-0.8522 Y4.2863 E191.88197 
; 
; feature travel
PRIO_OFF
G0 X-0.35565 Y4.2863 ;Travel
; 
; feature fill
PRIO_ON
G1 X-4.3531 Y-4.2863 E210.42867 
; 
; feature travel
PRIO_OFF
G0 X-3.8566 Y-4.2863 ;Travel
; 
; feature fill
PRIO_ON
G1 X0.0000 Y3.9842 E228.32179 
G1 X0.1409 Y4.2863 E228.64858 ; => originalEInc=0.65358 adjustedEInc=0.32679 density=0.5
; 
; feature travel
PRIO_OFF
G0 X0.63739 Y4.2863 ;Travel
; 
; feature fill
PRIO_ON
G1 X0.0000 Y2.9194 E230.12720 ; => originalEInc=2.95724 adjustedEInc=1.47862 density=0.5
G1 X-3.3601 Y-4.2863 E245.71667 
; 
; feature travel
PRIO_OFF
G0 X-2.86356 Y-4.2863 ;Travel
; 
; feature fill
PRIO_ON
G1 X0.0000 Y1.8546 E259.00247 
G1 X1.1339 Y4.2863 E261.63292 ; => originalEInc=5.26090 adjustedEInc=2.63045 density=0.5
; 
; feature travel
PRIO_OFF
G0 X1.63043 Y4.2863 ;Travel
; 
; feature fill
PRIO_ON
G1 X0.0000 Y0.7898 E265.41520 ; => originalEInc=7.56456 adjustedEInc=3.78228 density=0.5
G1 X-2.3670 Y-4.2863 E276.39734 
; 
; feature travel
PRIO_OFF
G0 X-1.87052 Y-4.2863 ;Travel
; 
; feature fill
PRIO_ON
G1 X0.0000 Y-0.2750 E285.07582 
G1 X2.1269 Y4.2863 E290.00993 ; => originalEInc=9.86822 adjustedEInc=4.93411 density=0.5
; 
; feature travel
PRIO_OFF
G0 X2.62347 Y4.2863 ;Travel
; 
; feature fill
PRIO_ON
G1 X0.0000 Y-1.3397 E296.09587 ; => originalEInc=12.17188 adjustedEInc=6.08594 density=0.5
G1 X-1.3740 Y-4.2863 E302.47069 
; 
; feature travel
PRIO_OFF
G0 X-0.87748 Y-4.2863 ;Travel
; 
; feature fill
PRIO_ON
G1 X0.0000 Y-2.4045 E306.54185 
G1 X3.1200 Y4.2863 E313.77962 ; => originalEInc=14.47554 adjustedEInc=7.23777 density=0.5
; 
; feature travel
PRIO_OFF
G0 X3.61651 Y4.2863 ;Travel
; 
; feature fill
PRIO_ON
G1 X0.0000 Y-3.4693 E322.16922 ; => originalEInc=16.77919 adjustedEInc=8.38960 density=0.5
G1 X-0.3810 Y-4.2863 E323.93672 
; 
; feature travel
PRIO_OFF
G0 X0.11556 Y-4.2863 ;Travel
; 
; feature fill
PRIO_ON
G1 X4.1130 Y4.2863 E342.48342 
; 
; feature travel
PRIO_OFF
G0 X4.60955 Y4.2863 ;Travel
; 
; feature fill
PRIO_ON
G1 X0.6121 Y-4.2863 E361.03012 
; 
; feature travel
PRIO_OFF
G0 X1.10861 Y-4.2863 ;Travel
; 
; feature fill
PRIO_ON
G1 X5.1061 Y4.2863 E379.57683 
; 
; feature travel
PRIO_OFF
G0 X5.60259 Y4.2863 ;Travel
; 
; feature fill
PRIO_ON
G1 X1.6051 Y-4.2863 E398.12353 
; 
; feature travel
PRIO_OFF
G0 X2.10165 Y-4.2863 ;Travel
; 
; feature fill
PRIO_ON
G1 X6.0991 Y4.2863 E416.67023 
; 
; feature travel
PRIO_OFF
G0 X6.59563 Y4.2863 ;Travel
; 
; feature fill
PRIO_ON
G1 X2.5982 Y-4.2863 E435.21693 
; 
; feature travel
PRIO_OFF
G0 X3.09469 Y-4.2863 ;Travel
; 
; feature fill
PRIO_ON
G1 X7.0922 Y4.2863 E453.76363 
; 
; feature travel
PRIO_OFF
G0 X7.58867 Y4.2863 ;Travel
; 
; feature fill
PRIO_ON
G1 X3.5912 Y-4.2863 E472.31033 
; 
; feature travel
PRIO_OFF
G0 X4.08773 Y-4.2863 ;Travel
; 
; feature fill
PRIO_ON
G1 X8.0852 Y4.2863 E490.85703 
; 
; feature travel
PRIO_OFF
G0 X8.58171 Y4.2863 ;Travel
; 
; feature fill
PRIO_ON
G1 X4.5842 Y-4.2863 E509.40373 
; 
; feature travel
PRIO_OFF
G0 X5.08077 Y-4.2863 ;Travel
; 
; feature fill
PRIO_ON
G1 X9.0782 Y4.2863 E527.95043 
; 
; feature travel
PRIO_OFF
G0 X9.57475 Y4.2863 ;Travel
; 
; feature fill
PRIO_ON
G1 X5.5773 Y-4.2863 E546.49714 
; 
; feature travel
PRIO_OFF
G0 X6.07381 Y-4.2863 ;Travel
; 
; feature fill
PRIO_ON
G1 X10.0713 Y4.2863 E565.04384 
; 
; feature travel
PRIO_OFF
G0 X10.56779 Y4.2863 ;Travel
; 
; feature fill
PRIO_ON
G1 X6.5703 Y-4.2863 E583.59054 
; 
; feature travel
PRIO_OFF
G0 X7.06685 Y-4.2863 ;Travel
; 
; feature fill
PRIO_ON
G1 X11.0643 Y4.2863 E602.13724 
; 
; feature travel
PRIO_OFF
G0 X11.56083 Y4.2863 ;Travel
; 
; feature fill
PRIO_ON
G1 X7.5634 Y-4.2863 E620.68394 
; 
; feature travel
PRIO_OFF
G0 X8.05989 Y-4.2863 ;Travel
; 
; feature fill
PRIO_ON
G1 X12.0573 Y4.2863 E639.23064 
; 
; feature travel
PRIO_OFF
G0 X12.55387 Y4.2863 ;Travel
; 
; feature fill
PRIO_ON
G1 X8.5564 Y-4.2863 E657.77734 
; 
; feature travel
PRIO_OFF
G0 X9.05293 Y-4.2863 ;Travel
; 
; feature fill
PRIO_ON
G1 X13.0504 Y4.2863 E676.32404 
; 
; feature travel
PRIO_OFF
G0 X13.54692 Y4.2863 ;Travel
; 
; feature fill
PRIO_ON
G1 X9.5495 Y-4.2863 E694.87074 
; 
; feature travel
PRIO_OFF
G0 X10.04597 Y-4.2863 ;Travel
; 
; feature fill
PRIO_ON
G1 X14.0434 Y4.2863 E713.41744 
; 
; feature travel
PRIO_OFF
G0 X14.53996 Y4.2863 ;Travel
; 
; feature fill
PRIO_ON
G1 X10.5425 Y-4.2863 E731.96415 
; 
; feature travel
PRIO_OFF
G0 X11.03901 Y-4.2863 ;Travel
; 
; feature fill
PRIO_ON
G1 X15.0365 Y4.2863 E750.51085 
; 
; feature travel
PRIO_OFF
G0 X15.533 Y4.2863 ;Travel
; 
; feature fill
PRIO_ON
G1 X11.5355 Y-4.2863 E769.05755 
; 
; feature travel
PRIO_OFF
G0 X12.03205 Y-4.2863 ;Travel
; 
; feature fill
PRIO_ON
G1 X16.0295 Y4.2863 E787.60425 
; 
; feature travel
PRIO_OFF
G0 X16.52604 Y4.2863 ;Travel
; 
; feature fill
PRIO_ON
G1 X12.5286 Y-4.2863 E806.15095 
; 
; feature travel
PRIO_OFF
G0 X13.02509 Y-4.2863 ;Travel
; 
; feature fill
PRIO_ON
G1 X17.0226 Y4.2863 E824.69765 
; 
; feature travel
PRIO_OFF
G0 X17.51908 Y4.2863 ;Travel
; 
; feature fill
PRIO_ON
G1 X13.5216 Y-4.2863 E843.24435 
; 
; feature travel
PRIO_OFF
G0 X14.01813 Y-4.2863 ;Travel
; 
; feature fill
PRIO_ON
G1 X18.0156 Y4.2863 E861.79105 
; 
; feature travel
PRIO_OFF
G0 X18.51212 Y4.2863 ;Travel
; 
; feature fill
PRIO_ON
G1 X14.5146 Y-4.2863 E880.33775 
; 
; feature travel
PRIO_OFF
G0 X15.01117 Y-4.2863 ;Travel
; 
; feature fill
PRIO_ON
G1 X19.0086 Y4.2863 E898.88446 
; 
; feature travel
PRIO_OFF
G0 X19.50516 Y4.2863 ;Travel
; 
; feature fill
PRIO_ON
G1 X15.5077 Y-4.2863 E917.43116 
; 
; feature travel
PRIO_OFF
G0 X16.00421 Y-4.2863 ;Travel
; 
; feature fill
PRIO_ON
G1 X20.0017 Y4.2863 E935.97786 
; 
; feature travel
PRIO_OFF
G0 X20.4982 Y4.2863 ;Travel
; 
; feature fill
PRIO_ON
G1 X16.5007 Y-4.2863 E954.52456 
; 
; feature travel
PRIO_OFF
G0 X16.99725 Y-4.2863 ;Travel
; 
; feature fill
PRIO_ON
G1 X20.9947 Y4.2863 E973.07126 
; 
; feature travel
PRIO_OFF
G0 X21.49124 Y4.2863 ;Travel
; 
; feature fill
PRIO_ON
G1 X17.4938 Y-4.2863 E991.61796 
; 
; feature travel
PRIO_OFF
G0 X17.99029 Y-4.2863 ;Travel
; 
; feature fill
PRIO_ON
G1 X21.9878 Y4.2863 E1010.16466 
; 
; feature travel
PRIO_OFF
G0 X22.48428 Y4.2863 ;Travel
; 
; feature fill
PRIO_ON
G1 X18.4868 Y-4.2863 E1028.71136 
; 
; feature travel
PRIO_OFF
G0 X18.98333 Y-4.2863 ;Travel
; 
; feature fill
PRIO_ON
G1 X22.9808 Y4.2863 E1047.25806 
; 
; feature travel
PRIO_OFF
G0 X23.47732 Y4.2863 ;Travel
; 
; feature fill
PRIO_ON
G1 X19.4798 Y-4.2863 E1065.80477 
; 
; feature travel
PRIO_OFF
G0 X19.97637 Y-4.2863 ;Travel
; 
; feature fill
PRIO_ON
G1 X23.9738 Y4.2863 E1084.35147 
; 
; feature travel
PRIO_OFF
G0 X24.47036 Y4.2863 ;Travel
; 
; feature fill
PRIO_ON
G1 X20.4729 Y-4.2863 E1102.89817 
; 
; feature travel
PRIO_OFF
G0 X20.96941 Y-4.2863 ;Travel
; 
; feature fill
PRIO_ON
G1 X24.4947 Y3.2737 E1119.25415 
; 
; feature travel
PRIO_OFF
G0 X24.4947 Y2.20892 ;Travel
; 
; feature fill
PRIO_ON
G1 X21.4659 Y-4.2863 E1133.30648 
; 
; feature travel
PRIO_OFF
G0 X21.96245 Y-4.2863 ;Travel
; 
; feature fill
PRIO_ON
G1 X24.4947 Y1.1441 E1145.05514 
; 
; feature travel
PRIO_OFF
G0 X24.4947 Y0.07934 ;Travel
; 
; feature fill
PRIO_ON
G1 X22.4590 Y-4.2863 E1154.50015 
; 
; feature travel
PRIO_OFF
G0 X22.95549 Y-4.2863 ;Travel
; 
; feature fill
PRIO_ON
G1 X24.4947 Y-0.9855 E1161.64150 
; 
; feature travel
PRIO_OFF
G0 X24.4947 Y-2.05024 ;Travel
; 
; feature fill
PRIO_ON
G1 X23.4520 Y-4.2863 E1166.47918 
; 
; feature travel
PRIO_OFF
G0 X23.94853 Y-4.2863 ;Travel
; 
; feature fill
PRIO_ON
G1 X24.4947 Y-3.1150 E1169.01321 
; 
; feature travel
PRIO_OFF
G0 X24.4947 Y-4.17982 ;Travel
; 
; feature fill
PRIO_ON
G1 X24.4450 Y-4.2863 E1169.24357 
; 
; feature travel
PRIO_OFF
G0 X-11.27909 Y4.2863 ;Travel
; 
; feature fill
PRIO_ON
G1 X-15.2766 Y-4.2863 E1187.79027 
; 
; feature travel
PRIO_OFF
G0 X-15.77308 Y-4.2863 ;Travel
; 
; feature fill
PRIO_ON
G1 X-11.7756 Y4.2863 E1206.33698 
; 
; feature travel
PRIO_OFF
G0 X-12.27213 Y4.2863 ;Travel
; 
; feature fill
PRIO_ON
G1 X-16.2696 Y-4.2863 E1224.88368 
; 
; feature travel
PRIO_OFF
G0 X-16.76612 Y-4.2863 ;Travel
; 
; feature fill
PRIO_ON
G1 X-12.7686 Y4.2863 E1243.43038 
; 
; feature travel
PRIO_OFF
G0 X-13.26517 Y4.2863 ;Travel
; 
; feature fill
PRIO_ON
G1 X-17.2626 Y-4.2863 E1261.97708 
; 
; feature travel
PRIO_OFF
G0 X-17.75916 Y-4.2863 ;Travel
; 
; feature fill
PRIO_ON
G1 X-13.7617 Y4.2863 E1280.52378 
; 
; feature travel
PRIO_OFF
G0 X-14.25821 Y4.2863 ;Travel
; 
; feature fill
PRIO_ON
G1 X-18.2557 Y-4.2863 E1299.07048 
; 
; feature travel
PRIO_OFF
G0 X-18.7522 Y-4.2863 ;Travel
; 
; feature fill
PRIO_ON
G1 X-14.7547 Y4.2863 E1317.61718 
; 
; feature travel
PRIO_OFF
G0 X-15.25125 Y4.2863 ;Travel
; 
; feature fill
PRIO_ON
G1 X-19.2487 Y-4.2863 E1336.16388 
; 
; feature travel
PRIO_OFF
G0 X-19.74524 Y-4.2863 ;Travel
; 
; feature fill
PRIO_ON
G1 X-15.7478 Y4.2863 E1354.71058 
; 
; feature travel
PRIO_OFF
G0 X-16.24429 Y4.2863 ;Travel
; 
; feature fill
PRIO_ON
G1 X-20.2418 Y-4.2863 E1373.25728 
; 
; feature travel
PRIO_OFF
G0 X-20.73828 Y-4.2863 ;Travel
; 
; feature fill
PRIO_ON
G1 X-16.7408 Y4.2863 E1391.80399 
; 
; feature travel
PRIO_OFF
G0 X-17.23733 Y4.2863 ;Travel
; 
; feature fill
PRIO_ON
G1 X-21.2348 Y-4.2863 E1410.35069 
; 
; feature travel
PRIO_OFF
G0 X-21.73132 Y-4.2863 ;Travel
; 
; feature fill
PRIO_ON
G1 X-17.7339 Y4.2863 E1428.89739 
; 
; feature travel
PRIO_OFF
G0 X-18.23037 Y4.2863 ;Travel
; 
; feature fill
PRIO_ON
G1 X-22.2278 Y-4.2863 E1447.44409 
; 
; feature travel
PRIO_OFF
G0 X-22.72436 Y-4.2863 ;Travel
; 
; feature fill
PRIO_ON
G1 X-18.7269 Y4.2863 E1465.99079 
; 
; feature travel
PRIO_OFF
G0 X-19.22341 Y4.2863 ;Travel
; 
; feature fill
PRIO_ON
G1 X-23.2209 Y-4.2863 E1484.53749 
; 
; feature travel
PRIO_OFF
G0 X-23.7174 Y-4.2863 ;Travel
; 
; feature fill
PRIO_ON
G1 X-19.7199 Y4.2863 E1503.08419 
; 
; feature travel
PRIO_OFF
G0 X-20.21645 Y4.2863 ;Travel
; 
; feature fill
PRIO_ON
G1 X-24.2139 Y-4.2863 E1521.63089 
; 
; feature travel
PRIO_OFF
G0 X-24.4947 Y-3.82365 ;Travel
; 
; feature fill
PRIO_ON
G1 X-20.7130 Y4.2863 E1539.17665 
; 
; feature travel
PRIO_OFF
G0 X-21.20949 Y4.2863 ;Travel
; 
; feature fill
PRIO_ON
G1 X-24.4947 Y-2.7589 E1554.41875 
; 
; feature travel
PRIO_OFF
G0 X-24.4947 Y-1.69407 ;Travel
; 
; feature fill
PRIO_ON
G1 X-21.7060 Y4.2863 E1567.35719 
; 
; feature travel
PRIO_OFF
G0 X-22.20253 Y4.2863 ;Travel
; 
; feature fill
PRIO_ON
G1 X-24.4947 Y-0.6293 E1577.99197 
; 
; feature travel
PRIO_OFF
G0 X-24.4947 Y0.43552 ;Travel
; 
; feature fill
PRIO_ON
G1 X-22.6990 Y4.2863 E1586.32309 
; 
; feature travel
PRIO_OFF
G0 X-23.19557 Y4.2863 ;Travel
; 
; feature fill
PRIO_ON
G1 X-24.4947 Y1.5003 E1592.35055 
; 
; feature travel
PRIO_OFF
G0 X-24.4947 Y2.5651 ;Travel
; 
; feature fill
PRIO_ON
G1 X-23.6921 Y4.2863 E1596.07435 
; 
; feature travel
PRIO_OFF
G0 X-24.18861 Y4.2863 ;Travel
; 
; feature fill
PRIO_ON
G1 X-24.4947 Y3.6299 E1597.49449 
PRIO_OFF
LayersCompleted=6
M1
; 
;========================
; layer 6, Z = 1.6800
; 
; reset extrusion
STOPRE
PRESETON(E, 0)
DO PRIO_PULSE_DISTANCE=DROP_SCALE
DO PRIO_ON_PATH_OFFSET=0.5*PRIO_PULSE_DISTANCE
;outer: (25.2604,-5.0521) (25.2604,5.0521) (-25.2604,5.0521) (-25.2604,-5.0521) (17.4604,-5.0521) holes: !
;overhangs:!
; 
; feature plane change
G0 X-24.4947 Y3.62989 Z1.68 ;Plane Change
; 
; feature travel
G0 X-17.19231 Y4.637 ;Travel
; 
; feature outer perimeter
G1 F24000 FL[E] = OuterPerimeterFrequency * DROP_SCALE * 60
PRIO_ON
G1 X-24.8453 Y4.6370 E-705.12684 
G1 X-24.8453 Y-4.6370 E-683.30566 
G1 X24.8453 Y-4.6370 E-566.38660 
G1 X24.8453 Y4.6370 E-544.56542 
G1 X-17.1923 Y4.6370 E-445.65340 
; 
; feature travel
PRIO_OFF
G0 X-17.19231 Y4.286 ;Travel
; 
; feature inner perimeter
G1 F24000 FL[E] = InnerPerimeterFrequency * DROP_SCALE * 60
PRIO_ON
G1 X24.4943 Y4.2860 E-368.45597 
G1 X24.4943 Y-4.2860 E-352.58190 
G1 X-24.4943 Y-4.2860 E-261.86227 
G1 X-24.4943 Y4.2860 E-245.98820 
G1 X-17.1923 Y4.2860 E-232.46599 
; 
; feature travel
PRIO_OFF
G0 X-17.21585 Y4.2863 ;Travel
; 
; feature fill
G1 F24000 FL[E] = FillFrequency * DROP_SCALE * 60
PRIO_ON
G1 X-14.0957 Y-4.2863 E-214.57821 
; 
; feature travel
PRIO_OFF
G0 X-14.57456 Y-4.2863 ;Travel
; 
; feature fill
PRIO_ON
G1 X-17.6947 Y4.2863 E-196.69042 
; 
; feature travel
PRIO_OFF
G0 X-18.17361 Y4.2863 ;Travel
; 
; feature fill
PRIO_ON
G1 X-15.0534 Y-4.2863 E-178.80264 
; 
; feature travel
PRIO_OFF
G0 X-15.53232 Y-4.2863 ;Travel
; 
; feature fill
PRIO_ON
G1 X-18.6525 Y4.2863 E-160.91485 
; 
; feature travel
PRIO_OFF
G0 X-19.13137 Y4.2863 ;Travel
; 
; feature fill
PRIO_ON
G1 X-16.0112 Y-4.2863 E-143.02707 
; 
; feature travel
PRIO_OFF
G0 X-16.49008 Y-4.2863 ;Travel
; 
; feature fill
PRIO_ON
G1 X-19.6103 Y4.2863 E-125.13928 
; 
; feature travel
PRIO_OFF
G0 X-20.08913 Y4.2863 ;Travel
; 
; feature fill
PRIO_ON
G1 X-16.9690 Y-4.2863 E-107.25150 
; 
; feature travel
PRIO_OFF
G0 X-17.44784 Y-4.2863 ;Travel
; 
; feature fill
PRIO_ON
G1 X-20.5680 Y4.2863 E-89.36371 
; 
; feature travel
PRIO_OFF
G0 X-21.04689 Y4.2863 ;Travel
; 
; feature fill
PRIO_ON
G1 X-17.9267 Y-4.2863 E-71.47593 
; 
; feature travel
PRIO_OFF
G0 X-18.4056 Y-4.2863 ;Travel
; 
; feature fill
PRIO_ON
G1 X-21.5258 Y4.2863 E-53.58814 
; 
; feature travel
PRIO_OFF
G0 X-22.00465 Y4.2863 ;Travel
; 
; feature fill
PRIO_ON
G1 X-18.8845 Y-4.2863 E-35.70036 
; 
; feature travel
PRIO_OFF
G0 X-19.36336 Y-4.2863 ;Travel
; 
; feature fill
PRIO_ON
G1 X-22.4835 Y4.2863 E-17.81257 
; 
; feature travel
PRIO_OFF
G0 X-22.96241 Y4.2863 ;Travel
; 
; feature fill
PRIO_ON
G1 X-19.8422 Y-4.2863 E0.07521 
; 
; feature travel
PRIO_OFF
G0 X-20.32112 Y-4.2863 ;Travel
; 
; feature fill
PRIO_ON
G1 X-23.4413 Y4.2863 E17.96300 
; 
; feature travel
PRIO_OFF
G0 X-23.92017 Y4.2863 ;Travel
; 
; feature fill
PRIO_ON
G1 X-20.8000 Y-4.2863 E35.85078 
; 
; feature travel
PRIO_OFF
G0 X-21.27888 Y-4.2863 ;Travel
; 
; feature fill
PRIO_ON
G1 X-24.3990 Y4.2863 E53.73857 
; 
; feature travel
PRIO_OFF
G0 X-24.4946 Y3.23312 ;Travel
; 
; feature fill
PRIO_ON
G1 X-21.7578 Y-4.2863 E69.42875 
; 
; feature travel
PRIO_OFF
G0 X-22.23664 Y-4.2863 ;Travel
; 
; feature fill
PRIO_ON
G1 X-24.4946 Y1.9174 E82.37355 
; 
; feature travel
PRIO_OFF
G0 X-24.4946 Y0.60169 ;Travel
; 
; feature fill
PRIO_ON
G1 X-22.7155 Y-4.2863 E92.57294 
; 
; feature travel
PRIO_OFF
G0 X-23.1944 Y-4.2863 ;Travel
; 
; feature fill
PRIO_ON
G1 X-24.4946 Y-0.7140 E100.02694 
; 
; feature travel
PRIO_OFF
G0 X-24.4946 Y-2.02973 ;Travel
; 
; feature fill
PRIO_ON
G1 X-23.6733 Y-4.2863 E104.73555 
; 
; feature travel
PRIO_OFF
G0 X-24.15216 Y-4.2863 ;Travel
; 
; feature fill
PRIO_ON
G1 X-24.4946 Y-3.3454 E106.69876 
; 
; feature travel
PRIO_OFF
G0 X-16.73697 Y4.2863 ;Travel
; 
; feature fill
PRIO_ON
G1 X-13.6168 Y-4.2863 E124.58655 
; 
; feature travel
PRIO_OFF
G0 X-13.13792 Y-4.2863 ;Travel
; 
; feature fill
PRIO_ON
G1 X-16.2581 Y4.2863 E142.47433 
; 
; feature travel
PRIO_OFF
G0 X-15.77921 Y4.2863 ;Travel
; 
; feature fill
PRIO_ON
G1 X-12.6590 Y-4.2863 E160.36212 
; 
; feature travel
PRIO_OFF
G0 X-12.18016 Y-4.2863 ;Travel
; 
; feature fill
PRIO_ON
G1 X-15.3003 Y4.2863 E178.24990 
; 
; feature travel
PRIO_OFF
G0 X-14.82145 Y4.2863 ;Travel
; 
; feature fill
PRIO_ON
G1 X-11.7013 Y-4.2863 E196.13769 
; 
; feature travel
PRIO_OFF
G0 X-11.2224 Y-4.2863 ;Travel
; 
; feature fill
PRIO_ON
G1 X-14.3426 Y4.2863 E214.02547 
; 
; feature travel
PRIO_OFF
G0 X-13.86369 Y4.2863 ;Travel
; 
; feature fill
PRIO_ON
G1 X-10.7435 Y-4.2863 E231.91326 
; 
; feature travel
PRIO_OFF
G0 X-10.26464 Y-4.2863 ;Travel
; 
; feature fill
PRIO_ON
G1 X-13.3848 Y4.2863 E249.80104 
; 
; feature travel
PRIO_OFF
G0 X-12.90593 Y4.2863 ;Travel
; 
; feature fill
PRIO_ON
G1 X-9.7858 Y-4.2863 E267.68883 
; 
; feature travel
PRIO_OFF
G0 X-9.30688 Y-4.2863 ;Travel
; 
; feature fill
PRIO_ON
G1 X-12.4270 Y4.2863 E285.57661 
; 
; feature travel
PRIO_OFF
G0 X-11.94817 Y4.2863 ;Travel
; 
; feature fill
PRIO_ON
G1 X-8.8280 Y-4.2863 E303.46440 
; 
; feature travel
PRIO_OFF
G0 X-8.34912 Y-4.2863 ;Travel
; 
; feature fill
PRIO_ON
G1 X-11.4693 Y4.2863 E321.35218 
; 
; feature travel
PRIO_OFF
G0 X-10.99041 Y4.2863 ;Travel
; 
; feature fill
PRIO_ON
G1 X-7.8702 Y-4.2863 E339.23997 
; 
; feature travel
PRIO_OFF
G0 X-7.39136 Y-4.2863 ;Travel
; 
; feature fill
PRIO_ON
G1 X-10.5115 Y4.2863 E357.12775 
; 
; feature travel
PRIO_OFF
G0 X-10.03265 Y4.2863 ;Travel
; 
; feature fill
PRIO_ON
G1 X-6.9125 Y-4.2863 E375.01554 
; 
; feature travel
PRIO_OFF
G0 X-6.4336 Y-4.2863 ;Travel
; 
; feature fill
PRIO_ON
G1 X-9.5538 Y4.2863 E392.90332 
; 
; feature travel
PRIO_OFF
G0 X-9.07489 Y4.2863 ;Travel
; 
; feature fill
PRIO_ON
G1 X-5.9547 Y-4.2863 E410.79111 
; 
; feature travel
PRIO_OFF
G0 X-5.47584 Y-4.2863 ;Travel
; 
; feature fill
PRIO_ON
G1 X-8.5960 Y4.2863 E428.67889 
; 
; feature travel
PRIO_OFF
G0 X-8.11713 Y4.2863 ;Travel
; 
; feature fill
PRIO_ON
G1 X-4.9970 Y-4.2863 E446.56668 
; 
; feature travel
PRIO_OFF
G0 X-4.51808 Y-4.2863 ;Travel
; 
; feature fill
PRIO_ON
G1 X-7.6383 Y4.2863 E464.45446 
; 
; feature travel
PRIO_OFF
G0 X-7.15937 Y4.2863 ;Travel
; 
; feature fill
PRIO_ON
G1 X-4.0392 Y-4.2863 E482.34225 
; 
; feature travel
PRIO_OFF
G0 X-3.56032 Y-4.2863 ;Travel
; 
; feature fill
PRIO_ON
G1 X-6.6805 Y4.2863 E500.23003 
; 
; feature travel
PRIO_OFF
G0 X-6.20161 Y4.2863 ;Travel
; 
; feature fill
PRIO_ON
G1 X-3.0814 Y-4.2863 E518.11782 
; 
; feature travel
PRIO_OFF
G0 X-2.60256 Y-4.2863 ;Travel
; 
; feature fill
PRIO_ON
G1 X-5.7227 Y4.2863 E536.00560 
; 
; feature travel
PRIO_OFF
G0 X-5.24385 Y4.2863 ;Travel
; 
; feature fill
PRIO_ON
G1 X-2.1237 Y-4.2863 E553.89339 
; 
; feature travel
PRIO_OFF
G0 X-1.6448 Y-4.2863 ;Travel
; 
; feature fill
PRIO_ON
G1 X-4.7650 Y4.2863 E571.78117 
; 
; feature travel
PRIO_OFF
G0 X-4.28609 Y4.2863 ;Travel
; 
; feature fill
PRIO_ON
G1 X-1.1659 Y-4.2863 E589.66896 
; 
; feature travel
PRIO_OFF
G0 X-0.68704 Y-4.2863 ;Travel
; 
; feature fill
PRIO_ON
G1 X-3.8072 Y4.2863 E607.55674 
; 
; feature travel
PRIO_OFF
G0 X-3.32833 Y4.2863 ;Travel
; 
; feature fill
PRIO_ON
G1 X-0.2082 Y-4.2863 E625.44453 
; 
; feature travel
PRIO_OFF
G0 X0.27072 Y-4.2863 ;Travel
; 
; feature fill
PRIO_ON
G1 X0.0000 Y-3.5425 E626.22055 ; => originalEInc=1.55202 adjustedEInc=0.77601 density=0.5
G1 X-2.8495 Y4.2863 E642.55630 
; 
; feature travel
PRIO_OFF
G0 X-2.37057 Y4.2863 ;Travel
; 
; feature fill
PRIO_ON
G1 X0.0000 Y-2.2268 E656.14667 
G1 X0.7496 Y-4.2863 E658.29538 ; => originalEInc=4.29742 adjustedEInc=2.14871 density=0.5
; 
; feature travel
PRIO_OFF
G0 X1.22848 Y-4.2863 ;Travel
; 
; feature fill
PRIO_ON
G1 X0.0000 Y-0.9111 E661.81679 ; => originalEInc=7.04281 adjustedEInc=3.52141 density=0.5
G1 X-1.8917 Y4.2863 E672.66175 
; 
; feature travel
PRIO_OFF
G0 X-1.41281 Y4.2863 ;Travel
; 
; feature fill
PRIO_ON
G1 X0.0000 Y0.4046 E680.76133 
G1 X1.7074 Y-4.2863 E685.65544 ; => originalEInc=9.78822 adjustedEInc=4.89411 density=0.5
; 
; feature travel
PRIO_OFF
G0 X2.18624 Y-4.2863 ;Travel
; 
; feature fill
PRIO_ON
G1 X0.0000 Y1.7203 E691.92224 ; => originalEInc=12.53361 adjustedEInc=6.26680 density=0.5
G1 X-0.9339 Y4.2863 E697.27641 
; 
; feature travel
PRIO_OFF
G0 X-0.45505 Y4.2863 ;Travel
; 
; feature fill
PRIO_ON
G1 X0.0000 Y3.0361 E699.88519 
G1 X2.6651 Y-4.2863 E707.52470 ; => originalEInc=15.27901 adjustedEInc=7.63950 density=0.5
; 
; feature travel
PRIO_OFF
G0 X3.144 Y-4.2863 ;Travel
; 
; feature fill
PRIO_ON
G1 X0.0238 Y4.2863 E725.41248 
; 
; feature travel
PRIO_OFF
G0 X0.50271 Y4.2863 ;Travel
; 
; feature fill
PRIO_ON
G1 X3.6229 Y-4.2863 E743.30027 
; 
; feature travel
PRIO_OFF
G0 X4.10176 Y-4.2863 ;Travel
; 
; feature fill
PRIO_ON
G1 X0.9816 Y4.2863 E761.18805 
; 
; feature travel
PRIO_OFF
G0 X1.46047 Y4.2863 ;Travel
; 
; feature fill
PRIO_ON
G1 X4.5806 Y-4.2863 E779.07584 
; 
; feature travel
PRIO_OFF
G0 X5.05952 Y-4.2863 ;Travel
; 
; feature fill
PRIO_ON
G1 X1.9393 Y4.2863 E796.96362 
; 
; feature travel
PRIO_OFF
G0 X2.41823 Y4.2863 ;Travel
; 
; feature fill
PRIO_ON
G1 X5.5384 Y-4.2863 E814.85141 
; 
; feature travel
PRIO_OFF
G0 X6.01728 Y-4.2863 ;Travel
; 
; feature fill
PRIO_ON
G1 X2.8971 Y4.2863 E832.73919 
; 
; feature travel
PRIO_OFF
G0 X3.37599 Y4.2863 ;Travel
; 
; feature fill
PRIO_ON
G1 X6.4962 Y-4.2863 E850.62698 
; 
; feature travel
PRIO_OFF
G0 X6.97504 Y-4.2863 ;Travel
; 
; feature fill
PRIO_ON
G1 X3.8549 Y4.2863 E868.51476 
; 
; feature travel
PRIO_OFF
G0 X4.33375 Y4.2863 ;Travel
; 
; feature fill
PRIO_ON
G1 X7.4539 Y-4.2863 E886.40255 
; 
; feature travel
PRIO_OFF
G0 X7.9328 Y-4.2863 ;Travel
; 
; feature fill
PRIO_ON
G1 X4.8126 Y4.2863 E904.29033 
; 
; feature travel
PRIO_OFF
G0 X5.29151 Y4.2863 ;Travel
; 
; feature fill
PRIO_ON
G1 X8.4117 Y-4.2863 E922.17812 
; 
; feature travel
PRIO_OFF
G0 X8.89056 Y-4.2863 ;Travel
; 
; feature fill
PRIO_ON
G1 X5.7704 Y4.2863 E940.06590 
; 
; feature travel
PRIO_OFF
G0 X6.24927 Y4.2863 ;Travel
; 
; feature fill
PRIO_ON
G1 X9.3694 Y-4.2863 E957.95369 
; 
; feature travel
PRIO_OFF
G0 X9.84832 Y-4.2863 ;Travel
; 
; feature fill
PRIO_ON
G1 X6.7282 Y4.2863 E975.84147 
; 
; feature travel
PRIO_OFF
G0 X7.20703 Y4.2863 ;Travel
; 
; feature fill
PRIO_ON
G1 X10.3272 Y-4.2863 E993.72926 
; 
; feature travel
PRIO_OFF
G0 X10.80608 Y-4.2863 ;Travel
; 
; feature fill
PRIO_ON
G1 X7.6859 Y4.2863 E1011.61704 
; 
; feature travel
PRIO_OFF
G0 X8.16479 Y4.2863 ;Travel
; 
; feature fill
PRIO_ON
G1 X11.2850 Y-4.2863 E1029.50483 
; 
; feature travel
PRIO_OFF
G0 X11.76384 Y-4.2863 ;Travel
; 
; feature fill
PRIO_ON
G1 X8.6437 Y4.2863 E1047.39261 
; 
; feature travel
PRIO_OFF
G0 X9.12255 Y4.2863 ;Travel
; 
; feature fill
PRIO_ON
G1 X12.2427 Y-4.2863 E1065.28040 
; 
; feature travel
PRIO_OFF
G0 X12.7216 Y-4.2863 ;Travel
; 
; feature fill
PRIO_ON
G1 X9.6014 Y4.2863 E1083.16818 
; 
; feature travel
PRIO_OFF
G0 X10.08031 Y4.2863 ;Travel
; 
; feature fill
PRIO_ON
G1 X13.2005 Y-4.2863 E1101.05597 
; 
; feature travel
PRIO_OFF
G0 X13.67936 Y-4.2863 ;Travel
; 
; feature fill
PRIO_ON
G1 X10.5592 Y4.2863 E1118.94375 
; 
; feature travel
PRIO_OFF
G0 X11.03807 Y4.2863 ;Travel
; 
; feature fill
PRIO_ON
G1 X14.1582 Y-4.2863 E1136.83154 
; 
; feature travel
PRIO_OFF
G0 X14.63712 Y-4.2863 ;Travel
; 
; feature fill
PRIO_ON
G1 X11.5169 Y4.2863 E1154.71932 
; 
; feature travel
PRIO_OFF
G0 X11.99583 Y4.2863 ;Travel
; 
; feature fill
PRIO_ON
G1 X15.1160 Y-4.2863 E1172.60711 
; 
; feature travel
PRIO_OFF
G0 X15.59488 Y-4.2863 ;Travel
; 
; feature fill
PRIO_ON
G1 X12.4747 Y4.2863 E1190.49489 
; 
; feature travel
PRIO_OFF
G0 X12.95359 Y4.2863 ;Travel
; 
; feature fill
PRIO_ON
G1 X16.0738 Y-4.2863 E1208.38268 
; 
; feature travel
PRIO_OFF
G0 X16.55264 Y-4.2863 ;Travel
; 
; feature fill
PRIO_ON
G1 X13.4325 Y4.2863 E1226.27046 
; 
; feature travel
PRIO_OFF
G0 X13.91135 Y4.2863 ;Travel
; 
; feature fill
PRIO_ON
G1 X17.0315 Y-4.2863 E1244.15825 
; 
; feature travel
PRIO_OFF
G0 X17.5104 Y-4.2863 ;Travel
; 
; feature fill
PRIO_ON
G1 X14.3902 Y4.2863 E1262.04603 
; 
; feature travel
PRIO_OFF
G0 X14.86911 Y4.2863 ;Travel
; 
; feature fill
PRIO_ON
G1 X17.9893 Y-4.2863 E1279.93382 
; 
; feature travel
PRIO_OFF
G0 X18.46816 Y-4.2863 ;Travel
; 
; feature fill
PRIO_ON
G1 X15.3480 Y4.2863 E1297.82160 
; 
; feature travel
PRIO_OFF
G0 X15.82687 Y4.2863 ;Travel
; 
; feature fill
PRIO_ON
G1 X18.9470 Y-4.2863 E1315.70939 
; 
; feature travel
PRIO_OFF
G0 X19.42592 Y-4.2863 ;Travel
; 
; feature fill
PRIO_ON
G1 X16.3057 Y4.2863 E1333.59717 
; 
; feature travel
PRIO_OFF
G0 X16.78463 Y4.2863 ;Travel
; 
; feature fill
PRIO_ON
G1 X19.9048 Y-4.2863 E1351.48496 
; 
; feature travel
PRIO_OFF
G0 X20.38368 Y-4.2863 ;Travel
; 
; feature fill
PRIO_ON
G1 X17.2635 Y4.2863 E1369.37274 
; 
; feature travel
PRIO_OFF
G0 X17.74239 Y4.2863 ;Travel
; 
; feature fill
PRIO_ON
G1 X20.8626 Y-4.2863 E1387.26053 
; 
; feature travel
PRIO_OFF
G0 X21.34144 Y-4.2863 ;Travel
; 
; feature fill
PRIO_ON
G1 X18.2213 Y4.2863 E1405.14831 
; 
; feature travel
PRIO_OFF
G0 X18.70015 Y4.2863 ;Travel
; 
; feature fill
PRIO_ON
G1 X21.8203 Y-4.2863 E1423.03610 
; 
; feature travel
PRIO_OFF
G0 X22.2992 Y-4.2863 ;Travel
; 
; feature fill
PRIO_ON
G1 X19.1790 Y4.2863 E1440.92388 
; 
; feature travel
PRIO_OFF
G0 X19.65791 Y4.2863 ;Travel
; 
; feature fill
PRIO_ON
G1 X22.7781 Y-4.2863 E1458.81167 
; 
; feature travel
PRIO_OFF
G0 X23.25696 Y-4.2863 ;Travel
; 
; feature fill
PRIO_ON
G1 X20.1368 Y4.2863 E1476.69945 
; 
; feature travel
PRIO_OFF
G0 X20.61567 Y4.2863 ;Travel
; 
; feature fill
PRIO_ON
G1 X23.7358 Y-4.2863 E1494.58724 
; 
; feature travel
PRIO_OFF
G0 X24.21472 Y-4.2863 ;Travel
; 
; feature fill
PRIO_ON
G1 X21.0946 Y4.2863 E1512.47502 
; 
; feature travel
PRIO_OFF
G0 X21.57343 Y4.2863 ;Travel
; 
; feature fill
PRIO_ON
G1 X24.4946 Y-3.7395 E1529.22193 
; 
; feature travel
PRIO_OFF
G0 X24.4946 Y-2.42383 ;Travel
; 
; feature fill
PRIO_ON
G1 X22.0523 Y4.2863 E1543.22345 
; 
; feature travel
PRIO_OFF
G0 X22.53119 Y4.2863 ;Travel
; 
; feature fill
PRIO_ON
G1 X24.4946 Y-1.1081 E1554.47957 
; 
; feature travel
PRIO_OFF
G0 X24.4946 Y0.20759 ;Travel
; 
; feature fill
PRIO_ON
G1 X23.0101 Y4.2863 E1562.99029 
; 
; feature travel
PRIO_OFF
G0 X23.48895 Y4.2863 ;Travel
; 
; feature fill
PRIO_ON
G1 X24.4946 Y1.5233 E1568.75562 
; 
; feature travel
PRIO_OFF
G0 X24.4946 Y2.83902 ;Travel
; 
; feature fill
PRIO_ON
G1 X23.9678 Y4.2863 E1571.77556 
; 
; feature travel
PRIO_OFF
G0 X24.44671 Y4.2863 ;Travel
; 
; feature fill
PRIO_ON
G1 X24.4946 Y4.1547 E1572.05010 
PRIO_OFF
LayersCompleted=7
M1
; 
;========================
; layer 7, Z = 1.9200
; 
; reset extrusion
STOPRE
PRESETON(E, 0)
DO PRIO_PULSE_DISTANCE=DROP_SCALE
DO PRIO_ON_PATH_OFFSET=0.5*PRIO_PULSE_DISTANCE
;outer: (25.2604,-5.0521) (25.2604,5.0521) (-25.2604,5.0521) (-25.2604,-5.0521) (16.2604,-5.0521) holes: !
;overhangs:!
; 
; feature plane change
G0 X24.4946 Y4.15473 Z1.92 ;Plane Change
; 
; feature travel
G0 X-7.4324 Y-4.637 ;Travel
; 
; feature outer perimeter
G1 F24000 FL[E] = OuterPerimeterFrequency * DROP_SCALE * 60
PRIO_ON
G1 X-24.8454 Y-4.6370 E-707.40865 
G1 X-24.8454 Y4.6370 E-685.58748 
G1 X24.8454 Y4.6370 E-568.66795 
G1 X24.8454 Y-4.6370 E-546.84677 
G1 X-7.4324 Y-4.6370 E-470.89900 
; 
; feature travel
PRIO_OFF
G0 X-7.4324 Y-4.286 ;Travel
; 
; feature inner perimeter
G1 F24000 FL[E] = InnerPerimeterFrequency * DROP_SCALE * 60
PRIO_ON
G1 X24.4944 Y-4.2860 E-411.77529 
G1 X24.4944 Y4.2860 E-395.90122 
G1 X-24.4944 Y4.2860 E-305.18122 
G1 X-24.4944 Y-4.2860 E-289.30714 
G1 X-7.4324 Y-4.2860 E-257.71085 
; 
; feature travel
PRIO_OFF
G0 X-7.27294 Y-4.2863 ;Travel
; 
; feature fill
G1 F24000 FL[E] = FillFrequency * DROP_SCALE * 60
PRIO_ON
G1 X-24.4947 Y3.7443 E-220.45182 
; 
; feature travel
PRIO_OFF
G0 X-24.4947 Y3.24782 ;Travel
; 
; feature fill
PRIO_ON
G1 X-8.3377 Y-4.2863 E-185.49644 
; 
; feature travel
PRIO_OFF
G0 X-9.40252 Y-4.2863 ;Travel
; 
; feature fill
PRIO_ON
G1 X-24.4947 Y2.7513 E-152.84473 
; 
; feature travel
PRIO_OFF
G0 X-24.4947 Y2.25478 ;Travel
; 
; feature fill
PRIO_ON
G1 X-10.4673 Y-4.2863 E-122.49668 
; 
; feature travel
PRIO_OFF
G0 X-11.53211 Y-4.2863 ;Travel
; 
; feature fill
PRIO_ON
G1 X-24.4947 Y1.7583 E-94.45228 
; 
; feature travel
PRIO_OFF
G0 X-24.4947 Y1.26174 ;Travel
; 
; feature fill
PRIO_ON
G1 X-12.5969 Y-4.2863 E-68.71155 
; 
; feature travel
PRIO_OFF
G0 X-13.66169 Y-4.2863 ;Travel
; 
; feature fill
PRIO_ON
G1 X-24.4947 Y0.7652 E-45.27448 
; 
; feature travel
PRIO_OFF
G0 X-24.4947 Y0.2687 ;Travel
; 
; feature fill
PRIO_ON
G1 X-14.7265 Y-4.2863 E-24.14106 
; 
; feature travel
PRIO_OFF
G0 X-15.79127 Y-4.2863 ;Travel
; 
; feature fill
PRIO_ON
G1 X-24.4947 Y-0.2278 E-5.31131 
; 
; feature travel
PRIO_OFF
G0 X-24.4947 Y-0.72434 ;Travel
; 
; feature fill
PRIO_ON
G1 X-16.8561 Y-4.2863 E11.21479 
; 
; feature travel
PRIO_OFF
G0 X-17.92085 Y-4.2863 ;Travel
; 
; feature fill
PRIO_ON
G1 X-24.4947 Y-1.2209 E25.43722 
; 
; feature travel
PRIO_OFF
G0 X-24.4947 Y-1.71738 ;Travel
; 
; feature fill
PRIO_ON
G1 X-18.9856 Y-4.2863 E37.35599 
; 
; feature travel
PRIO_OFF
G0 X-20.05043 Y-4.2863 ;Travel
; 
; feature fill
PRIO_ON
G1 X-24.4947 Y-2.2139 E46.97111 
; 
; feature travel
PRIO_OFF
G0 X-24.4947 Y-2.71042 ;Travel
; 
; feature fill
PRIO_ON
G1 X-21.1152 Y-4.2863 E54.28256 
; 
; feature travel
PRIO_OFF
G0 X-22.18001 Y-4.2863 ;Travel
; 
; feature fill
PRIO_ON
G1 X-24.4947 Y-3.2069 E59.29036 
; 
; feature travel
PRIO_OFF
G0 X-24.4947 Y-3.70346 ;Travel
; 
; feature fill
PRIO_ON
G1 X-23.2448 Y-4.2863 E61.99449 
; 
; feature travel
PRIO_OFF
G0 X-24.30959 Y-4.2863 ;Travel
; 
; feature fill
PRIO_ON
G1 X-24.4947 Y-4.2000 E62.39496 
; 
; feature travel
PRIO_OFF
G0 X-24.4947 Y4.24086 ;Travel
; 
; feature fill
PRIO_ON
G1 X-6.2081 Y-4.2863 E101.95766 
; 
; feature travel
PRIO_OFF
G0 X-5.14336 Y-4.2863 ;Travel
; 
; feature fill
PRIO_ON
G1 X-23.5274 Y4.2863 E141.73119 
; 
; feature travel
PRIO_OFF
G0 X-22.46257 Y4.2863 ;Travel
; 
; feature fill
PRIO_ON
G1 X-4.0786 Y-4.2863 E181.50472 
; 
; feature travel
PRIO_OFF
G0 X-3.01378 Y-4.2863 ;Travel
; 
; feature fill
PRIO_ON
G1 X-21.3978 Y4.2863 E221.27824 
; 
; feature travel
PRIO_OFF
G0 X-20.33299 Y4.2863 ;Travel
; 
; feature fill
PRIO_ON
G1 X-1.9490 Y-4.2863 E261.05177 
; 
; feature travel
PRIO_OFF
G0 X-0.8842 Y-4.2863 ;Travel
; 
; feature fill
PRIO_ON
G1 X-19.2682 Y4.2863 E300.82530 
; 
; feature travel
PRIO_OFF
G0 X-18.20341 Y4.2863 ;Travel
; 
; feature fill
PRIO_ON
G1 X0.0000 Y-4.2021 E340.20812 
G1 X0.1806 Y-4.2863 E340.40348 ; => originalEInc=0.39070 adjustedEInc=0.19535 density=0.5
; 
; feature travel
PRIO_OFF
G0 X1.24538 Y-4.2863 ;Travel
; 
; feature fill
PRIO_ON
G1 X-0.0000 Y-3.7056 E341.75066 ; => originalEInc=2.69436 adjustedEInc=1.34718 density=0.5
G1 X-17.1386 Y4.2863 E378.82983 
; 
; feature travel
PRIO_OFF
G0 X-16.07383 Y4.2863 ;Travel
; 
; feature fill
PRIO_ON
G1 X0.0000 Y-3.2091 E413.60533 
G1 X2.3102 Y-4.2863 E416.10435 ; => originalEInc=4.99802 adjustedEInc=2.49901 density=0.5
; 
; feature travel
PRIO_OFF
G0 X3.37496 Y-4.2863 ;Travel
; 
; feature fill
PRIO_ON
G1 X0.0000 Y-2.7125 E419.75518 ; => originalEInc=7.30168 adjustedEInc=3.65084 density=0.5
G1 X-15.0090 Y4.2863 E452.22704 
; 
; feature travel
PRIO_OFF
G0 X-13.94424 Y4.2863 ;Travel
; 
; feature fill
PRIO_ON
G1 X0.0000 Y-2.2160 E482.39521 
G1 X4.4398 Y-4.2863 E487.19789 ; => originalEInc=9.60536 adjustedEInc=4.80268 density=0.5
; 
; feature travel
PRIO_OFF
G0 X5.50455 Y-4.2863 ;Travel
; 
; feature fill
PRIO_ON
G1 X0.0000 Y-1.7195 E493.15239 ; => originalEInc=11.90901 adjustedEInc=5.95451 density=0.5
G1 X-12.8795 Y4.2863 E521.01690 
; 
; feature travel
PRIO_OFF
G0 X-11.81466 Y4.2863 ;Travel
; 
; feature fill
PRIO_ON
G1 X0.0000 Y-1.2230 E546.57775 
G1 X6.5693 Y-4.2863 E553.68409 ; => originalEInc=14.21268 adjustedEInc=7.10634 density=0.5
; 
; feature travel
PRIO_OFF
G0 X7.63413 Y-4.2863 ;Travel
; 
; feature fill
PRIO_ON
G1 X-0.0000 Y-0.7264 E561.94226 ; => originalEInc=16.51633 adjustedEInc=8.25817 density=0.5
G1 X-10.7499 Y4.2863 E585.19945 
; 
; feature travel
PRIO_OFF
G0 X-9.68508 Y4.2863 ;Travel
; 
; feature fill
PRIO_ON
G1 X0.0000 Y-0.2299 E606.15299 
G1 X8.6989 Y-4.2863 E615.56299 ; => originalEInc=18.81999 adjustedEInc=9.41000 density=0.5
; 
; feature travel
PRIO_OFF
G0 X9.76371 Y-4.2863 ;Travel
; 
; feature fill
PRIO_ON
G1 X0.0000 Y0.2666 E626.12481 ; => originalEInc=21.12365 adjustedEInc=10.56183 density=0.5
G1 X-8.6203 Y4.2863 E644.77469 
; 
; feature travel
PRIO_OFF
G0 X-7.5555 Y4.2863 ;Travel
; 
; feature fill
PRIO_ON
G1 X0.0000 Y0.7631 E661.12091 
G1 X10.8285 Y-4.2863 E672.83457 ; => originalEInc=23.42731 adjustedEInc=11.71366 density=0.5
; 
; feature travel
PRIO_OFF
G0 X11.89329 Y-4.2863 ;Travel
; 
; feature fill
PRIO_ON
G1 X0.0000 Y1.2596 E685.70005 ; => originalEInc=25.73097 adjustedEInc=12.86548 density=0.5
G1 X-6.4907 Y4.2863 E699.74261 
; 
; feature travel
PRIO_OFF
G0 X-5.42592 Y4.2863 ;Travel
; 
; feature fill
PRIO_ON
G1 X0.0000 Y1.7562 E711.48151 
G1 X12.9581 Y-4.2863 E725.49883 ; => originalEInc=28.03463 adjustedEInc=14.01731 density=0.5
; 
; feature travel
PRIO_OFF
G0 X14.02287 Y-4.2863 ;Travel
; 
; feature fill
PRIO_ON
G1 X0.0000 Y2.2527 E740.66797 ; => originalEInc=30.33828 adjustedEInc=15.16914 density=0.5
G1 X-4.3611 Y4.2863 E750.10321 
; 
; feature travel
PRIO_OFF
G0 X-3.29634 Y4.2863 ;Travel
; 
; feature fill
PRIO_ON
G1 X0.0000 Y2.7492 E757.23479 
G1 X15.0877 Y-4.2863 E773.55577 ; => originalEInc=32.64194 adjustedEInc=16.32097 density=0.5
; 
; feature travel
PRIO_OFF
G0 X16.15245 Y-4.2863 ;Travel
; 
; feature fill
PRIO_ON
G1 X0.0000 Y3.2457 E791.02857 ; => originalEInc=34.94560 adjustedEInc=17.47280 density=0.5
G1 X-2.2315 Y4.2863 E795.85650 
; 
; feature travel
PRIO_OFF
G0 X-1.16676 Y4.2863 ;Travel
; 
; feature fill
PRIO_ON
G1 X0.0000 Y3.7422 E798.38076 
G1 X17.2172 Y-4.2863 E817.00539 ; => originalEInc=37.24926 adjustedEInc=18.62463 density=0.5
; 
; feature travel
PRIO_OFF
G0 X18.28203 Y-4.2863 ;Travel
; 
; feature fill
PRIO_ON
G1 X0.0000 Y4.2388 E836.78185 ; => originalEInc=39.55292 adjustedEInc=19.77646 density=0.5
G1 X-0.1020 Y4.2863 E837.00247 
; 
; feature travel
PRIO_OFF
G0 X0.96283 Y4.2863 ;Travel
; 
; feature fill
PRIO_ON
G1 X19.3468 Y-4.2863 E876.77600 
; 
; feature travel
PRIO_OFF
G0 X20.41162 Y-4.2863 ;Travel
; 
; feature fill
PRIO_ON
G1 X2.0276 Y4.2863 E916.54953 
; 
; feature travel
PRIO_OFF
G0 X3.09241 Y4.2863 ;Travel
; 
; feature fill
PRIO_ON
G1 X21.4764 Y-4.2863 E956.32306 
; 
; feature travel
PRIO_OFF
G0 X22.5412 Y-4.2863 ;Travel
; 
; feature fill
PRIO_ON
G1 X4.1572 Y4.2863 E996.09659 
; 
; feature travel
PRIO_OFF
G0 X5.22199 Y4.2863 ;Travel
; 
; feature fill
PRIO_ON
G1 X23.6060 Y-4.2863 E1035.87011 
; 
; feature travel
PRIO_OFF
G0 X24.4947 Y-4.20419 ;Travel
; 
; feature fill
PRIO_ON
G1 X6.2868 Y4.2863 E1075.26270 
; 
; feature travel
PRIO_OFF
G0 X7.35157 Y4.2863 ;Travel
; 
; feature fill
PRIO_ON
G1 X24.4947 Y-3.7077 E1112.35162 
; 
; feature travel
PRIO_OFF
G0 X24.4947 Y-3.21115 ;Travel
; 
; feature fill
PRIO_ON
G1 X8.4164 Y4.2863 E1147.13689 
; 
; feature travel
PRIO_OFF
G0 X9.48115 Y4.2863 ;Travel
; 
; feature fill
PRIO_ON
G1 X24.4947 Y-2.7146 E1179.61849 
; 
; feature travel
PRIO_OFF
G0 X24.4947 Y-2.21811 ;Travel
; 
; feature fill
PRIO_ON
G1 X10.5459 Y4.2863 E1209.79644 
; 
; feature travel
PRIO_OFF
G0 X11.61073 Y4.2863 ;Travel
; 
; feature fill
PRIO_ON
G1 X24.4947 Y-1.7216 E1237.67072 
; 
; feature travel
PRIO_OFF
G0 X24.4947 Y-1.22507 ;Travel
; 
; feature fill
PRIO_ON
G1 X12.6755 Y4.2863 E1263.24135 
; 
; feature travel
PRIO_OFF
G0 X13.74031 Y4.2863 ;Travel
; 
; feature fill
PRIO_ON
G1 X24.4947 Y-0.7286 E1286.50831 
; 
; feature travel
PRIO_OFF
G0 X24.4947 Y-0.23203 ;Travel
; 
; feature fill
PRIO_ON
G1 X14.8051 Y4.2863 E1307.47162 
; 
; feature travel
PRIO_OFF
G0 X15.8699 Y4.2863 ;Travel
; 
; feature fill
PRIO_ON
G1 X24.4947 Y0.2645 E1326.13126 
; 
; feature travel
PRIO_OFF
G0 X24.4947 Y0.76101 ;Travel
; 
; feature fill
PRIO_ON
G1 X16.9347 Y4.2863 E1342.48725 
; 
; feature travel
PRIO_OFF
G0 X17.99948 Y4.2863 ;Travel
; 
; feature fill
PRIO_ON
G1 X24.4947 Y1.2575 E1356.53958 
; 
; feature travel
PRIO_OFF
G0 X24.4947 Y1.75405 ;Travel
; 
; feature fill
PRIO_ON
G1 X19.0643 Y4.2863 E1368.28824 
; 
; feature travel
PRIO_OFF
G0 X20.12906 Y4.2863 ;Travel
; 
; feature fill
PRIO_ON
G1 X24.4947 Y2.2506 E1377.73325 
; 
; feature travel
PRIO_OFF
G0 X24.4947 Y2.74709 ;Travel
; 
; feature fill
PRIO_ON
G1 X21.1939 Y4.2863 E1384.87459 
; 
; feature travel
PRIO_OFF
G0 X22.25864 Y4.2863 ;Travel
; 
; feature fill
PRIO_ON
G1 X24.4947 Y3.2436 E1389.71228 
; 
; feature travel
PRIO_OFF
G0 X24.4947 Y3.74013 ;Travel
; 
; feature fill
PRIO_ON
G1 X23.3234 Y4.2863 E1392.24630 
; 
; feature travel
PRIO_OFF
G0 X24.38822 Y4.2863 ;Travel
; 
; feature fill
PRIO_ON
G1 X24.4947 Y4.2367 E1392.47667 
PRIO_OFF
LayersCompleted=8
M1
; 
;========================
; layer 8, Z = 2.1600
; 
; reset extrusion
STOPRE
PRESETON(E, 0)
DO PRIO_PULSE_DISTANCE=DROP_SCALE
DO PRIO_ON_PATH_OFFSET=0.5*PRIO_PULSE_DISTANCE
;outer: (25.2604,-5.0521) (25.2604,5.0521) (-25.2604,5.0521) (-25.2604,-5.0521) (15.0604,-5.0521) holes: !
;overhangs:!
; 
; feature plane change
G0 X24.4947 Y4.23665 Z2.16 ;Plane Change
; 
; feature travel
G0 X-14.36772 Y-4.637 ;Travel
; 
; feature outer perimeter
G1 F24000 FL[E] = OuterPerimeterFrequency * DROP_SCALE * 60
PRIO_ON
G1 X24.8454 Y-4.6370 E-835.86059 
G1 X24.8454 Y4.6370 E-814.03942 
G1 X-24.8454 Y4.6370 E-697.11989 
G1 X-24.8454 Y-4.6370 E-675.29871 
G1 X-14.3677 Y-4.6370 E-650.64535 
; 
; feature travel
PRIO_OFF
G0 X-14.36772 Y-4.286 ;Travel
; 
; feature inner perimeter
G1 F24000 FL[E] = InnerPerimeterFrequency * DROP_SCALE * 60
PRIO_ON
G1 X-24.4944 Y-4.2860 E-631.89224 
G1 X-24.4944 Y4.2860 E-616.01816 
G1 X24.4944 Y4.2860 E-525.29816 
G1 X24.4944 Y-4.2860 E-509.42409 
G1 X-14.3677 Y-4.2860 E-437.45720 
; 
; feature travel
PRIO_OFF
G0 X-15.02335 Y-4.2863 ;Travel
; 
; feature fill
G1 F24000 FL[E] = FillFrequency * DROP_SCALE * 60
PRIO_ON
G1 X-0.0000 Y1.1818 E-406.10913 
G1 X8.5297 Y4.2863 E-397.21002 ; => originalEInc=17.79821 adjustedEInc=8.89911 density=0.5
; 
; feature travel
PRIO_OFF
G0 X9.84538 Y4.2863 ;Travel
; 
; feature fill
PRIO_ON
G1 X0.0000 Y0.7029 E-386.93822 ; => originalEInc=20.54360 adjustedEInc=10.27180 density=0.5
G1 X-13.7076 Y-4.2863 E-358.33554 
; 
; feature travel
PRIO_OFF
G0 X-12.39193 Y-4.2863 ;Travel
; 
; feature fill
PRIO_ON
G1 X0.0000 Y0.2240 E-332.47825 
G1 X11.1611 Y4.2863 E-320.83375 ; => originalEInc=23.28900 adjustedEInc=11.64450 density=0.5
; 
; feature travel
PRIO_OFF
G0 X12.47681 Y4.2863 ;Travel
; 
; feature fill
PRIO_ON
G1 X0.0000 Y-0.2549 E-307.81655 ; => originalEInc=26.03439 adjustedEInc=13.01720 density=0.5
G1 X-11.0762 Y-4.2863 E-284.70466 
; 
