;---BEGIN HEADER
; Generated by DropletSlicer
; Version: 3.4.4
; Date: Wednesday, May 29, 2024
; Time: 04:21:42 PM
G64 ;continuous path mode
G71 ;millimeters
G56 ;origin at center
OVR=100
OVRRAP=20
DO PRIO_ON_PATH_OFFSET=0.5*PRIO_PULSE_DISTANCE
RECOMMENDED_RECIPE="4008 Aluminum Wire"
CheckRecommendedRecipe
BUILDPROCESSORINTERFACEVERSION=1177
CheckBPVersion
OuterPerimeterFrequency=300
InnerPerimeterFrequency=400
ThinFeatureFrequency=300
UnsupportedStepoutFrequency=300
SupportedStepoutFrequency=300
FillFrequency=400
SupportWallFrequency=100
SupportPillarFrequency=100
;BUILDPROCESSORINTERFACEVERSION=1177
PART_MASS_CONSUMPTION=0
SUPPORT_MASS_CONSUMPTION=0
G0 X0 Y0 ; cartesianDistance=0.00000 (reset z)
MSG("Print Started")
;---END HEADER
;---BEGIN PRINT STATISTICS
;TOTAL WIRE FEED ESTIMATE:
;    Total Drops: 97,460.43
;      Total Mass: 14.13 g
;    Part Drops: 97,460.43
;      Part Mass: 14.13 g
;    Support Drops: 0.00
;      Support Mass: 0.00 g
;    Part Density: 100.0%
;---END PRINT STATISTICS
;XY Extents: [-24.845 -4.637] [24.845 4.637]
;NaiveEstimatedPrintTime=483.1230151233684
;SupportedStepoutFrequency=300
EstimatedPrintTime=453.9104919433594
;ZCount = 1
;ExtraChevronOffset = 10
NumberOfLayers=42
LayersCompleted=0
;Mass values below are in kilograms
TOTAL_MASS=0.014131762
PART_MASS=0.014131762
SUPPORT_MASS=0.000000000
CheckMass
DO PRIO_PULSE_DISTANCE=DROP_SCALE
DO PRIO_ON_PATH_OFFSET=0.5*PRIO_PULSE_DISTANCE
PARAM_SETUP
;ChunkSize=5
; 
;========================
; layer 0, Z = 0.2400
; 
; reset extrusion
STOPRE
PRESETON(E, 0)
DO PRIO_PULSE_DISTANCE=DROP_SCALE
DO PRIO_ON_PATH_OFFSET=0.5*PRIO_PULSE_DISTANCE
FEATURE_TYPE=0
;outer: (25.2604,-5.0521) (25.2604,5.0521) (-25.2604,5.0521) (-25.2604,-5.0521) (24.6604,-5.0521) holes: !
;overhangs:!
; 
; feature plane change
G0 X0 Y0 Z0.24 ; cartesianDistance=0.00000 (Plane Change)
; 
; feature travel
G0 X2.30853 Y4.637 ; cartesianDistance=5.17987 (Travel)
; 
; feature outer perimeter
G1 F24000 FL[E] = OuterPerimeterFrequency * DROP_SCALE * 60
DO PRIO_PULSE_DISTANCE=DROP_SCALE
DO PRIO_ON_PATH_OFFSET=0.5*PRIO_PULSE_DISTANCE
PRIO_ON
G1 X-24.8454 Y4.637 E63.8916 ; EInc=63.89160 cartesianDistance=27.15393 angle=90.000 pulseDistance=0.42500
G1 X-24.8454 Y-4.637 E85.71278 ; EInc=21.82118 cartesianDistance=9.27400 angle=90.000 pulseDistance=0.42500
G1 X24.8454 Y-4.637 E202.63231 ; EInc=116.91953 cartesianDistance=49.69080 angle=90.000 pulseDistance=0.42500
G1 X24.8454 Y4.637 E224.45349 ; EInc=21.82118 cartesianDistance=9.27400 angle=90.000 pulseDistance=0.42500
G1 X2.30853 Y4.637 E277.48141 ; EInc=53.02793 cartesianDistance=22.53687 angle=180.000 pulseDistance=0.42500
; 
; feature travel
PRIO_OFF
G0 X2.30853 Y4.286 ; cartesianDistance=0.35100 (Travel)
; 
; feature inner perimeter
G1 F24000 FL[E] = InnerPerimeterFrequency * DROP_SCALE * 60
PRIO_ON
G1 X24.4944 Y4.286 E318.56635 ; EInc=41.08494 cartesianDistance=22.18587 angle=90.000 pulseDistance=0.54000
G1 X24.4944 Y-4.286 E334.44043 ; EInc=15.87407 cartesianDistance=8.57200 angle=90.000 pulseDistance=0.54000
G1 X-24.4944 Y-4.286 E425.16043 ; EInc=90.72000 cartesianDistance=48.98880 angle=90.000 pulseDistance=0.54000
G1 X-24.4944 Y4.286 E441.0345 ; EInc=15.87407 cartesianDistance=8.57200 angle=90.000 pulseDistance=0.54000
G1 X2.30853 Y4.286 E490.66956 ; EInc=49.63506 cartesianDistance=26.80293 angle=180.000 pulseDistance=0.54000
; 
; feature travel
PRIO_OFF
G0 X1.95111 Y4.2863 ; cartesianDistance=0.35742 (Travel)
; 
; feature fill
G1 F24000 FL[E] = FillFrequency * DROP_SCALE * 60
PRIO_ON
G1 X-21.60191 Y-4.2863 E539.81585 ; EInc=49.14629 cartesianDistance=25.06461 angle=0.000 pulseDistance=0.51000
; 
; feature travel
PRIO_OFF
G0 X-20.2862 Y-4.2863 ; cartesianDistance=1.31571 (Travel)
; 
; feature fill
PRIO_ON
G1 X3.26682 Y4.2863 E588.96213 ; EInc=49.14629 cartesianDistance=25.06461 angle=0.000 pulseDistance=0.51000
; 
; feature travel
PRIO_OFF
G0 X4.58253 Y4.2863 ; cartesianDistance=1.31571 (Travel)
; 
; feature fill
PRIO_ON
G1 X-18.97049 Y-4.2863 E638.10842 ; EInc=49.14629 cartesianDistance=25.06461 angle=0.000 pulseDistance=0.51000
; 
; feature travel
PRIO_OFF
G0 X-17.65478 Y-4.2863 ; cartesianDistance=1.31571 (Travel)
; 
; feature fill
PRIO_ON
G1 X5.89825 Y4.2863 E687.2547 ; EInc=49.14629 cartesianDistance=25.06461 angle=0.000 pulseDistance=0.51000
; 
; feature travel
PRIO_OFF
G0 X7.21396 Y4.2863 ; cartesianDistance=1.31571 (Travel)
; 
; feature fill
PRIO_ON
G1 X-16.33907 Y-4.2863 E736.40099 ; EInc=49.14629 cartesianDistance=25.06461 angle=0.000 pulseDistance=0.51000
; 
; feature travel
PRIO_OFF
G0 X-15.02335 Y-4.2863 ; cartesianDistance=1.31571 (Travel)
; 
; feature fill
PRIO_ON
G1 X8.52967 Y4.2863 E785.54727 ; EInc=49.14629 cartesianDistance=25.06461 angle=0.000 pulseDistance=0.51000
; 
; feature travel
PRIO_OFF
G0 X9.84538 Y4.2863 ; cartesianDistance=1.31571 (Travel)
; 
; feature fill
PRIO_ON
G1 X-13.70764 Y-4.2863 E834.69356 ; EInc=49.14629 cartesianDistance=25.06461 angle=0.000 pulseDistance=0.51000
; 
; feature travel
PRIO_OFF
G0 X-12.39193 Y-4.2863 ; cartesianDistance=1.31571 (Travel)
; 
; feature fill
PRIO_ON
G1 X11.16109 Y4.2863 E883.83984 ; EInc=49.14629 cartesianDistance=25.06461 angle=0.000 pulseDistance=0.51000
; 
; feature travel
PRIO_OFF
G0 X12.47681 Y4.2863 ; cartesianDistance=1.31571 (Travel)
; 
; feature fill
PRIO_ON
G1 X-11.07622 Y-4.2863 E932.98613 ; EInc=49.14629 cartesianDistance=25.06461 angle=0.000 pulseDistance=0.51000
; 
; feature travel
PRIO_OFF
G0 X-9.76051 Y-4.2863 ; cartesianDistance=1.31571 (Travel)
; 
; feature fill
PRIO_ON
G1 X13.79252 Y4.2863 E982.13241 ; EInc=49.14629 cartesianDistance=25.06461 angle=0.000 pulseDistance=0.51000
; 
; feature travel
PRIO_OFF
G0 X15.10823 Y4.2863 ; cartesianDistance=1.31571 (Travel)
; 
; feature fill
PRIO_ON
G1 X-8.44479 Y-4.2863 E1031.2787 ; EInc=49.14629 cartesianDistance=25.06461 angle=0.000 pulseDistance=0.51000
; 
; feature travel
PRIO_OFF
G0 X-7.12908 Y-4.2863 ; cartesianDistance=1.31571 (Travel)
; 
; feature fill
PRIO_ON
G1 X16.42394 Y4.2863 E1080.42499 ; EInc=49.14629 cartesianDistance=25.06461 angle=0.000 pulseDistance=0.51000
; 
; feature travel
PRIO_OFF
G0 X17.73965 Y4.2863 ; cartesianDistance=1.31571 (Travel)
; 
; feature fill
PRIO_ON
G1 X-5.81337 Y-4.2863 E1129.57127 ; EInc=49.14629 cartesianDistance=25.06461 angle=0.000 pulseDistance=0.51000
; 
; feature travel
PRIO_OFF
G0 X-4.49766 Y-4.2863 ; cartesianDistance=1.31571 (Travel)
; 
; feature fill
PRIO_ON
G1 X19.05537 Y4.2863 E1178.71756 ; EInc=49.14629 cartesianDistance=25.06461 angle=0.000 pulseDistance=0.51000
; 
; feature travel
PRIO_OFF
G0 X20.37108 Y4.2863 ; cartesianDistance=1.31571 (Travel)
; 
; feature fill
PRIO_ON
G1 X-3.18195 Y-4.2863 E1227.86384 ; EInc=49.14629 cartesianDistance=25.06461 angle=0.000 pulseDistance=0.51000
; 
; feature travel
PRIO_OFF
G0 X-1.86623 Y-4.2863 ; cartesianDistance=1.31571 (Travel)
; 
; feature fill
PRIO_ON
G1 X21.68679 Y4.2863 E1277.01013 ; EInc=49.14629 cartesianDistance=25.06461 angle=0.000 pulseDistance=0.51000
; 
; feature travel
PRIO_OFF
G0 X23.0025 Y4.2863 ; cartesianDistance=1.31571 (Travel)
; 
; feature fill
PRIO_ON
G1 X-0.55052 Y-4.2863 E1326.15641 ; EInc=49.14629 cartesianDistance=25.06461 angle=0.000 pulseDistance=0.51000
; 
; feature travel
PRIO_OFF
G0 X0.76519 Y-4.2863 ; cartesianDistance=1.31571 (Travel)
; 
; feature fill
PRIO_ON
G1 X24.31821 Y4.2863 E1375.3027 ; EInc=49.14629 cartesianDistance=25.06461 angle=0.000 pulseDistance=0.51000
; 
; feature travel
PRIO_OFF
G0 X24.4947 Y3.87166 ; cartesianDistance=0.45064 (Travel)
; 
; feature fill
PRIO_ON
G1 X2.0809 Y-4.2863 E1422.07185 ; EInc=46.76915 cartesianDistance=23.85227 angle=0.000 pulseDistance=0.51000
; 
; feature travel
PRIO_OFF
G0 X3.39661 Y-4.2863 ; cartesianDistance=1.31571 (Travel)
; 
; feature fill
PRIO_ON
G1 X24.4947 Y3.39278 E1466.0956 ; EInc=44.02375 cartesianDistance=22.45211 angle=0.000 pulseDistance=0.51000
; 
; feature travel
PRIO_OFF
G0 X24.4947 Y2.9139 ; cartesianDistance=0.47888 (Travel)
; 
; feature fill
PRIO_ON
G1 X4.71233 Y-4.2863 E1507.37396 ; EInc=41.27836 cartesianDistance=21.05196 angle=0.000 pulseDistance=0.51000
; 
; feature travel
PRIO_OFF
G0 X6.02804 Y-4.2863 ; cartesianDistance=1.31571 (Travel)
; 
; feature fill
PRIO_ON
G1 X24.4947 Y2.43502 E1545.90693 ; EInc=38.53296 cartesianDistance=19.65181 angle=0.000 pulseDistance=0.51000
; 
; feature travel
PRIO_OFF
G0 X24.4947 Y1.95614 ; cartesianDistance=0.47888 (Travel)
; 
; feature fill
PRIO_ON
G1 X7.34375 Y-4.2863 E1581.6945 ; EInc=35.78757 cartesianDistance=18.25166 angle=0.000 pulseDistance=0.51000
; 
; feature travel
PRIO_OFF
G0 X8.65946 Y-4.2863 ; cartesianDistance=1.31571 (Travel)
; 
; feature fill
PRIO_ON
G1 X24.4947 Y1.47726 E1614.73667 ; EInc=33.04217 cartesianDistance=16.85151 angle=0.000 pulseDistance=0.51000
; 
; feature travel
PRIO_OFF
G0 X24.4947 Y0.99838 ; cartesianDistance=0.47888 (Travel)
; 
; feature fill
PRIO_ON
G1 X9.97517 Y-4.2863 E1645.03345 ; EInc=30.29678 cartesianDistance=15.45136 angle=0.000 pulseDistance=0.51000
; 
; feature travel
PRIO_OFF
G0 X11.29089 Y-4.2863 ; cartesianDistance=1.31571 (Travel)
; 
; feature fill
PRIO_ON
G1 X24.4947 Y0.5195 E1672.58483 ; EInc=27.55138 cartesianDistance=14.05121 angle=0.000 pulseDistance=0.51000
; 
; feature travel
PRIO_OFF
G0 X24.4947 Y0.04062 ; cartesianDistance=0.47888 (Travel)
; 
; feature fill
PRIO_ON
G1 X12.6066 Y-4.2863 E1697.39082 ; EInc=24.80599 cartesianDistance=12.65105 angle=0.000 pulseDistance=0.51000
; 
; feature travel
PRIO_OFF
G0 X13.92231 Y-4.2863 ; cartesianDistance=1.31571 (Travel)
; 
; feature fill
PRIO_ON
G1 X24.4947 Y-0.43826 E1719.45142 ; EInc=22.06059 cartesianDistance=11.25090 angle=0.000 pulseDistance=0.51000
; 
; feature travel
PRIO_OFF
G0 X24.4947 Y-0.91714 ; cartesianDistance=0.47888 (Travel)
; 
; feature fill
PRIO_ON
G1 X15.23802 Y-4.2863 E1738.76662 ; EInc=19.31520 cartesianDistance=9.85075 angle=0.000 pulseDistance=0.51000
; 
; feature travel
PRIO_OFF
G0 X16.55373 Y-4.2863 ; cartesianDistance=1.31571 (Travel)
; 
; feature fill
PRIO_ON
G1 X24.4947 Y-1.39602 E1755.33642 ; EInc=16.56980 cartesianDistance=8.45060 angle=0.000 pulseDistance=0.51000
; 
; feature travel
PRIO_OFF
G0 X24.4947 Y-1.8749 ; cartesianDistance=0.47888 (Travel)
; 
; feature fill
PRIO_ON
G1 X17.86945 Y-4.2863 E1769.16083 ; EInc=13.82441 cartesianDistance=7.05045 angle=0.000 pulseDistance=0.51000
; 
; feature travel
PRIO_OFF
G0 X19.18516 Y-4.2863 ; cartesianDistance=1.31571 (Travel)
; 
; feature fill
PRIO_ON
G1 X24.4947 Y-2.35378 E1780.23985 ; EInc=11.07901 cartesianDistance=5.65030 angle=0.000 pulseDistance=0.51000
; 
; feature travel
PRIO_OFF
G0 X24.4947 Y-2.83266 ; cartesianDistance=0.47888 (Travel)
; 
; feature fill
PRIO_ON
G1 X20.50087 Y-4.2863 E1788.57346 ; EInc=8.33362 cartesianDistance=4.25015 angle=0.000 pulseDistance=0.51000
; 
; feature travel
PRIO_OFF
G0 X21.81658 Y-4.2863 ; cartesianDistance=1.31571 (Travel)
; 
; feature fill
PRIO_ON
G1 X24.4947 Y-3.31154 E1794.16169 ; EInc=5.58822 cartesianDistance=2.84999 angle=0.000 pulseDistance=0.51000
; 
; feature travel
PRIO_OFF
G0 X24.4947 Y-3.79042 ; cartesianDistance=0.47888 (Travel)
; 
; feature fill
PRIO_ON
G1 X23.13229 Y-4.2863 E1797.00452 ; EInc=2.84283 cartesianDistance=1.44984 angle=0.000 pulseDistance=0.51000
; 
; feature travel
PRIO_OFF
G0 X0.6354 Y4.2863 ; cartesianDistance=24.07488 (Travel)
; 
; feature fill
PRIO_ON
G1 X-22.91763 Y-4.2863 E1846.1508 ; EInc=49.14629 cartesianDistance=25.06461 angle=0.000 pulseDistance=0.51000
; 
; feature travel
PRIO_OFF
G0 X-24.23334 Y-4.2863 ; cartesianDistance=1.31571 (Travel)
; 
; feature fill
PRIO_ON
G1 X-0.68031 Y4.2863 E1895.29709 ; EInc=49.14629 cartesianDistance=25.06461 angle=0.000 pulseDistance=0.51000
; 
; feature travel
PRIO_OFF
G0 X-1.99603 Y4.2863 ; cartesianDistance=1.31571 (Travel)
; 
; feature fill
PRIO_ON
G1 X-24.4947 Y-3.90255 E1942.24334 ; EInc=46.94625 cartesianDistance=23.94259 angle=0.000 pulseDistance=0.51000
; 
; feature travel
PRIO_OFF
G0 X-24.4947 Y-3.42367 ; cartesianDistance=0.47888 (Travel)
; 
; feature fill
PRIO_ON
G1 X-3.31174 Y4.2863 E1986.4442 ; EInc=44.20086 cartesianDistance=22.54244 angle=0.000 pulseDistance=0.51000
; 
; feature travel
PRIO_OFF
G0 X-4.62745 Y4.2863 ; cartesianDistance=1.31571 (Travel)
; 
; feature fill
PRIO_ON
G1 X-24.4947 Y-2.94479 E2027.89967 ; EInc=41.45546 cartesianDistance=21.14229 angle=0.000 pulseDistance=0.51000
; 
; feature travel
PRIO_OFF
G0 X-24.4947 Y-2.46591 ; cartesianDistance=0.47888 (Travel)
; 
; feature fill
PRIO_ON
G1 X-5.94316 Y4.2863 E2066.60974 ; EInc=38.71007 cartesianDistance=19.74214 angle=0.000 pulseDistance=0.51000
; 
; feature travel
PRIO_OFF
G0 X-7.25887 Y4.2863 ; cartesianDistance=1.31571 (Travel)
; 
; feature fill
PRIO_ON
G1 X-24.4947 Y-1.98703 E2102.57441 ; EInc=35.96467 cartesianDistance=18.34198 angle=0.000 pulseDistance=0.51000
; 
; feature travel
PRIO_OFF
G0 X-24.4947 Y-1.50815 ; cartesianDistance=0.47888 (Travel)
; 
; feature fill
PRIO_ON
G1 X-8.57459 Y4.2863 E2135.79369 ; EInc=33.21928 cartesianDistance=16.94183 angle=0.000 pulseDistance=0.51000
; 
; feature travel
PRIO_OFF
G0 X-9.8903 Y4.2863 ; cartesianDistance=1.31571 (Travel)
; 
; feature fill
PRIO_ON
G1 X-24.4947 Y-1.02927 E2166.26757 ; EInc=30.47388 cartesianDistance=15.54168 angle=0.000 pulseDistance=0.51000
; 
; feature travel
PRIO_OFF
G0 X-24.4947 Y-0.55039 ; cartesianDistance=0.47888 (Travel)
; 
; feature fill
PRIO_ON
G1 X-11.20601 Y4.2863 E2193.99606 ; EInc=27.72849 cartesianDistance=14.14153 angle=0.000 pulseDistance=0.51000
; 
; feature travel
PRIO_OFF
G0 X-12.52172 Y4.2863 ; cartesianDistance=1.31571 (Travel)
; 
; feature fill
PRIO_ON
G1 X-24.4947 Y-0.07151 E2218.97916 ; EInc=24.98309 cartesianDistance=12.74138 angle=0.000 pulseDistance=0.51000
; 
; feature travel
PRIO_OFF
G0 X-24.4947 Y0.40737 ; cartesianDistance=0.47888 (Travel)
; 
; feature fill
PRIO_ON
G1 X-13.83743 Y4.2863 E2241.21686 ; EInc=22.23770 cartesianDistance=11.34123 angle=0.000 pulseDistance=0.51000
; 
; feature travel
PRIO_OFF
G0 X-15.15314 Y4.2863 ; cartesianDistance=1.31571 (Travel)
; 
; feature fill
PRIO_ON
G1 X-24.4947 Y0.88625 E2260.70916 ; EInc=19.49230 cartesianDistance=9.94108 angle=0.000 pulseDistance=0.51000
; 
; feature travel
PRIO_OFF
G0 X-24.4947 Y1.36513 ; cartesianDistance=0.47888 (Travel)
; 
; feature fill
PRIO_ON
G1 X-16.46886 Y4.2863 E2277.45607 ; EInc=16.74691 cartesianDistance=8.54092 angle=0.000 pulseDistance=0.51000
; 
; feature travel
PRIO_OFF
G0 X-17.78457 Y4.2863 ; cartesianDistance=1.31571 (Travel)
; 
; feature fill
PRIO_ON
G1 X-24.4947 Y1.84401 E2291.45759 ; EInc=14.00151 cartesianDistance=7.14077 angle=0.000 pulseDistance=0.51000
; 
; feature travel
PRIO_OFF
G0 X-24.4947 Y2.32289 ; cartesianDistance=0.47888 (Travel)
; 
; feature fill
PRIO_ON
G1 X-19.10028 Y4.2863 E2302.71371 ; EInc=11.25612 cartesianDistance=5.74062 angle=0.000 pulseDistance=0.51000
; 
; feature travel
PRIO_OFF
G0 X-20.41599 Y4.2863 ; cartesianDistance=1.31571 (Travel)
; 
; feature fill
PRIO_ON
G1 X-24.4947 Y2.80177 E2311.22443 ; EInc=8.51072 cartesianDistance=4.34047 angle=0.000 pulseDistance=0.51000
; 
; feature travel
PRIO_OFF
G0 X-24.4947 Y3.28065 ; cartesianDistance=0.47888 (Travel)
; 
; feature fill
PRIO_ON
G1 X-21.7317 Y4.2863 E2316.98976 ; EInc=5.76533 cartesianDistance=2.94032 angle=0.000 pulseDistance=0.51000
; 
; feature travel
PRIO_OFF
G0 X-23.04742 Y4.2863 ; cartesianDistance=1.31571 (Travel)
; 
; feature fill
PRIO_ON
G1 X-24.4947 Y3.75953 E2320.00969 ; EInc=3.01993 cartesianDistance=1.54017 angle=0.000 pulseDistance=0.51000
; 
; feature travel
PRIO_OFF
G0 X-24.4947 Y4.23841 ; cartesianDistance=0.47888 (Travel)
; 
; feature fill
PRIO_ON
G1 X-24.36313 Y4.2863 E2320.28423 ; EInc=0.27454 cartesianDistance=0.14002 angle=0.000 pulseDistance=0.51000
PRIO_OFF
LayersCompleted=1
M1
; 
;========================
; layer 1, Z = 0.4800
; 
; reset extrusion
STOPRE
PRESETON(E, 0)
DO PRIO_PULSE_DISTANCE=DROP_SCALE
DO PRIO_ON_PATH_OFFSET=0.5*PRIO_PULSE_DISTANCE
;outer: (25.2604,-5.0521) (25.2604,5.0521) (-25.2604,5.0521) (-25.2604,-5.0521) (23.4604,-5.0521) holes: !
;overhangs:!
; 
; feature plane change
G0 X-24.36313 Y4.2863 Z0.48 ; cartesianDistance=0.00000 (Plane Change)
; 
; feature travel
G0 X20.74801 Y4.637 ; cartesianDistance=45.11250 (Travel)
; 
; feature outer perimeter
G1 F24000 FL[E] = OuterPerimeterFrequency * DROP_SCALE * 60
PRIO_ON
G1 X24.8454 Y4.637 E9.64092 ; EInc=9.64092 cartesianDistance=4.09739 angle=90.000 pulseDistance=0.42500
G1 X24.8454 Y-4.637 E31.4621 ; EInc=21.82118 cartesianDistance=9.27400 angle=90.000 pulseDistance=0.42500
G1 X-24.8454 Y-4.637 E148.38162 ; EInc=116.91953 cartesianDistance=49.69080 angle=90.000 pulseDistance=0.42500
G1 X-24.8454 Y4.637 E170.2028 ; EInc=21.82118 cartesianDistance=9.27400 angle=90.000 pulseDistance=0.42500
G1 X20.74801 Y4.637 E277.48141 ; EInc=107.27861 cartesianDistance=45.59341 angle=180.000 pulseDistance=0.42500
; 
; feature travel
PRIO_OFF
G0 X20.74801 Y4.286 ; cartesianDistance=0.35100 (Travel)
; 
; feature inner perimeter
G1 F24000 FL[E] = InnerPerimeterFrequency * DROP_SCALE * 60
PRIO_ON
G1 X-24.4944 Y4.286 E361.26365 ; EInc=83.78224 cartesianDistance=45.24241 angle=90.000 pulseDistance=0.54000
G1 X-24.4944 Y-4.286 E377.13773 ; EInc=15.87407 cartesianDistance=8.57200 angle=90.000 pulseDistance=0.54000
G1 X24.4944 Y-4.286 E467.85773 ; EInc=90.72000 cartesianDistance=48.98880 angle=90.000 pulseDistance=0.54000
G1 X24.4944 Y4.286 E483.7318 ; EInc=15.87407 cartesianDistance=8.57200 angle=90.000 pulseDistance=0.54000
G1 X20.74801 Y4.286 E490.66956 ; EInc=6.93776 cartesianDistance=3.74639 angle=180.000 pulseDistance=0.54000
; 
; feature travel
PRIO_OFF
G0 X20.73828 Y4.2863 ; cartesianDistance=0.00974 (Travel)
; 
; feature fill
G1 F24000 FL[E] = FillFrequency * DROP_SCALE * 60
PRIO_ON
G1 X16.74081 Y-4.2863 E509.21626 ; EInc=18.54670 cartesianDistance=9.45882 angle=0.000 pulseDistance=0.51000
; 
; feature travel
PRIO_OFF
G0 X17.23733 Y-4.2863 ; cartesianDistance=0.49652 (Travel)
; 
; feature fill
PRIO_ON
G1 X21.2348 Y4.2863 E527.76296 ; EInc=18.54670 cartesianDistance=9.45882 angle=0.000 pulseDistance=0.51000
; 
; feature travel
PRIO_OFF
G0 X21.73132 Y4.2863 ; cartesianDistance=0.49652 (Travel)
; 
; feature fill
PRIO_ON
G1 X17.73385 Y-4.2863 E546.30966 ; EInc=18.54670 cartesianDistance=9.45882 angle=0.000 pulseDistance=0.51000
; 
; feature travel
PRIO_OFF
G0 X18.23037 Y-4.2863 ; cartesianDistance=0.49652 (Travel)
; 
; feature fill
PRIO_ON
G1 X22.22784 Y4.2863 E564.85636 ; EInc=18.54670 cartesianDistance=9.45882 angle=0.000 pulseDistance=0.51000
; 
; feature travel
PRIO_OFF
G0 X22.72436 Y4.2863 ; cartesianDistance=0.49652 (Travel)
; 
; feature fill
PRIO_ON
G1 X18.72689 Y-4.2863 E583.40307 ; EInc=18.54670 cartesianDistance=9.45882 angle=0.000 pulseDistance=0.51000
; 
; feature travel
PRIO_OFF
G0 X19.22341 Y-4.2863 ; cartesianDistance=0.49652 (Travel)
; 
; feature fill
PRIO_ON
G1 X23.22088 Y4.2863 E601.94977 ; EInc=18.54670 cartesianDistance=9.45882 angle=0.000 pulseDistance=0.51000
; 
; feature travel
PRIO_OFF
G0 X23.7174 Y4.2863 ; cartesianDistance=0.49652 (Travel)
; 
; feature fill
PRIO_ON
G1 X19.71993 Y-4.2863 E620.49647 ; EInc=18.54670 cartesianDistance=9.45882 angle=0.000 pulseDistance=0.51000
; 
; feature travel
PRIO_OFF
G0 X20.21645 Y-4.2863 ; cartesianDistance=0.49652 (Travel)
; 
; feature fill
PRIO_ON
G1 X24.21392 Y4.2863 E639.04317 ; EInc=18.54670 cartesianDistance=9.45882 angle=0.000 pulseDistance=0.51000
; 
; feature travel
PRIO_OFF
G0 X24.4947 Y3.82365 ; cartesianDistance=0.54119 (Travel)
; 
; feature fill
PRIO_ON
G1 X20.71297 Y-4.2863 E656.58893 ; EInc=17.54576 cartesianDistance=8.94834 angle=0.000 pulseDistance=0.51000
; 
; feature travel
PRIO_OFF
G0 X21.20949 Y-4.2863 ; cartesianDistance=0.49652 (Travel)
; 
; feature fill
PRIO_ON
G1 X24.4947 Y2.75886 E671.83103 ; EInc=15.24210 cartesianDistance=7.77347 angle=0.000 pulseDistance=0.51000
; 
; feature travel
PRIO_OFF
G0 X24.4947 Y1.69407 ; cartesianDistance=1.06479 (Travel)
; 
; feature fill
PRIO_ON
G1 X21.70601 Y-4.2863 E684.76947 ; EInc=12.93844 cartesianDistance=6.59860 angle=0.000 pulseDistance=0.51000
; 
; feature travel
PRIO_OFF
G0 X22.20253 Y-4.2863 ; cartesianDistance=0.49652 (Travel)
; 
; feature fill
PRIO_ON
G1 X24.4947 Y0.62928 E695.40425 ; EInc=10.63478 cartesianDistance=5.42374 angle=0.000 pulseDistance=0.51000
; 
; feature travel
PRIO_OFF
G0 X24.4947 Y-0.43552 ; cartesianDistance=1.06479 (Travel)
; 
; feature fill
PRIO_ON
G1 X22.69905 Y-4.2863 E703.73537 ; EInc=8.33112 cartesianDistance=4.24887 angle=0.000 pulseDistance=0.51000
; 
; feature travel
PRIO_OFF
G0 X23.19557 Y-4.2863 ; cartesianDistance=0.49652 (Travel)
; 
; feature fill
PRIO_ON
G1 X24.4947 Y-1.50031 E709.76283 ; EInc=6.02746 cartesianDistance=3.07400 angle=0.000 pulseDistance=0.51000
; 
; feature travel
PRIO_OFF
G0 X24.4947 Y-2.5651 ; cartesianDistance=1.06479 (Travel)
; 
; feature fill
PRIO_ON
G1 X23.69209 Y-4.2863 E713.48663 ; EInc=3.72380 cartesianDistance=1.89914 angle=0.000 pulseDistance=0.51000
; 
; feature travel
PRIO_OFF
G0 X24.18861 Y-4.2863 ; cartesianDistance=0.49652 (Travel)
; 
; feature fill
PRIO_ON
G1 X24.4947 Y-3.62989 E714.90677 ; EInc=1.42014 cartesianDistance=0.72427 angle=0.000 pulseDistance=0.51000
; 
; feature travel
PRIO_OFF
G0 X16.24429 Y-4.2863 ; cartesianDistance=8.27648 (Travel)
; 
; feature fill
PRIO_ON
G1 X20.24176 Y4.2863 E733.45347 ; EInc=18.54670 cartesianDistance=9.45882 angle=0.000 pulseDistance=0.51000
; 
; feature travel
PRIO_OFF
G0 X19.74524 Y4.2863 ; cartesianDistance=0.49652 (Travel)
; 
; feature fill
PRIO_ON
G1 X15.74777 Y-4.2863 E752.00017 ; EInc=18.54670 cartesianDistance=9.45882 angle=0.000 pulseDistance=0.51000
; 
; feature travel
PRIO_OFF
G0 X15.25125 Y-4.2863 ; cartesianDistance=0.49652 (Travel)
; 
; feature fill
PRIO_ON
G1 X19.24872 Y4.2863 E770.54687 ; EInc=18.54670 cartesianDistance=9.45882 angle=0.000 pulseDistance=0.51000
; 
; feature travel
PRIO_OFF
G0 X18.7522 Y4.2863 ; cartesianDistance=0.49652 (Travel)
; 
; feature fill
PRIO_ON
G1 X14.75473 Y-4.2863 E789.09357 ; EInc=18.54670 cartesianDistance=9.45882 angle=0.000 pulseDistance=0.51000
; 
; feature travel
PRIO_OFF
G0 X14.25821 Y-4.2863 ; cartesianDistance=0.49652 (Travel)
; 
; feature fill
PRIO_ON
G1 X18.25568 Y4.2863 E807.64027 ; EInc=18.54670 cartesianDistance=9.45882 angle=0.000 pulseDistance=0.51000
; 
; feature travel
PRIO_OFF
G0 X17.75916 Y4.2863 ; cartesianDistance=0.49652 (Travel)
; 
; feature fill
PRIO_ON
G1 X13.76169 Y-4.2863 E826.18697 ; EInc=18.54670 cartesianDistance=9.45882 angle=0.000 pulseDistance=0.51000
; 
; feature travel
PRIO_OFF
G0 X13.26517 Y-4.2863 ; cartesianDistance=0.49652 (Travel)
; 
; feature fill
PRIO_ON
G1 X17.26264 Y4.2863 E844.73367 ; EInc=18.54670 cartesianDistance=9.45882 angle=0.000 pulseDistance=0.51000
; 
; feature travel
PRIO_OFF
G0 X16.76612 Y4.2863 ; cartesianDistance=0.49652 (Travel)
; 
; feature fill
PRIO_ON
G1 X12.76865 Y-4.2863 E863.28037 ; EInc=18.54670 cartesianDistance=9.45882 angle=0.000 pulseDistance=0.51000
; 
; feature travel
PRIO_OFF
G0 X12.27213 Y-4.2863 ; cartesianDistance=0.49652 (Travel)
; 
; feature fill
PRIO_ON
G1 X16.2696 Y4.2863 E881.82707 ; EInc=18.54670 cartesianDistance=9.45882 angle=0.000 pulseDistance=0.51000
; 
; feature travel
PRIO_OFF
G0 X15.77308 Y4.2863 ; cartesianDistance=0.49652 (Travel)
; 
; feature fill
PRIO_ON
G1 X11.77561 Y-4.2863 E900.37378 ; EInc=18.54670 cartesianDistance=9.45882 angle=0.000 pulseDistance=0.51000
; 
; feature travel
PRIO_OFF
G0 X11.27909 Y-4.2863 ; cartesianDistance=0.49652 (Travel)
; 
; feature fill
PRIO_ON
G1 X15.27656 Y4.2863 E918.92048 ; EInc=18.54670 cartesianDistance=9.45882 angle=0.000 pulseDistance=0.51000
; 
; feature travel
PRIO_OFF
G0 X14.78004 Y4.2863 ; cartesianDistance=0.49652 (Travel)
; 
; feature fill
PRIO_ON
G1 X10.78257 Y-4.2863 E937.46718 ; EInc=18.54670 cartesianDistance=9.45882 angle=0.000 pulseDistance=0.51000
; 
; feature travel
PRIO_OFF
G0 X10.28605 Y-4.2863 ; cartesianDistance=0.49652 (Travel)
; 
; feature fill
PRIO_ON
G1 X14.28352 Y4.2863 E956.01388 ; EInc=18.54670 cartesianDistance=9.45882 angle=0.000 pulseDistance=0.51000
; 
; feature travel
PRIO_OFF
G0 X13.787 Y4.2863 ; cartesianDistance=0.49652 (Travel)
; 
; feature fill
PRIO_ON
G1 X9.78953 Y-4.2863 E974.56058 ; EInc=18.54670 cartesianDistance=9.45882 angle=0.000 pulseDistance=0.51000
; 
; feature travel
PRIO_OFF
G0 X9.29301 Y-4.2863 ; cartesianDistance=0.49652 (Travel)
; 
; feature fill
PRIO_ON
G1 X13.29048 Y4.2863 E993.10728 ; EInc=18.54670 cartesianDistance=9.45882 angle=0.000 pulseDistance=0.51000
; 
; feature travel
PRIO_OFF
G0 X12.79396 Y4.2863 ; cartesianDistance=0.49652 (Travel)
; 
; feature fill
PRIO_ON
G1 X8.79649 Y-4.2863 E1011.65398 ; EInc=18.54670 cartesianDistance=9.45882 angle=0.000 pulseDistance=0.51000
; 
; feature travel
PRIO_OFF
G0 X8.29997 Y-4.2863 ; cartesianDistance=0.49652 (Travel)
; 
; feature fill
PRIO_ON
G1 X12.29744 Y4.2863 E1030.20068 ; EInc=18.54670 cartesianDistance=9.45882 angle=0.000 pulseDistance=0.51000
; 
; feature travel
PRIO_OFF
G0 X11.80092 Y4.2863 ; cartesianDistance=0.49652 (Travel)
; 
; feature fill
PRIO_ON
G1 X7.80345 Y-4.2863 E1048.74738 ; EInc=18.54670 cartesianDistance=9.45882 angle=0.000 pulseDistance=0.51000
; 
; feature travel
PRIO_OFF
G0 X7.30693 Y-4.2863 ; cartesianDistance=0.49652 (Travel)
; 
; feature fill
PRIO_ON
G1 X11.3044 Y4.2863 E1067.29409 ; EInc=18.54670 cartesianDistance=9.45882 angle=0.000 pulseDistance=0.51000
; 
; feature travel
PRIO_OFF
G0 X10.80788 Y4.2863 ; cartesianDistance=0.49652 (Travel)
; 
; feature fill
PRIO_ON
G1 X6.81041 Y-4.2863 E1085.84079 ; EInc=18.54670 cartesianDistance=9.45882 angle=0.000 pulseDistance=0.51000
; 
; feature travel
PRIO_OFF
G0 X6.31389 Y-4.2863 ; cartesianDistance=0.49652 (Travel)
; 
; feature fill
PRIO_ON
G1 X10.31136 Y4.2863 E1104.38749 ; EInc=18.54670 cartesianDistance=9.45882 angle=0.000 pulseDistance=0.51000
; 
; feature travel
PRIO_OFF
G0 X9.81484 Y4.2863 ; cartesianDistance=0.49652 (Travel)
; 
; feature fill
PRIO_ON
G1 X5.81737 Y-4.2863 E1122.93419 ; EInc=18.54670 cartesianDistance=9.45882 angle=0.000 pulseDistance=0.51000
; 
; feature travel
PRIO_OFF
G0 X5.32085 Y-4.2863 ; cartesianDistance=0.49652 (Travel)
; 
; feature fill
PRIO_ON
G1 X9.31832 Y4.2863 E1141.48089 ; EInc=18.54670 cartesianDistance=9.45882 angle=0.000 pulseDistance=0.51000
; 
; feature travel
PRIO_OFF
G0 X8.8218 Y4.2863 ; cartesianDistance=0.49652 (Travel)
; 
; feature fill
PRIO_ON
G1 X4.82433 Y-4.2863 E1160.02759 ; EInc=18.54670 cartesianDistance=9.45882 angle=0.000 pulseDistance=0.51000
; 
; feature travel
PRIO_OFF
G0 X4.32781 Y-4.2863 ; cartesianDistance=0.49652 (Travel)
; 
; feature fill
PRIO_ON
G1 X8.32528 Y4.2863 E1178.57429 ; EInc=18.54670 cartesianDistance=9.45882 angle=0.000 pulseDistance=0.51000
; 
; feature travel
PRIO_OFF
G0 X7.82876 Y4.2863 ; cartesianDistance=0.49652 (Travel)
; 
; feature fill
PRIO_ON
G1 X3.83129 Y-4.2863 E1197.12099 ; EInc=18.54670 cartesianDistance=9.45882 angle=0.000 pulseDistance=0.51000
; 
; feature travel
PRIO_OFF
G0 X3.33477 Y-4.2863 ; cartesianDistance=0.49652 (Travel)
; 
; feature fill
PRIO_ON
G1 X7.33224 Y4.2863 E1215.66769 ; EInc=18.54670 cartesianDistance=9.45882 angle=0.000 pulseDistance=0.51000
; 
; feature travel
PRIO_OFF
G0 X6.83572 Y4.2863 ; cartesianDistance=0.49652 (Travel)
; 
; feature fill
PRIO_ON
G1 X2.83825 Y-4.2863 E1234.2144 ; EInc=18.54670 cartesianDistance=9.45882 angle=0.000 pulseDistance=0.51000
; 
; feature travel
PRIO_OFF
G0 X2.34173 Y-4.2863 ; cartesianDistance=0.49652 (Travel)
; 
; feature fill
PRIO_ON
G1 X6.3392 Y4.2863 E1252.7611 ; EInc=18.54670 cartesianDistance=9.45882 angle=0.000 pulseDistance=0.51000
; 
; feature travel
PRIO_OFF
G0 X5.84268 Y4.2863 ; cartesianDistance=0.49652 (Travel)
; 
; feature fill
PRIO_ON
G1 X1.84521 Y-4.2863 E1271.3078 ; EInc=18.54670 cartesianDistance=9.45882 angle=0.000 pulseDistance=0.51000
; 
; feature travel
PRIO_OFF
G0 X1.34869 Y-4.2863 ; cartesianDistance=0.49652 (Travel)
; 
; feature fill
PRIO_ON
G1 X5.34616 Y4.2863 E1289.8545 ; EInc=18.54670 cartesianDistance=9.45882 angle=0.000 pulseDistance=0.51000
; 
; feature travel
PRIO_OFF
G0 X4.84964 Y4.2863 ; cartesianDistance=0.49652 (Travel)
; 
; feature fill
PRIO_ON
G1 X0.85217 Y-4.2863 E1308.4012 ; EInc=18.54670 cartesianDistance=9.45882 angle=0.000 pulseDistance=0.51000
; 
; feature travel
PRIO_OFF
G0 X0.35565 Y-4.2863 ; cartesianDistance=0.49652 (Travel)
; 
; feature fill
PRIO_ON
G1 X4.35312 Y4.2863 E1326.9479 ; EInc=18.54670 cartesianDistance=9.45882 angle=0.000 pulseDistance=0.51000
; 
; feature travel
PRIO_OFF
G0 X3.8566 Y4.2863 ; cartesianDistance=0.49652 (Travel)
; 
; feature fill
PRIO_ON
G1 X-0.14087 Y-4.2863 E1345.4946 ; EInc=18.54670 cartesianDistance=9.45882 angle=0.000 pulseDistance=0.51000
; 
; feature travel
PRIO_OFF
G0 X-0.63739 Y-4.2863 ; cartesianDistance=0.49652 (Travel)
; 
; feature fill
PRIO_ON
G1 X3.36008 Y4.2863 E1364.0413 ; EInc=18.54670 cartesianDistance=9.45882 angle=0.000 pulseDistance=0.51000
; 
; feature travel
PRIO_OFF
G0 X2.86356 Y4.2863 ; cartesianDistance=0.49652 (Travel)
; 
; feature fill
PRIO_ON
G1 X-1.13391 Y-4.2863 E1382.588 ; EInc=18.54670 cartesianDistance=9.45882 angle=0.000 pulseDistance=0.51000
; 
; feature travel
PRIO_OFF
G0 X-1.63043 Y-4.2863 ; cartesianDistance=0.49652 (Travel)
; 
; feature fill
PRIO_ON
G1 X2.36704 Y4.2863 E1401.1347 ; EInc=18.54670 cartesianDistance=9.45882 angle=0.000 pulseDistance=0.51000
; 
; feature travel
PRIO_OFF
G0 X1.87052 Y4.2863 ; cartesianDistance=0.49652 (Travel)
; 
; feature fill
PRIO_ON
G1 X-2.12695 Y-4.2863 E1419.68141 ; EInc=18.54670 cartesianDistance=9.45882 angle=0.000 pulseDistance=0.51000
; 
; feature travel
PRIO_OFF
G0 X-2.62347 Y-4.2863 ; cartesianDistance=0.49652 (Travel)
; 
; feature fill
PRIO_ON
G1 X1.374 Y4.2863 E1438.22811 ; EInc=18.54670 cartesianDistance=9.45882 angle=0.000 pulseDistance=0.51000
; 
; feature travel
PRIO_OFF
G0 X0.87748 Y4.2863 ; cartesianDistance=0.49652 (Travel)
; 
; feature fill
PRIO_ON
G1 X-3.11999 Y-4.2863 E1456.77481 ; EInc=18.54670 cartesianDistance=9.45882 angle=0.000 pulseDistance=0.51000
; 
; feature travel
PRIO_OFF
G0 X-3.61651 Y-4.2863 ; cartesianDistance=0.49652 (Travel)
; 
; feature fill
PRIO_ON
G1 X0.38096 Y4.2863 E1475.32151 ; EInc=18.54670 cartesianDistance=9.45882 angle=0.000 pulseDistance=0.51000
; 
; feature travel
PRIO_OFF
G0 X-0.11556 Y4.2863 ; cartesianDistance=0.49652 (Travel)
; 
; feature fill
PRIO_ON
G1 X-4.11303 Y-4.2863 E1493.86821 ; EInc=18.54670 cartesianDistance=9.45882 angle=0.000 pulseDistance=0.51000
; 
; feature travel
PRIO_OFF
G0 X-4.60955 Y-4.2863 ; cartesianDistance=0.49652 (Travel)
; 
; feature fill
PRIO_ON
G1 X-0.61208 Y4.2863 E1512.41491 ; EInc=18.54670 cartesianDistance=9.45882 angle=0.000 pulseDistance=0.51000
; 
; feature travel
PRIO_OFF
G0 X-1.10861 Y4.2863 ; cartesianDistance=0.49652 (Travel)
; 
; feature fill
PRIO_ON
G1 X-5.10607 Y-4.2863 E1530.96161 ; EInc=18.54670 cartesianDistance=9.45882 angle=0.000 pulseDistance=0.51000
; 
; feature travel
PRIO_OFF
G0 X-5.60259 Y-4.2863 ; cartesianDistance=0.49652 (Travel)
; 
; feature fill
PRIO_ON
G1 X-1.60513 Y4.2863 E1549.50831 ; EInc=18.54670 cartesianDistance=9.45882 angle=0.000 pulseDistance=0.51000
; 
; feature travel
PRIO_OFF
G0 X-2.10165 Y4.2863 ; cartesianDistance=0.49652 (Travel)
; 
; feature fill
PRIO_ON
G1 X-6.09911 Y-4.2863 E1568.05501 ; EInc=18.54670 cartesianDistance=9.45882 angle=0.000 pulseDistance=0.51000
; 
; feature travel
PRIO_OFF
G0 X-6.59563 Y-4.2863 ; cartesianDistance=0.49652 (Travel)
; 
; feature fill
PRIO_ON
G1 X-2.59817 Y4.2863 E1586.60172 ; EInc=18.54670 cartesianDistance=9.45882 angle=0.000 pulseDistance=0.51000
; 
; feature travel
PRIO_OFF
G0 X-3.09469 Y4.2863 ; cartesianDistance=0.49652 (Travel)
; 
; feature fill
PRIO_ON
G1 X-7.09215 Y-4.2863 E1605.14842 ; EInc=18.54670 cartesianDistance=9.45882 angle=0.000 pulseDistance=0.51000
; 
; feature travel
PRIO_OFF
G0 X-7.58867 Y-4.2863 ; cartesianDistance=0.49652 (Travel)
; 
; feature fill
PRIO_ON
G1 X-3.59121 Y4.2863 E1623.69512 ; EInc=18.54670 cartesianDistance=9.45882 angle=0.000 pulseDistance=0.51000
; 
; feature travel
PRIO_OFF
G0 X-4.08773 Y4.2863 ; cartesianDistance=0.49652 (Travel)
; 
; feature fill
PRIO_ON
G1 X-8.08519 Y-4.2863 E1642.24182 ; EInc=18.54670 cartesianDistance=9.45882 angle=0.000 pulseDistance=0.51000
; 
; feature travel
PRIO_OFF
G0 X-8.58171 Y-4.2863 ; cartesianDistance=0.49652 (Travel)
; 
; feature fill
PRIO_ON
G1 X-4.58425 Y4.2863 E1660.78852 ; EInc=18.54670 cartesianDistance=9.45882 angle=0.000 pulseDistance=0.51000
; 
; feature travel
PRIO_OFF
G0 X-5.08077 Y4.2863 ; cartesianDistance=0.49652 (Travel)
; 
; feature fill
PRIO_ON
G1 X-9.07823 Y-4.2863 E1679.33522 ; EInc=18.54670 cartesianDistance=9.45882 angle=0.000 pulseDistance=0.51000
; 
; feature travel
PRIO_OFF
G0 X-9.57475 Y-4.2863 ; cartesianDistance=0.49652 (Travel)
; 
; feature fill
PRIO_ON
G1 X-5.57729 Y4.2863 E1697.88192 ; EInc=18.54670 cartesianDistance=9.45882 angle=0.000 pulseDistance=0.51000
; 
; feature travel
PRIO_OFF
G0 X-6.07381 Y4.2863 ; cartesianDistance=0.49652 (Travel)
; 
; feature fill
PRIO_ON
G1 X-10.07127 Y-4.2863 E1716.42862 ; EInc=18.54670 cartesianDistance=9.45882 angle=0.000 pulseDistance=0.51000
; 
; feature travel
PRIO_OFF
G0 X-10.56779 Y-4.2863 ; cartesianDistance=0.49652 (Travel)
; 
; feature fill
PRIO_ON
G1 X-6.57033 Y4.2863 E1734.97532 ; EInc=18.54670 cartesianDistance=9.45882 angle=0.000 pulseDistance=0.51000
; 
; feature travel
PRIO_OFF
G0 X-7.06685 Y4.2863 ; cartesianDistance=0.49652 (Travel)
; 
; feature fill
PRIO_ON
G1 X-11.06431 Y-4.2863 E1753.52203 ; EInc=18.54670 cartesianDistance=9.45882 angle=0.000 pulseDistance=0.51000
; 
; feature travel
PRIO_OFF
G0 X-11.56083 Y-4.2863 ; cartesianDistance=0.49652 (Travel)
; 
; feature fill
PRIO_ON
G1 X-7.56337 Y4.2863 E1772.06873 ; EInc=18.54670 cartesianDistance=9.45882 angle=0.000 pulseDistance=0.51000
; 
; feature travel
PRIO_OFF
G0 X-8.05989 Y4.2863 ; cartesianDistance=0.49652 (Travel)
; 
; feature fill
PRIO_ON
G1 X-12.05735 Y-4.2863 E1790.61543 ; EInc=18.54670 cartesianDistance=9.45882 angle=0.000 pulseDistance=0.51000
; 
; feature travel
PRIO_OFF
G0 X-12.55387 Y-4.2863 ; cartesianDistance=0.49652 (Travel)
; 
; feature fill
PRIO_ON
G1 X-8.55641 Y4.2863 E1809.16213 ; EInc=18.54670 cartesianDistance=9.45882 angle=0.000 pulseDistance=0.51000
; 
; feature travel
PRIO_OFF
G0 X-9.05293 Y4.2863 ; cartesianDistance=0.49652 (Travel)
; 
; feature fill
PRIO_ON
G1 X-13.0504 Y-4.2863 E1827.70883 ; EInc=18.54670 cartesianDistance=9.45882 angle=0.000 pulseDistance=0.51000
; 
; feature travel
PRIO_OFF
G0 X-13.54692 Y-4.2863 ; cartesianDistance=0.49652 (Travel)
; 
; feature fill
PRIO_ON
G1 X-9.54945 Y4.2863 E1846.25553 ; EInc=18.54670 cartesianDistance=9.45882 angle=0.000 pulseDistance=0.51000
; 
; feature travel
PRIO_OFF
G0 X-10.04597 Y4.2863 ; cartesianDistance=0.49652 (Travel)
; 
; feature fill
PRIO_ON
G1 X-14.04344 Y-4.2863 E1864.80223 ; EInc=18.54670 cartesianDistance=9.45882 angle=0.000 pulseDistance=0.51000
; 
; feature travel
PRIO_OFF
G0 X-14.53996 Y-4.2863 ; cartesianDistance=0.49652 (Travel)
; 
; feature fill
PRIO_ON
G1 X-10.54249 Y4.2863 E1883.34893 ; EInc=18.54670 cartesianDistance=9.45882 angle=0.000 pulseDistance=0.51000
; 
; feature travel
PRIO_OFF
G0 X-11.03901 Y4.2863 ; cartesianDistance=0.49652 (Travel)
; 
; feature fill
PRIO_ON
G1 X-15.03648 Y-4.2863 E1901.89563 ; EInc=18.54670 cartesianDistance=9.45882 angle=0.000 pulseDistance=0.51000
; 
; feature travel
PRIO_OFF
G0 X-15.533 Y-4.2863 ; cartesianDistance=0.49652 (Travel)
; 
; feature fill
PRIO_ON
G1 X-11.53553 Y4.2863 E1920.44234 ; EInc=18.54670 cartesianDistance=9.45882 angle=0.000 pulseDistance=0.51000
; 
; feature travel
PRIO_OFF
G0 X-12.03205 Y4.2863 ; cartesianDistance=0.49652 (Travel)
; 
; feature fill
PRIO_ON
G1 X-16.02952 Y-4.2863 E1938.98904 ; EInc=18.54670 cartesianDistance=9.45882 angle=0.000 pulseDistance=0.51000
; 
; feature travel
PRIO_OFF
G0 X-16.52604 Y-4.2863 ; cartesianDistance=0.49652 (Travel)
; 
; feature fill
PRIO_ON
G1 X-12.52857 Y4.2863 E1957.53574 ; EInc=18.54670 cartesianDistance=9.45882 angle=0.000 pulseDistance=0.51000
; 
; feature travel
PRIO_OFF
G0 X-13.02509 Y4.2863 ; cartesianDistance=0.49652 (Travel)
; 
; feature fill
PRIO_ON
G1 X-17.02256 Y-4.2863 E1976.08244 ; EInc=18.54670 cartesianDistance=9.45882 angle=0.000 pulseDistance=0.51000
; 
; feature travel
PRIO_OFF
G0 X-17.51908 Y-4.2863 ; cartesianDistance=0.49652 (Travel)
; 
; feature fill
PRIO_ON
G1 X-13.52161 Y4.2863 E1994.62914 ; EInc=18.54670 cartesianDistance=9.45882 angle=0.000 pulseDistance=0.51000
; 
; feature travel
PRIO_OFF
G0 X-14.01813 Y4.2863 ; cartesianDistance=0.49652 (Travel)
; 
; feature fill
PRIO_ON
G1 X-18.0156 Y-4.2863 E2013.17584 ; EInc=18.54670 cartesianDistance=9.45882 angle=0.000 pulseDistance=0.51000
; 
; feature travel
PRIO_OFF
G0 X-18.51212 Y-4.2863 ; cartesianDistance=0.49652 (Travel)
; 
; feature fill
PRIO_ON
G1 X-14.51465 Y4.2863 E2031.72254 ; EInc=18.54670 cartesianDistance=9.45882 angle=0.000 pulseDistance=0.51000
; 
; feature travel
PRIO_OFF
G0 X-15.01117 Y4.2863 ; cartesianDistance=0.49652 (Travel)
; 
; feature fill
PRIO_ON
G1 X-19.00864 Y-4.2863 E2050.26924 ; EInc=18.54670 cartesianDistance=9.45882 angle=0.000 pulseDistance=0.51000
; 
; feature travel
PRIO_OFF
G0 X-19.50516 Y-4.2863 ; cartesianDistance=0.49652 (Travel)
; 
; feature fill
PRIO_ON
G1 X-15.50769 Y4.2863 E2068.81594 ; EInc=18.54670 cartesianDistance=9.45882 angle=0.000 pulseDistance=0.51000
; 
; feature travel
PRIO_OFF
G0 X-16.00421 Y4.2863 ; cartesianDistance=0.49652 (Travel)
; 
; feature fill
PRIO_ON
G1 X-20.00168 Y-4.2863 E2087.36264 ; EInc=18.54670 cartesianDistance=9.45882 angle=0.000 pulseDistance=0.51000
; 
; feature travel
PRIO_OFF
G0 X-20.4982 Y-4.2863 ; cartesianDistance=0.49652 (Travel)
; 
; feature fill
PRIO_ON
G1 X-16.50073 Y4.2863 E2105.90935 ; EInc=18.54670 cartesianDistance=9.45882 angle=0.000 pulseDistance=0.51000
; 
; feature travel
PRIO_OFF
G0 X-16.99725 Y4.2863 ; cartesianDistance=0.49652 (Travel)
; 
; feature fill
PRIO_ON
G1 X-20.99472 Y-4.2863 E2124.45605 ; EInc=18.54670 cartesianDistance=9.45882 angle=0.000 pulseDistance=0.51000
; 
; feature travel
PRIO_OFF
G0 X-21.49124 Y-4.2863 ; cartesianDistance=0.49652 (Travel)
; 
; feature fill
PRIO_ON
G1 X-17.49377 Y4.2863 E2143.00275 ; EInc=18.54670 cartesianDistance=9.45882 angle=0.000 pulseDistance=0.51000
; 
; feature travel
PRIO_OFF
G0 X-17.99029 Y4.2863 ; cartesianDistance=0.49652 (Travel)
; 
; feature fill
PRIO_ON
G1 X-21.98776 Y-4.2863 E2161.54945 ; EInc=18.54670 cartesianDistance=9.45882 angle=0.000 pulseDistance=0.51000
; 
; feature travel
PRIO_OFF
G0 X-22.48428 Y-4.2863 ; cartesianDistance=0.49652 (Travel)
; 
; feature fill
PRIO_ON
G1 X-18.48681 Y4.2863 E2180.09615 ; EInc=18.54670 cartesianDistance=9.45882 angle=0.000 pulseDistance=0.51000
; 
; feature travel
PRIO_OFF
G0 X-18.98333 Y4.2863 ; cartesianDistance=0.49652 (Travel)
; 
; feature fill
PRIO_ON
G1 X-22.9808 Y-4.2863 E2198.64285 ; EInc=18.54670 cartesianDistance=9.45882 angle=0.000 pulseDistance=0.51000
; 
; feature travel
PRIO_OFF
G0 X-23.47732 Y-4.2863 ; cartesianDistance=0.49652 (Travel)
; 
; feature fill
PRIO_ON
G1 X-19.47985 Y4.2863 E2217.18955 ; EInc=18.54670 cartesianDistance=9.45882 angle=0.000 pulseDistance=0.51000
; 
; feature travel
PRIO_OFF
G0 X-19.97637 Y4.2863 ; cartesianDistance=0.49652 (Travel)
; 
; feature fill
PRIO_ON
G1 X-23.97384 Y-4.2863 E2235.73625 ; EInc=18.54670 cartesianDistance=9.45882 angle=0.000 pulseDistance=0.51000
; 
; feature travel
PRIO_OFF
G0 X-24.47036 Y-4.2863 ; cartesianDistance=0.49652 (Travel)
; 
; feature fill
PRIO_ON
G1 X-20.47289 Y4.2863 E2254.28295 ; EInc=18.54670 cartesianDistance=9.45882 angle=0.000 pulseDistance=0.51000
; 
; feature travel
PRIO_OFF
G0 X-20.96941 Y4.2863 ; cartesianDistance=0.49652 (Travel)
; 
; feature fill
PRIO_ON
G1 X-24.4947 Y-3.27371 E2270.63894 ; EInc=16.35599 cartesianDistance=8.34155 angle=0.000 pulseDistance=0.51000
; 
; feature travel
PRIO_OFF
G0 X-24.4947 Y-2.20892 ; cartesianDistance=1.06479 (Travel)
; 
; feature fill
PRIO_ON
G1 X-21.46593 Y4.2863 E2284.69127 ; EInc=14.05233 cartesianDistance=7.16669 angle=0.000 pulseDistance=0.51000
; 
; feature travel
PRIO_OFF
G0 X-21.96245 Y4.2863 ; cartesianDistance=0.49652 (Travel)
; 
; feature fill
PRIO_ON
G1 X-24.4947 Y-1.14413 E2296.43993 ; EInc=11.74867 cartesianDistance=5.99182 angle=0.000 pulseDistance=0.51000
; 
; feature travel
PRIO_OFF
G0 X-24.4947 Y-0.07934 ; cartesianDistance=1.06479 (Travel)
; 
; feature fill
PRIO_ON
G1 X-22.45897 Y4.2863 E2305.88494 ; EInc=9.44501 cartesianDistance=4.81695 angle=0.000 pulseDistance=0.51000
; 
; feature travel
PRIO_OFF
G0 X-22.95549 Y4.2863 ; cartesianDistance=0.49652 (Travel)
; 
; feature fill
PRIO_ON
G1 X-24.4947 Y0.98545 E2313.02628 ; EInc=7.14135 cartesianDistance=3.64209 angle=0.000 pulseDistance=0.51000
; 
; feature travel
PRIO_OFF
G0 X-24.4947 Y2.05024 ; cartesianDistance=1.06479 (Travel)
; 
; feature fill
PRIO_ON
G1 X-23.45201 Y4.2863 E2317.86397 ; EInc=4.83769 cartesianDistance=2.46722 angle=0.000 pulseDistance=0.51000
; 
; feature travel
PRIO_OFF
G0 X-23.94853 Y4.2863 ; cartesianDistance=0.49652 (Travel)
; 
; feature fill
PRIO_ON
G1 X-24.4947 Y3.11503 E2320.39799 ; EInc=2.53403 cartesianDistance=1.29235 angle=0.000 pulseDistance=0.51000
; 
; feature travel
PRIO_OFF
G0 X-24.4947 Y4.17982 ; cartesianDistance=1.06479 (Travel)
; 
; feature fill
PRIO_ON
G1 X-24.44505 Y4.2863 E2320.62836 ; EInc=0.23037 cartesianDistance=0.11749 angle=0.000 pulseDistance=0.51000
PRIO_OFF
LayersCompleted=2
M1
; 
;========================
; layer 2, Z = 0.7200
; 
; reset extrusion
STOPRE
PRESETON(E, 0)
DO PRIO_PULSE_DISTANCE=DROP_SCALE
DO PRIO_ON_PATH_OFFSET=0.5*PRIO_PULSE_DISTANCE
;outer: (25.2604,-5.0521) (25.2604,5.0521) (-25.2604,5.0521) (-25.2604,-5.0521) (22.2604,-5.0521) holes: !
;overhangs:!
; 
; feature plane change
G0 X-24.44505 Y4.2863 Z0.72 ; cartesianDistance=0.00000 (Plane Change)
; 
; feature travel
G0 X24.8454 Y-3.10697 ; cartesianDistance=49.84184 (Travel)
; 
; feature outer perimeter
G1 F24000 FL[E] = OuterPerimeterFrequency * DROP_SCALE * 60
PRIO_ON
G1 X24.8454 Y4.637 E18.22111 ; EInc=18.22111 cartesianDistance=7.74397 angle=90.000 pulseDistance=0.42500
G1 X-24.8454 Y4.637 E135.14064 ; EInc=116.91953 cartesianDistance=49.69080 angle=90.000 pulseDistance=0.42500
G1 X-24.8454 Y-4.637 E156.96182 ; EInc=21.82118 cartesianDistance=9.27400 angle=90.000 pulseDistance=0.42500
G1 X24.8454 Y-4.637 E273.88135 ; EInc=116.91953 cartesianDistance=49.69080 angle=90.000 pulseDistance=0.42500
G1 X24.8454 Y-3.10697 E277.48141 ; EInc=3.60006 cartesianDistance=1.53003 angle=180.000 pulseDistance=0.42500
; 
; feature travel
PRIO_OFF
G0 X24.4944 Y-3.10697 ; cartesianDistance=0.35100 (Travel)
; 
; feature inner perimeter
G1 F24000 FL[E] = InnerPerimeterFrequency * DROP_SCALE * 60
PRIO_ON
G1 X24.4944 Y-4.286 E279.66479 ; EInc=2.18338 cartesianDistance=1.17903 angle=90.000 pulseDistance=0.54000
G1 X-24.4944 Y-4.286 E370.38479 ; EInc=90.72000 cartesianDistance=48.98880 angle=90.000 pulseDistance=0.54000
G1 X-24.4944 Y4.286 E386.25887 ; EInc=15.87407 cartesianDistance=8.57200 angle=90.000 pulseDistance=0.54000
G1 X24.4944 Y4.286 E476.97887 ; EInc=90.72000 cartesianDistance=48.98880 angle=90.000 pulseDistance=0.54000
G1 X24.4944 Y-3.10697 E490.66956 ; EInc=13.69069 cartesianDistance=7.39297 angle=180.000 pulseDistance=0.54000
; 
; feature travel
PRIO_OFF
G0 X24.4947 Y-3.23367 ; cartesianDistance=0.12669 (Travel)
; 
; feature fill
G1 F24000 FL[E] = FillFrequency * DROP_SCALE * 60
PRIO_ON
G1 X21.75766 Y4.2863 E506.36089 ; EInc=15.69133 cartesianDistance=8.00258 angle=0.000 pulseDistance=0.51000
; 
; feature travel
PRIO_OFF
G0 X22.23654 Y4.2863 ; cartesianDistance=0.47888 (Travel)
; 
; feature fill
PRIO_ON
G1 X24.4947 Y-1.91795 E519.30683 ; EInc=12.94594 cartesianDistance=6.60243 angle=0.000 pulseDistance=0.51000
; 
; feature travel
PRIO_OFF
G0 X24.4947 Y-0.60224 ; cartesianDistance=1.31571 (Travel)
; 
; feature fill
PRIO_ON
G1 X22.71542 Y4.2863 E529.50737 ; EInc=10.20054 cartesianDistance=5.20228 angle=0.000 pulseDistance=0.51000
; 
; feature travel
PRIO_OFF
G0 X23.1943 Y4.2863 ; cartesianDistance=0.47888 (Travel)
; 
; feature fill
PRIO_ON
G1 X24.4947 Y0.71347 E536.96252 ; EInc=7.45515 cartesianDistance=3.80213 angle=0.000 pulseDistance=0.51000
; 
; feature travel
PRIO_OFF
G0 X24.4947 Y2.02918 ; cartesianDistance=1.31571 (Travel)
; 
; feature fill
PRIO_ON
G1 X23.67318 Y4.2863 E541.67227 ; EInc=4.70975 cartesianDistance=2.40197 angle=0.000 pulseDistance=0.51000
; 
; feature travel
PRIO_OFF
G0 X24.15206 Y4.2863 ; cartesianDistance=0.47888 (Travel)
; 
; feature fill
PRIO_ON
G1 X24.4947 Y3.34489 E543.63663 ; EInc=1.96436 cartesianDistance=1.00182 angle=0.000 pulseDistance=0.51000
; 
; feature travel
PRIO_OFF
G0 X21.27878 Y4.2863 ; cartesianDistance=3.35088 (Travel)
; 
; feature fill
PRIO_ON
G1 X24.39895 Y-4.2863 E561.52442 ; EInc=17.88779 cartesianDistance=9.12277 angle=0.000 pulseDistance=0.51000
; 
; feature travel
PRIO_OFF
G0 X23.92007 Y-4.2863 ; cartesianDistance=0.47888 (Travel)
; 
; feature fill
PRIO_ON
G1 X20.7999 Y4.2863 E579.4122 ; EInc=17.88779 cartesianDistance=9.12277 angle=0.000 pulseDistance=0.51000
; 
; feature travel
PRIO_OFF
G0 X20.32102 Y4.2863 ; cartesianDistance=0.47888 (Travel)
; 
; feature fill
PRIO_ON
G1 X23.44119 Y-4.2863 E597.29999 ; EInc=17.88779 cartesianDistance=9.12277 angle=0.000 pulseDistance=0.51000
; 
; feature travel
PRIO_OFF
G0 X22.96231 Y-4.2863 ; cartesianDistance=0.47888 (Travel)
; 
; feature fill
PRIO_ON
G1 X19.84214 Y4.2863 E615.18777 ; EInc=17.88779 cartesianDistance=9.12277 angle=0.000 pulseDistance=0.51000
; 
; feature travel
PRIO_OFF
G0 X19.36326 Y4.2863 ; cartesianDistance=0.47888 (Travel)
; 
; feature fill
PRIO_ON
G1 X22.48343 Y-4.2863 E633.07556 ; EInc=17.88779 cartesianDistance=9.12277 angle=0.000 pulseDistance=0.51000
; 
; feature travel
PRIO_OFF
G0 X22.00455 Y-4.2863 ; cartesianDistance=0.47888 (Travel)
; 
; feature fill
PRIO_ON
G1 X18.88438 Y4.2863 E650.96334 ; EInc=17.88779 cartesianDistance=9.12277 angle=0.000 pulseDistance=0.51000
; 
; feature travel
PRIO_OFF
G0 X18.4055 Y4.2863 ; cartesianDistance=0.47888 (Travel)
; 
; feature fill
PRIO_ON
G1 X21.52567 Y-4.2863 E668.85113 ; EInc=17.88779 cartesianDistance=9.12277 angle=0.000 pulseDistance=0.51000
; 
; feature travel
PRIO_OFF
G0 X21.04679 Y-4.2863 ; cartesianDistance=0.47888 (Travel)
; 
; feature fill
PRIO_ON
G1 X17.92662 Y4.2863 E686.73891 ; EInc=17.88779 cartesianDistance=9.12277 angle=0.000 pulseDistance=0.51000
; 
; feature travel
PRIO_OFF
G0 X17.44774 Y4.2863 ; cartesianDistance=0.47888 (Travel)
; 
; feature fill
PRIO_ON
G1 X20.56791 Y-4.2863 E704.6267 ; EInc=17.88779 cartesianDistance=9.12277 angle=0.000 pulseDistance=0.51000
; 
; feature travel
PRIO_OFF
G0 X20.08903 Y-4.2863 ; cartesianDistance=0.47888 (Travel)
; 
; feature fill
PRIO_ON
G1 X16.96886 Y4.2863 E722.51448 ; EInc=17.88779 cartesianDistance=9.12277 angle=0.000 pulseDistance=0.51000
; 
; feature travel
PRIO_OFF
G0 X16.48998 Y4.2863 ; cartesianDistance=0.47888 (Travel)
; 
; feature fill
PRIO_ON
G1 X19.61015 Y-4.2863 E740.40227 ; EInc=17.88779 cartesianDistance=9.12277 angle=0.000 pulseDistance=0.51000
; 
; feature travel
PRIO_OFF
G0 X19.13127 Y-4.2863 ; cartesianDistance=0.47888 (Travel)
; 
; feature fill
PRIO_ON
G1 X16.0111 Y4.2863 E758.29005 ; EInc=17.88779 cartesianDistance=9.12277 angle=0.000 pulseDistance=0.51000
; 
; feature travel
PRIO_OFF
G0 X15.53222 Y4.2863 ; cartesianDistance=0.47888 (Travel)
; 
; feature fill
PRIO_ON
G1 X18.65239 Y-4.2863 E776.17784 ; EInc=17.88779 cartesianDistance=9.12277 angle=0.000 pulseDistance=0.51000
; 
; feature travel
PRIO_OFF
G0 X18.17351 Y-4.2863 ; cartesianDistance=0.47888 (Travel)
; 
; feature fill
PRIO_ON
G1 X15.05334 Y4.2863 E794.06562 ; EInc=17.88779 cartesianDistance=9.12277 angle=0.000 pulseDistance=0.51000
; 
; feature travel
PRIO_OFF
G0 X14.57446 Y4.2863 ; cartesianDistance=0.47888 (Travel)
; 
; feature fill
PRIO_ON
G1 X17.69463 Y-4.2863 E811.95341 ; EInc=17.88779 cartesianDistance=9.12277 angle=0.000 pulseDistance=0.51000
; 
; feature travel
PRIO_OFF
G0 X17.21575 Y-4.2863 ; cartesianDistance=0.47888 (Travel)
; 
; feature fill
PRIO_ON
G1 X14.09558 Y4.2863 E829.84119 ; EInc=17.88779 cartesianDistance=9.12277 angle=0.000 pulseDistance=0.51000
; 
; feature travel
PRIO_OFF
G0 X13.6167 Y4.2863 ; cartesianDistance=0.47888 (Travel)
; 
; feature fill
PRIO_ON
G1 X16.73687 Y-4.2863 E847.72898 ; EInc=17.88779 cartesianDistance=9.12277 angle=0.000 pulseDistance=0.51000
; 
; feature travel
PRIO_OFF
G0 X16.25799 Y-4.2863 ; cartesianDistance=0.47888 (Travel)
; 
; feature fill
PRIO_ON
G1 X13.13782 Y4.2863 E865.61676 ; EInc=17.88779 cartesianDistance=9.12277 angle=0.000 pulseDistance=0.51000
; 
; feature travel
PRIO_OFF
G0 X12.65894 Y4.2863 ; cartesianDistance=0.47888 (Travel)
; 
; feature fill
PRIO_ON
G1 X15.77911 Y-4.2863 E883.50455 ; EInc=17.88779 cartesianDistance=9.12277 angle=0.000 pulseDistance=0.51000
; 
; feature travel
PRIO_OFF
G0 X15.30023 Y-4.2863 ; cartesianDistance=0.47888 (Travel)
; 
; feature fill
PRIO_ON
G1 X12.18006 Y4.2863 E901.39233 ; EInc=17.88779 cartesianDistance=9.12277 angle=0.000 pulseDistance=0.51000
; 
; feature travel
PRIO_OFF
G0 X11.70118 Y4.2863 ; cartesianDistance=0.47888 (Travel)
; 
; feature fill
PRIO_ON
G1 X14.82135 Y-4.2863 E919.28012 ; EInc=17.88779 cartesianDistance=9.12277 angle=0.000 pulseDistance=0.51000
; 
; feature travel
PRIO_OFF
G0 X14.34247 Y-4.2863 ; cartesianDistance=0.47888 (Travel)
; 
; feature fill
PRIO_ON
G1 X11.2223 Y4.2863 E937.1679 ; EInc=17.88779 cartesianDistance=9.12277 angle=0.000 pulseDistance=0.51000
; 
; feature travel
PRIO_OFF
G0 X10.74342 Y4.2863 ; cartesianDistance=0.47888 (Travel)
; 
; feature fill
PRIO_ON
G1 X13.86359 Y-4.2863 E955.05569 ; EInc=17.88779 cartesianDistance=9.12277 angle=0.000 pulseDistance=0.51000
; 
; feature travel
PRIO_OFF
G0 X13.38471 Y-4.2863 ; cartesianDistance=0.47888 (Travel)
; 
; feature fill
PRIO_ON
G1 X10.26454 Y4.2863 E972.94347 ; EInc=17.88779 cartesianDistance=9.12277 angle=0.000 pulseDistance=0.51000
; 
; feature travel
PRIO_OFF
G0 X9.78566 Y4.2863 ; cartesianDistance=0.47888 (Travel)
; 
; feature fill
PRIO_ON
G1 X12.90583 Y-4.2863 E990.83126 ; EInc=17.88779 cartesianDistance=9.12277 angle=0.000 pulseDistance=0.51000
; 
; feature travel
PRIO_OFF
G0 X12.42695 Y-4.2863 ; cartesianDistance=0.47888 (Travel)
; 
; feature fill
PRIO_ON
G1 X9.30678 Y4.2863 E1008.71904 ; EInc=17.88779 cartesianDistance=9.12277 angle=0.000 pulseDistance=0.51000
; 
; feature travel
PRIO_OFF
G0 X8.8279 Y4.2863 ; cartesianDistance=0.47888 (Travel)
; 
; feature fill
PRIO_ON
G1 X11.94807 Y-4.2863 E1026.60683 ; EInc=17.88779 cartesianDistance=9.12277 angle=0.000 pulseDistance=0.51000
; 
; feature travel
PRIO_OFF
G0 X11.46919 Y-4.2863 ; cartesianDistance=0.47888 (Travel)
; 
; feature fill
PRIO_ON
G1 X8.34902 Y4.2863 E1044.49461 ; EInc=17.88779 cartesianDistance=9.12277 angle=0.000 pulseDistance=0.51000
; 
; feature travel
PRIO_OFF
G0 X7.87014 Y4.2863 ; cartesianDistance=0.47888 (Travel)
; 
; feature fill
PRIO_ON
G1 X10.99031 Y-4.2863 E1062.3824 ; EInc=17.88779 cartesianDistance=9.12277 angle=0.000 pulseDistance=0.51000
; 
; feature travel
PRIO_OFF
G0 X10.51143 Y-4.2863 ; cartesianDistance=0.47888 (Travel)
; 
; feature fill
PRIO_ON
G1 X7.39126 Y4.2863 E1080.27018 ; EInc=17.88779 cartesianDistance=9.12277 angle=0.000 pulseDistance=0.51000
; 
; feature travel
PRIO_OFF
G0 X6.91238 Y4.2863 ; cartesianDistance=0.47888 (Travel)
; 
; feature fill
PRIO_ON
G1 X10.03255 Y-4.2863 E1098.15797 ; EInc=17.88779 cartesianDistance=9.12277 angle=0.000 pulseDistance=0.51000
; 
; feature travel
PRIO_OFF
G0 X9.55367 Y-4.2863 ; cartesianDistance=0.47888 (Travel)
; 
; feature fill
PRIO_ON
G1 X6.4335 Y4.2863 E1116.04575 ; EInc=17.88779 cartesianDistance=9.12277 angle=0.000 pulseDistance=0.51000
; 
; feature travel
PRIO_OFF
G0 X5.95462 Y4.2863 ; cartesianDistance=0.47888 (Travel)
; 
; feature fill
PRIO_ON
G1 X9.07479 Y-4.2863 E1133.93354 ; EInc=17.88779 cartesianDistance=9.12277 angle=0.000 pulseDistance=0.51000
; 
; feature travel
PRIO_OFF
G0 X8.59591 Y-4.2863 ; cartesianDistance=0.47888 (Travel)
; 
; feature fill
PRIO_ON
G1 X5.47574 Y4.2863 E1151.82132 ; EInc=17.88779 cartesianDistance=9.12277 angle=0.000 pulseDistance=0.51000
; 
; feature travel
PRIO_OFF
G0 X4.99686 Y4.2863 ; cartesianDistance=0.47888 (Travel)
; 
; feature fill
PRIO_ON
G1 X8.11703 Y-4.2863 E1169.70911 ; EInc=17.88779 cartesianDistance=9.12277 angle=0.000 pulseDistance=0.51000
; 
; feature travel
PRIO_OFF
G0 X7.63815 Y-4.2863 ; cartesianDistance=0.47888 (Travel)
; 
; feature fill
PRIO_ON
G1 X4.51798 Y4.2863 E1187.59689 ; EInc=17.88779 cartesianDistance=9.12277 angle=0.000 pulseDistance=0.51000
; 
; feature travel
PRIO_OFF
G0 X4.0391 Y4.2863 ; cartesianDistance=0.47888 (Travel)
; 
; feature fill
PRIO_ON
G1 X7.15927 Y-4.2863 E1205.48468 ; EInc=17.88779 cartesianDistance=9.12277 angle=0.000 pulseDistance=0.51000
; 
; feature travel
PRIO_OFF
G0 X6.68039 Y-4.2863 ; cartesianDistance=0.47888 (Travel)
; 
; feature fill
PRIO_ON
G1 X3.56022 Y4.2863 E1223.37246 ; EInc=17.88779 cartesianDistance=9.12277 angle=0.000 pulseDistance=0.51000
; 
; feature travel
PRIO_OFF
G0 X3.08134 Y4.2863 ; cartesianDistance=0.47888 (Travel)
; 
; feature fill
PRIO_ON
G1 X6.20151 Y-4.2863 E1241.26025 ; EInc=17.88779 cartesianDistance=9.12277 angle=0.000 pulseDistance=0.51000
; 
; feature travel
PRIO_OFF
G0 X5.72263 Y-4.2863 ; cartesianDistance=0.47888 (Travel)
; 
; feature fill
PRIO_ON
G1 X2.60246 Y4.2863 E1259.14803 ; EInc=17.88779 cartesianDistance=9.12277 angle=0.000 pulseDistance=0.51000
; 
; feature travel
PRIO_OFF
G0 X2.12358 Y4.2863 ; cartesianDistance=0.47888 (Travel)
; 
; feature fill
PRIO_ON
G1 X5.24375 Y-4.2863 E1277.03582 ; EInc=17.88779 cartesianDistance=9.12277 angle=0.000 pulseDistance=0.51000
; 
; feature travel
PRIO_OFF
G0 X4.76487 Y-4.2863 ; cartesianDistance=0.47888 (Travel)
; 
; feature fill
PRIO_ON
G1 X1.6447 Y4.2863 E1294.9236 ; EInc=17.88779 cartesianDistance=9.12277 angle=0.000 pulseDistance=0.51000
; 
; feature travel
PRIO_OFF
G0 X1.16582 Y4.2863 ; cartesianDistance=0.47888 (Travel)
; 
; feature fill
PRIO_ON
G1 X4.28599 Y-4.2863 E1312.81139 ; EInc=17.88779 cartesianDistance=9.12277 angle=0.000 pulseDistance=0.51000
; 
; feature travel
PRIO_OFF
G0 X3.80711 Y-4.2863 ; cartesianDistance=0.47888 (Travel)
; 
; feature fill
PRIO_ON
G1 X0.68694 Y4.2863 E1330.69917 ; EInc=17.88779 cartesianDistance=9.12277 angle=0.000 pulseDistance=0.51000
; 
; feature travel
PRIO_OFF
G0 X0.20806 Y4.2863 ; cartesianDistance=0.47888 (Travel)
; 
; feature fill
PRIO_ON
G1 X3.32823 Y-4.2863 E1348.58696 ; EInc=17.88779 cartesianDistance=9.12277 angle=0.000 pulseDistance=0.51000
; 
; feature travel
PRIO_OFF
G0 X2.84935 Y-4.2863 ; cartesianDistance=0.47888 (Travel)
; 
; feature fill
PRIO_ON
G1 X-0.27082 Y4.2863 E1366.47474 ; EInc=17.88779 cartesianDistance=9.12277 angle=0.000 pulseDistance=0.51000
; 
; feature travel
PRIO_OFF
G0 X-0.7497 Y4.2863 ; cartesianDistance=0.47888 (Travel)
; 
; feature fill
PRIO_ON
G1 X2.37047 Y-4.2863 E1384.36253 ; EInc=17.88779 cartesianDistance=9.12277 angle=0.000 pulseDistance=0.51000
; 
; feature travel
PRIO_OFF
G0 X1.89159 Y-4.2863 ; cartesianDistance=0.47888 (Travel)
; 
; feature fill
PRIO_ON
G1 X-1.22858 Y4.2863 E1402.25031 ; EInc=17.88779 cartesianDistance=9.12277 angle=0.000 pulseDistance=0.51000
; 
; feature travel
PRIO_OFF
G0 X-1.70746 Y4.2863 ; cartesianDistance=0.47888 (Travel)
; 
; feature fill
PRIO_ON
G1 X1.41271 Y-4.2863 E1420.1381 ; EInc=17.88779 cartesianDistance=9.12277 angle=0.000 pulseDistance=0.51000
; 
; feature travel
PRIO_OFF
G0 X0.93383 Y-4.2863 ; cartesianDistance=0.47888 (Travel)
; 
; feature fill
PRIO_ON
G1 X-2.18634 Y4.2863 E1438.02588 ; EInc=17.88779 cartesianDistance=9.12277 angle=0.000 pulseDistance=0.51000
; 
; feature travel
PRIO_OFF
G0 X-2.66522 Y4.2863 ; cartesianDistance=0.47888 (Travel)
; 
; feature fill
PRIO_ON
G1 X0.45495 Y-4.2863 E1455.91367 ; EInc=17.88779 cartesianDistance=9.12277 angle=0.000 pulseDistance=0.51000
; 
; feature travel
PRIO_OFF
G0 X-0.02393 Y-4.2863 ; cartesianDistance=0.47888 (Travel)
; 
; feature fill
PRIO_ON
G1 X-3.1441 Y4.2863 E1473.80145 ; EInc=17.88779 cartesianDistance=9.12277 angle=0.000 pulseDistance=0.51000
; 
; feature travel
PRIO_OFF
G0 X-3.62298 Y4.2863 ; cartesianDistance=0.47888 (Travel)
; 
; feature fill
PRIO_ON
G1 X-0.50281 Y-4.2863 E1491.68924 ; EInc=17.88779 cartesianDistance=9.12277 angle=0.000 pulseDistance=0.51000
; 
; feature travel
PRIO_OFF
G0 X-0.98169 Y-4.2863 ; cartesianDistance=0.47888 (Travel)
; 
; feature fill
PRIO_ON
G1 X-4.10186 Y4.2863 E1509.57702 ; EInc=17.88779 cartesianDistance=9.12277 angle=0.000 pulseDistance=0.51000
; 
; feature travel
PRIO_OFF
G0 X-4.58074 Y4.2863 ; cartesianDistance=0.47888 (Travel)
; 
; feature fill
PRIO_ON
G1 X-1.46057 Y-4.2863 E1527.46481 ; EInc=17.88779 cartesianDistance=9.12277 angle=0.000 pulseDistance=0.51000
; 
; feature travel
PRIO_OFF
G0 X-1.93945 Y-4.2863 ; cartesianDistance=0.47888 (Travel)
; 
; feature fill
PRIO_ON
G1 X-5.05962 Y4.2863 E1545.35259 ; EInc=17.88779 cartesianDistance=9.12277 angle=0.000 pulseDistance=0.51000
; 
; feature travel
PRIO_OFF
G0 X-5.5385 Y4.2863 ; cartesianDistance=0.47888 (Travel)
; 
; feature fill
PRIO_ON
G1 X-2.41833 Y-4.2863 E1563.24038 ; EInc=17.88779 cartesianDistance=9.12277 angle=0.000 pulseDistance=0.51000
; 
; feature travel
PRIO_OFF
G0 X-2.89721 Y-4.2863 ; cartesianDistance=0.47888 (Travel)
; 
; feature fill
PRIO_ON
G1 X-6.01738 Y4.2863 E1581.12816 ; EInc=17.88779 cartesianDistance=9.12277 angle=0.000 pulseDistance=0.51000
; 
; feature travel
PRIO_OFF
G0 X-6.49626 Y4.2863 ; cartesianDistance=0.47888 (Travel)
; 
; feature fill
PRIO_ON
G1 X-3.37609 Y-4.2863 E1599.01595 ; EInc=17.88779 cartesianDistance=9.12277 angle=0.000 pulseDistance=0.51000
; 
; feature travel
PRIO_OFF
G0 X-3.85497 Y-4.2863 ; cartesianDistance=0.47888 (Travel)
; 
; feature fill
PRIO_ON
G1 X-6.97514 Y4.2863 E1616.90373 ; EInc=17.88779 cartesianDistance=9.12277 angle=0.000 pulseDistance=0.51000
; 
; feature travel
PRIO_OFF
G0 X-7.45402 Y4.2863 ; cartesianDistance=0.47888 (Travel)
; 
; feature fill
PRIO_ON
G1 X-4.33385 Y-4.2863 E1634.79152 ; EInc=17.88779 cartesianDistance=9.12277 angle=0.000 pulseDistance=0.51000
; 
; feature travel
PRIO_OFF
G0 X-4.81273 Y-4.2863 ; cartesianDistance=0.47888 (Travel)
; 
; feature fill
PRIO_ON
G1 X-7.9329 Y4.2863 E1652.6793 ; EInc=17.88779 cartesianDistance=9.12277 angle=0.000 pulseDistance=0.51000
; 
; feature travel
PRIO_OFF
G0 X-8.41178 Y4.2863 ; cartesianDistance=0.47888 (Travel)
; 
; feature fill
PRIO_ON
G1 X-5.29161 Y-4.2863 E1670.56709 ; EInc=17.88779 cartesianDistance=9.12277 angle=0.000 pulseDistance=0.51000
; 
; feature travel
PRIO_OFF
G0 X-5.77049 Y-4.2863 ; cartesianDistance=0.47888 (Travel)
; 
; feature fill
PRIO_ON
G1 X-8.89066 Y4.2863 E1688.45488 ; EInc=17.88779 cartesianDistance=9.12277 angle=0.000 pulseDistance=0.51000
; 
; feature travel
PRIO_OFF
G0 X-9.36954 Y4.2863 ; cartesianDistance=0.47888 (Travel)
; 
; feature fill
PRIO_ON
G1 X-6.24937 Y-4.2863 E1706.34266 ; EInc=17.88779 cartesianDistance=9.12277 angle=0.000 pulseDistance=0.51000
; 
; feature travel
PRIO_OFF
G0 X-6.72825 Y-4.2863 ; cartesianDistance=0.47888 (Travel)
; 
; feature fill
PRIO_ON
G1 X-9.84842 Y4.2863 E1724.23045 ; EInc=17.88779 cartesianDistance=9.12277 angle=0.000 pulseDistance=0.51000
; 
; feature travel
PRIO_OFF
G0 X-10.3273 Y4.2863 ; cartesianDistance=0.47888 (Travel)
; 
; feature fill
PRIO_ON
G1 X-7.20713 Y-4.2863 E1742.11823 ; EInc=17.88779 cartesianDistance=9.12277 angle=0.000 pulseDistance=0.51000
; 
; feature travel
PRIO_OFF
G0 X-7.68601 Y-4.2863 ; cartesianDistance=0.47888 (Travel)
; 
; feature fill
PRIO_ON
G1 X-10.80618 Y4.2863 E1760.00602 ; EInc=17.88779 cartesianDistance=9.12277 angle=0.000 pulseDistance=0.51000
; 
; feature travel
PRIO_OFF
G0 X-11.28506 Y4.2863 ; cartesianDistance=0.47888 (Travel)
; 
; feature fill
PRIO_ON
G1 X-8.16489 Y-4.2863 E1777.8938 ; EInc=17.88779 cartesianDistance=9.12277 angle=0.000 pulseDistance=0.51000
; 
; feature travel
PRIO_OFF
G0 X-8.64377 Y-4.2863 ; cartesianDistance=0.47888 (Travel)
; 
; feature fill
PRIO_ON
G1 X-11.76394 Y4.2863 E1795.78159 ; EInc=17.88779 cartesianDistance=9.12277 angle=0.000 pulseDistance=0.51000
; 
; feature travel
PRIO_OFF
G0 X-12.24282 Y4.2863 ; cartesianDistance=0.47888 (Travel)
; 
; feature fill
PRIO_ON
G1 X-9.12265 Y-4.2863 E1813.66937 ; EInc=17.88779 cartesianDistance=9.12277 angle=0.000 pulseDistance=0.51000
; 
; feature travel
PRIO_OFF
G0 X-9.60153 Y-4.2863 ; cartesianDistance=0.47888 (Travel)
; 
; feature fill
PRIO_ON
G1 X-12.7217 Y4.2863 E1831.55716 ; EInc=17.88779 cartesianDistance=9.12277 angle=0.000 pulseDistance=0.51000
; 
; feature travel
PRIO_OFF
G0 X-13.20058 Y4.2863 ; cartesianDistance=0.47888 (Travel)
; 
; feature fill
PRIO_ON
G1 X-10.08041 Y-4.2863 E1849.44494 ; EInc=17.88779 cartesianDistance=9.12277 angle=0.000 pulseDistance=0.51000
; 
; feature travel
PRIO_OFF
G0 X-10.55929 Y-4.2863 ; cartesianDistance=0.47888 (Travel)
; 
; feature fill
PRIO_ON
G1 X-13.67946 Y4.2863 E1867.33273 ; EInc=17.88779 cartesianDistance=9.12277 angle=0.000 pulseDistance=0.51000
; 
; feature travel
PRIO_OFF
G0 X-14.15834 Y4.2863 ; cartesianDistance=0.47888 (Travel)
; 
; feature fill
PRIO_ON
G1 X-11.03817 Y-4.2863 E1885.22051 ; EInc=17.88779 cartesianDistance=9.12277 angle=0.000 pulseDistance=0.51000
; 
; feature travel
PRIO_OFF
G0 X-11.51705 Y-4.2863 ; cartesianDistance=0.47888 (Travel)
; 
; feature fill
PRIO_ON
G1 X-14.63722 Y4.2863 E1903.1083 ; EInc=17.88779 cartesianDistance=9.12277 angle=0.000 pulseDistance=0.51000
; 
; feature travel
PRIO_OFF
G0 X-15.1161 Y4.2863 ; cartesianDistance=0.47888 (Travel)
; 
; feature fill
PRIO_ON
G1 X-11.99593 Y-4.2863 E1920.99608 ; EInc=17.88779 cartesianDistance=9.12277 angle=0.000 pulseDistance=0.51000
; 
; feature travel
PRIO_OFF
G0 X-12.47481 Y-4.2863 ; cartesianDistance=0.47888 (Travel)
; 
; feature fill
PRIO_ON
G1 X-15.59498 Y4.2863 E1938.88387 ; EInc=17.88779 cartesianDistance=9.12277 angle=0.000 pulseDistance=0.51000
; 
; feature travel
PRIO_OFF
G0 X-16.07386 Y4.2863 ; cartesianDistance=0.47888 (Travel)
; 
; feature fill
PRIO_ON
G1 X-12.95369 Y-4.2863 E1956.77165 ; EInc=17.88779 cartesianDistance=9.12277 angle=0.000 pulseDistance=0.51000
; 
; feature travel
PRIO_OFF
G0 X-13.43257 Y-4.2863 ; cartesianDistance=0.47888 (Travel)
; 
; feature fill
PRIO_ON
G1 X-16.55274 Y4.2863 E1974.65944 ; EInc=17.88779 cartesianDistance=9.12277 angle=0.000 pulseDistance=0.51000
; 
; feature travel
PRIO_OFF
G0 X-17.03162 Y4.2863 ; cartesianDistance=0.47888 (Travel)
; 
; feature fill
PRIO_ON
G1 X-13.91145 Y-4.2863 E1992.54722 ; EInc=17.88779 cartesianDistance=9.12277 angle=0.000 pulseDistance=0.51000
; 
; feature travel
PRIO_OFF
G0 X-14.39033 Y-4.2863 ; cartesianDistance=0.47888 (Travel)
; 
; feature fill
PRIO_ON
G1 X-17.5105 Y4.2863 E2010.43501 ; EInc=17.88779 cartesianDistance=9.12277 angle=0.000 pulseDistance=0.51000
; 
; feature travel
PRIO_OFF
G0 X-17.98938 Y4.2863 ; cartesianDistance=0.47888 (Travel)
; 
; feature fill
PRIO_ON
G1 X-14.86921 Y-4.2863 E2028.32279 ; EInc=17.88779 cartesianDistance=9.12277 angle=0.000 pulseDistance=0.51000
; 
; feature travel
PRIO_OFF
G0 X-15.34809 Y-4.2863 ; cartesianDistance=0.47888 (Travel)
; 
; feature fill
PRIO_ON
G1 X-18.46826 Y4.2863 E2046.21058 ; EInc=17.88779 cartesianDistance=9.12277 angle=0.000 pulseDistance=0.51000
; 
; feature travel
PRIO_OFF
G0 X-18.94714 Y4.2863 ; cartesianDistance=0.47888 (Travel)
; 
; feature fill
PRIO_ON
G1 X-15.82697 Y-4.2863 E2064.09836 ; EInc=17.88779 cartesianDistance=9.12277 angle=0.000 pulseDistance=0.51000
; 
; feature travel
PRIO_OFF
G0 X-16.30585 Y-4.2863 ; cartesianDistance=0.47888 (Travel)
; 
; feature fill
PRIO_ON
G1 X-19.42602 Y4.2863 E2081.98615 ; EInc=17.88779 cartesianDistance=9.12277 angle=0.000 pulseDistance=0.51000
; 
; feature travel
PRIO_OFF
G0 X-19.9049 Y4.2863 ; cartesianDistance=0.47888 (Travel)
; 
; feature fill
PRIO_ON
G1 X-16.78473 Y-4.2863 E2099.87393 ; EInc=17.88779 cartesianDistance=9.12277 angle=0.000 pulseDistance=0.51000
; 
; feature travel
PRIO_OFF
G0 X-17.26361 Y-4.2863 ; cartesianDistance=0.47888 (Travel)
; 
; feature fill
PRIO_ON
G1 X-20.38378 Y4.2863 E2117.76172 ; EInc=17.88779 cartesianDistance=9.12277 angle=0.000 pulseDistance=0.51000
; 
; feature travel
PRIO_OFF
G0 X-20.86266 Y4.2863 ; cartesianDistance=0.47888 (Travel)
; 
; feature fill
PRIO_ON
G1 X-17.74249 Y-4.2863 E2135.6495 ; EInc=17.88779 cartesianDistance=9.12277 angle=0.000 pulseDistance=0.51000
; 
; feature travel
PRIO_OFF
G0 X-18.22137 Y-4.2863 ; cartesianDistance=0.47888 (Travel)
; 
; feature fill
PRIO_ON
G1 X-21.34154 Y4.2863 E2153.53729 ; EInc=17.88779 cartesianDistance=9.12277 angle=0.000 pulseDistance=0.51000
; 
; feature travel
PRIO_OFF
G0 X-21.82042 Y4.2863 ; cartesianDistance=0.47888 (Travel)
; 
; feature fill
PRIO_ON
G1 X-18.70025 Y-4.2863 E2171.42507 ; EInc=17.88779 cartesianDistance=9.12277 angle=0.000 pulseDistance=0.51000
; 
; feature travel
PRIO_OFF
G0 X-19.17913 Y-4.2863 ; cartesianDistance=0.47888 (Travel)
; 
; feature fill
PRIO_ON
G1 X-22.2993 Y4.2863 E2189.31286 ; EInc=17.88779 cartesianDistance=9.12277 angle=0.000 pulseDistance=0.51000
; 
; feature travel
PRIO_OFF
G0 X-22.77818 Y4.2863 ; cartesianDistance=0.47888 (Travel)
; 
; feature fill
PRIO_ON
G1 X-19.65801 Y-4.2863 E2207.20064 ; EInc=17.88779 cartesianDistance=9.12277 angle=0.000 pulseDistance=0.51000
; 
; feature travel
PRIO_OFF
G0 X-20.13689 Y-4.2863 ; cartesianDistance=0.47888 (Travel)
; 
; feature fill
PRIO_ON
G1 X-23.25706 Y4.2863 E2225.08843 ; EInc=17.88779 cartesianDistance=9.12277 angle=0.000 pulseDistance=0.51000
; 
; feature travel
PRIO_OFF
G0 X-23.73594 Y4.2863 ; cartesianDistance=0.47888 (Travel)
; 
; feature fill
PRIO_ON
G1 X-20.61577 Y-4.2863 E2242.97621 ; EInc=17.88779 cartesianDistance=9.12277 angle=0.000 pulseDistance=0.51000
; 
; feature travel
PRIO_OFF
G0 X-21.09465 Y-4.2863 ; cartesianDistance=0.47888 (Travel)
; 
; feature fill
PRIO_ON
G1 X-24.21482 Y4.2863 E2260.864 ; EInc=17.88779 cartesianDistance=9.12277 angle=0.000 pulseDistance=0.51000
; 
; feature travel
PRIO_OFF
G0 X-24.4947 Y3.73954 ; cartesianDistance=0.61423 (Travel)
; 
; feature fill
PRIO_ON
G1 X-21.57353 Y-4.2863 E2277.61091 ; EInc=16.74691 cartesianDistance=8.54092 angle=0.000 pulseDistance=0.51000
; 
; feature travel
PRIO_OFF
G0 X-22.05241 Y-4.2863 ; cartesianDistance=0.47888 (Travel)
; 
; feature fill
PRIO_ON
G1 X-24.4947 Y2.42383 E2291.61242 ; EInc=14.00151 cartesianDistance=7.14077 angle=0.000 pulseDistance=0.51000
; 
; feature travel
PRIO_OFF
G0 X-24.4947 Y1.10812 ; cartesianDistance=1.31571 (Travel)
; 
; feature fill
PRIO_ON
G1 X-22.53129 Y-4.2863 E2302.86854 ; EInc=11.25612 cartesianDistance=5.74062 angle=0.000 pulseDistance=0.51000
; 
; feature travel
PRIO_OFF
G0 X-23.01017 Y-4.2863 ; cartesianDistance=0.47888 (Travel)
; 
; feature fill
PRIO_ON
G1 X-24.4947 Y-0.20759 E2311.37926 ; EInc=8.51072 cartesianDistance=4.34047 angle=0.000 pulseDistance=0.51000
; 
; feature travel
PRIO_OFF
G0 X-24.4947 Y-1.5233 ; cartesianDistance=1.31571 (Travel)
; 
; feature fill
PRIO_ON
G1 X-23.48905 Y-4.2863 E2317.14459 ; EInc=5.76533 cartesianDistance=2.94032 angle=0.000 pulseDistance=0.51000
; 
; feature travel
PRIO_OFF
G0 X-23.96793 Y-4.2863 ; cartesianDistance=0.47888 (Travel)
; 
; feature fill
PRIO_ON
G1 X-24.4947 Y-2.83902 E2320.16453 ; EInc=3.01993 cartesianDistance=1.54017 angle=0.000 pulseDistance=0.51000
; 
; feature travel
PRIO_OFF
G0 X-24.4947 Y-4.15473 ; cartesianDistance=1.31571 (Travel)
; 
; feature fill
PRIO_ON
G1 X-24.44681 Y-4.2863 E2320.43907 ; EInc=0.27454 cartesianDistance=0.14002 angle=0.000 pulseDistance=0.51000
PRIO_OFF
LayersCompleted=3
M1
; 
;========================
; layer 3, Z = 0.9600
; 
; reset extrusion
STOPRE
PRESETON(E, 0)
DO PRIO_PULSE_DISTANCE=DROP_SCALE
DO PRIO_ON_PATH_OFFSET=0.5*PRIO_PULSE_DISTANCE
;outer: (25.2604,-5.0521) (25.2604,5.0521) (-25.2604,5.0521) (-25.2604,-5.0521) (21.0604,-5.0521) holes: !
;overhangs:!
; 
; feature plane change
G0 X-24.44681 Y-4.2863 Z0.96 ; cartesianDistance=0.00000 (Plane Change)
; 
; feature travel
G0 X4.1599 Y-4.637 ; cartesianDistance=28.60886 (Travel)
; 
; feature outer perimeter
G1 F24000 FL[E] = OuterPerimeterFrequency * DROP_SCALE * 60
PRIO_ON
G1 X-24.8454 Y-4.637 E68.24776 ; EInc=68.24776 cartesianDistance=29.00530 angle=90.000 pulseDistance=0.42500
G1 X-24.8454 Y4.637 E90.06893 ; EInc=21.82118 cartesianDistance=9.27400 angle=90.000 pulseDistance=0.42500
G1 X24.8454 Y4.637 E206.98846 ; EInc=116.91953 cartesianDistance=49.69080 angle=90.000 pulseDistance=0.42500
G1 X24.8454 Y-4.637 E228.80964 ; EInc=21.82118 cartesianDistance=9.27400 angle=90.000 pulseDistance=0.42500
G1 X4.1599 Y-4.637 E277.48141 ; EInc=48.67177 cartesianDistance=20.68550 angle=180.000 pulseDistance=0.42500
; 
; feature travel
PRIO_OFF
G0 X4.1599 Y-4.286 ; cartesianDistance=0.35100 (Travel)
; 
; feature inner perimeter
G1 F24000 FL[E] = InnerPerimeterFrequency * DROP_SCALE * 60
PRIO_ON
G1 X24.4944 Y-4.286 E315.1379 ; EInc=37.65649 cartesianDistance=20.33450 angle=90.000 pulseDistance=0.54000
G1 X24.4944 Y4.286 E331.01197 ; EInc=15.87407 cartesianDistance=8.57200 angle=90.000 pulseDistance=0.54000
G1 X-24.4944 Y4.286 E421.73197 ; EInc=90.72000 cartesianDistance=48.98880 angle=90.000 pulseDistance=0.54000
G1 X-24.4944 Y-4.286 E437.60605 ; EInc=15.87407 cartesianDistance=8.57200 angle=90.000 pulseDistance=0.54000
G1 X4.1599 Y-4.286 E490.66956 ; EInc=53.06351 cartesianDistance=28.65430 angle=180.000 pulseDistance=0.54000
; 
; feature travel
PRIO_OFF
G0 X4.36113 Y-4.2863 ; cartesianDistance=0.20123 (Travel)
; 
; feature fill
G1 F24000 FL[E] = FillFrequency * DROP_SCALE * 60
PRIO_ON
G1 X-14.02287 Y4.2863 E530.44309 ; EInc=39.77353 cartesianDistance=20.28450 angle=0.000 pulseDistance=0.51000
; 
; feature travel
PRIO_OFF
G0 X-12.95808 Y4.2863 ; cartesianDistance=1.06479 (Travel)
; 
; feature fill
PRIO_ON
G1 X5.42592 Y-4.2863 E570.21662 ; EInc=39.77353 cartesianDistance=20.28450 angle=0.000 pulseDistance=0.51000
; 
; feature travel
PRIO_OFF
G0 X6.49071 Y-4.2863 ; cartesianDistance=1.06479 (Travel)
; 
; feature fill
PRIO_ON
G1 X-11.89329 Y4.2863 E609.99015 ; EInc=39.77353 cartesianDistance=20.28450 angle=0.000 pulseDistance=0.51000
; 
; feature travel
PRIO_OFF
G0 X-10.8285 Y4.2863 ; cartesianDistance=1.06479 (Travel)
; 
; feature fill
PRIO_ON
G1 X7.5555 Y-4.2863 E649.76368 ; EInc=39.77353 cartesianDistance=20.28450 angle=0.000 pulseDistance=0.51000
; 
; feature travel
PRIO_OFF
G0 X8.62029 Y-4.2863 ; cartesianDistance=1.06479 (Travel)
; 
; feature fill
PRIO_ON
G1 X-9.76371 Y4.2863 E689.5372 ; EInc=39.77353 cartesianDistance=20.28450 angle=0.000 pulseDistance=0.51000
; 
; feature travel
PRIO_OFF
G0 X-8.69892 Y4.2863 ; cartesianDistance=1.06479 (Travel)
; 
; feature fill
PRIO_ON
G1 X9.68508 Y-4.2863 E729.31073 ; EInc=39.77353 cartesianDistance=20.28450 angle=0.000 pulseDistance=0.51000
; 
; feature travel
PRIO_OFF
G0 X10.74987 Y-4.2863 ; cartesianDistance=1.06479 (Travel)
; 
; feature fill
PRIO_ON
G1 X-7.63413 Y4.2863 E769.08426 ; EInc=39.77353 cartesianDistance=20.28450 angle=0.000 pulseDistance=0.51000
; 
; feature travel
PRIO_OFF
G0 X-6.56934 Y4.2863 ; cartesianDistance=1.06479 (Travel)
; 
; feature fill
PRIO_ON
G1 X11.81466 Y-4.2863 E808.85779 ; EInc=39.77353 cartesianDistance=20.28450 angle=0.000 pulseDistance=0.51000
; 
; feature travel
PRIO_OFF
G0 X12.87945 Y-4.2863 ; cartesianDistance=1.06479 (Travel)
; 
; feature fill
PRIO_ON
G1 X-5.50455 Y4.2863 E848.63132 ; EInc=39.77353 cartesianDistance=20.28450 angle=0.000 pulseDistance=0.51000
; 
; feature travel
PRIO_OFF
G0 X-4.43976 Y4.2863 ; cartesianDistance=1.06479 (Travel)
; 
; feature fill
PRIO_ON
G1 X13.94424 Y-4.2863 E888.40485 ; EInc=39.77353 cartesianDistance=20.28450 angle=0.000 pulseDistance=0.51000
; 
; feature travel
PRIO_OFF
G0 X15.00904 Y-4.2863 ; cartesianDistance=1.06479 (Travel)
; 
; feature fill
PRIO_ON
G1 X-3.37496 Y4.2863 E928.17838 ; EInc=39.77353 cartesianDistance=20.28450 angle=0.000 pulseDistance=0.51000
; 
; feature travel
PRIO_OFF
G0 X-2.31017 Y4.2863 ; cartesianDistance=1.06479 (Travel)
; 
; feature fill
PRIO_ON
G1 X16.07383 Y-4.2863 E967.95191 ; EInc=39.77353 cartesianDistance=20.28450 angle=0.000 pulseDistance=0.51000
; 
; feature travel
PRIO_OFF
G0 X17.13862 Y-4.2863 ; cartesianDistance=1.06479 (Travel)
; 
; feature fill
PRIO_ON
G1 X-1.24538 Y4.2863 E1007.72543 ; EInc=39.77353 cartesianDistance=20.28450 angle=0.000 pulseDistance=0.51000
; 
; feature travel
PRIO_OFF
G0 X-0.18059 Y4.2863 ; cartesianDistance=1.06479 (Travel)
; 
; feature fill
PRIO_ON
G1 X18.20341 Y-4.2863 E1047.49896 ; EInc=39.77353 cartesianDistance=20.28450 angle=0.000 pulseDistance=0.51000
; 
; feature travel
PRIO_OFF
G0 X19.2682 Y-4.2863 ; cartesianDistance=1.06479 (Travel)
; 
; feature fill
PRIO_ON
G1 X0.8842 Y4.2863 E1087.27249 ; EInc=39.77353 cartesianDistance=20.28450 angle=0.000 pulseDistance=0.51000
; 
; feature travel
PRIO_OFF
G0 X1.94899 Y4.2863 ; cartesianDistance=1.06479 (Travel)
; 
; feature fill
PRIO_ON
G1 X20.33299 Y-4.2863 E1127.04602 ; EInc=39.77353 cartesianDistance=20.28450 angle=0.000 pulseDistance=0.51000
; 
; feature travel
PRIO_OFF
G0 X21.39778 Y-4.2863 ; cartesianDistance=1.06479 (Travel)
; 
; feature fill
PRIO_ON
G1 X3.01378 Y4.2863 E1166.81955 ; EInc=39.77353 cartesianDistance=20.28450 angle=0.000 pulseDistance=0.51000
; 
; feature travel
PRIO_OFF
G0 X4.07857 Y4.2863 ; cartesianDistance=1.06479 (Travel)
; 
; feature fill
PRIO_ON
G1 X22.46257 Y-4.2863 E1206.59308 ; EInc=39.77353 cartesianDistance=20.28450 angle=0.000 pulseDistance=0.51000
; 
; feature travel
PRIO_OFF
G0 X23.52736 Y-4.2863 ; cartesianDistance=1.06479 (Travel)
; 
; feature fill
PRIO_ON
G1 X5.14336 Y4.2863 E1246.36661 ; EInc=39.77353 cartesianDistance=20.28450 angle=0.000 pulseDistance=0.51000
; 
; feature travel
PRIO_OFF
G0 X6.20815 Y4.2863 ; cartesianDistance=1.06479 (Travel)
; 
; feature fill
PRIO_ON
G1 X24.4947 Y-4.24086 E1285.9293 ; EInc=39.56269 cartesianDistance=20.17697 angle=0.000 pulseDistance=0.51000
; 
; feature travel
PRIO_OFF
G0 X24.4947 Y-3.74434 ; cartesianDistance=0.49652 (Travel)
; 
; feature fill
PRIO_ON
G1 X7.27294 Y4.2863 E1323.18833 ; EInc=37.25903 cartesianDistance=19.00211 angle=0.000 pulseDistance=0.51000
; 
; feature travel
PRIO_OFF
G0 X8.33773 Y4.2863 ; cartesianDistance=1.06479 (Travel)
; 
; feature fill
PRIO_ON
G1 X24.4947 Y-3.24782 E1358.14371 ; EInc=34.95537 cartesianDistance=17.82724 angle=0.000 pulseDistance=0.51000
; 
; feature travel
PRIO_OFF
G0 X24.4947 Y-2.7513 ; cartesianDistance=0.49652 (Travel)
; 
; feature fill
PRIO_ON
G1 X9.40252 Y4.2863 E1390.79542 ; EInc=32.65171 cartesianDistance=16.65237 angle=0.000 pulseDistance=0.51000
; 
; feature travel
PRIO_OFF
G0 X10.46731 Y4.2863 ; cartesianDistance=1.06479 (Travel)
; 
; feature fill
PRIO_ON
G1 X24.4947 Y-2.25478 E1421.14347 ; EInc=30.34805 cartesianDistance=15.47751 angle=0.000 pulseDistance=0.51000
; 
; feature travel
PRIO_OFF
G0 X24.4947 Y-1.75826 ; cartesianDistance=0.49652 (Travel)
; 
; feature fill
PRIO_ON
G1 X11.53211 Y4.2863 E1449.18787 ; EInc=28.04439 cartesianDistance=14.30264 angle=0.000 pulseDistance=0.51000
; 
; feature travel
PRIO_OFF
G0 X12.5969 Y4.2863 ; cartesianDistance=1.06479 (Travel)
; 
; feature fill
PRIO_ON
G1 X24.4947 Y-1.26174 E1474.9286 ; EInc=25.74073 cartesianDistance=13.12777 angle=0.000 pulseDistance=0.51000
; 
; feature travel
PRIO_OFF
G0 X24.4947 Y-0.76522 ; cartesianDistance=0.49652 (Travel)
; 
; feature fill
PRIO_ON
G1 X13.66169 Y4.2863 E1498.36567 ; EInc=23.43707 cartesianDistance=11.95291 angle=0.000 pulseDistance=0.51000
; 
; feature travel
PRIO_OFF
G0 X14.72648 Y4.2863 ; cartesianDistance=1.06479 (Travel)
; 
; feature fill
PRIO_ON
G1 X24.4947 Y-0.2687 E1519.49909 ; EInc=21.13341 cartesianDistance=10.77804 angle=0.000 pulseDistance=0.51000
; 
; feature travel
PRIO_OFF
G0 X24.4947 Y0.22782 ; cartesianDistance=0.49652 (Travel)
; 
; feature fill
PRIO_ON
G1 X15.79127 Y4.2863 E1538.32884 ; EInc=18.82975 cartesianDistance=9.60317 angle=0.000 pulseDistance=0.51000
; 
; feature travel
PRIO_OFF
G0 X16.85606 Y4.2863 ; cartesianDistance=1.06479 (Travel)
; 
; feature fill
PRIO_ON
G1 X24.4947 Y0.72434 E1554.85494 ; EInc=16.52609 cartesianDistance=8.42831 angle=0.000 pulseDistance=0.51000
; 
; feature travel
PRIO_OFF
G0 X24.4947 Y1.22086 ; cartesianDistance=0.49652 (Travel)
; 
; feature fill
PRIO_ON
G1 X17.92085 Y4.2863 E1569.07737 ; EInc=14.22243 cartesianDistance=7.25344 angle=0.000 pulseDistance=0.51000
; 
; feature travel
PRIO_OFF
G0 X18.98564 Y4.2863 ; cartesianDistance=1.06479 (Travel)
; 
; feature fill
PRIO_ON
G1 X24.4947 Y1.71738 E1580.99614 ; EInc=11.91877 cartesianDistance=6.07857 angle=0.000 pulseDistance=0.51000
; 
; feature travel
PRIO_OFF
G0 X24.4947 Y2.2139 ; cartesianDistance=0.49652 (Travel)
; 
; feature fill
PRIO_ON
G1 X20.05043 Y4.2863 E1590.61126 ; EInc=9.61511 cartesianDistance=4.90371 angle=0.000 pulseDistance=0.51000
; 
; feature travel
PRIO_OFF
G0 X21.11522 Y4.2863 ; cartesianDistance=1.06479 (Travel)
; 
; feature fill
PRIO_ON
G1 X24.4947 Y2.71042 E1597.92271 ; EInc=7.31145 cartesianDistance=3.72884 angle=0.000 pulseDistance=0.51000
; 
; feature travel
PRIO_OFF
G0 X24.4947 Y3.20694 ; cartesianDistance=0.49652 (Travel)
; 
; feature fill
PRIO_ON
G1 X22.18001 Y4.2863 E1602.93051 ; EInc=5.00779 cartesianDistance=2.55398 angle=0.000 pulseDistance=0.51000
; 
; feature travel
PRIO_OFF
G0 X23.2448 Y4.2863 ; cartesianDistance=1.06479 (Travel)
; 
; feature fill
PRIO_ON
G1 X24.4947 Y3.70346 E1605.63464 ; EInc=2.70413 cartesianDistance=1.37911 angle=0.000 pulseDistance=0.51000
; 
; feature travel
PRIO_OFF
G0 X24.4947 Y4.19998 ; cartesianDistance=0.49652 (Travel)
; 
; feature fill
PRIO_ON
G1 X24.30959 Y4.2863 E1606.03511 ; EInc=0.40047 cartesianDistance=0.20424 angle=0.000 pulseDistance=0.51000
; 
; feature travel
PRIO_OFF
G0 X3.29634 Y-4.2863 ; cartesianDistance=22.69463 (Travel)
; 
; feature fill
PRIO_ON
G1 X-15.08766 Y4.2863 E1645.80864 ; EInc=39.77353 cartesianDistance=20.28450 angle=0.000 pulseDistance=0.51000
; 
; feature travel
PRIO_OFF
G0 X-16.15245 Y4.2863 ; cartesianDistance=1.06479 (Travel)
; 
; feature fill
PRIO_ON
G1 X2.23155 Y-4.2863 E1685.58217 ; EInc=39.77353 cartesianDistance=20.28450 angle=0.000 pulseDistance=0.51000
; 
; feature travel
PRIO_OFF
G0 X1.16676 Y-4.2863 ; cartesianDistance=1.06479 (Travel)
; 
; feature fill
PRIO_ON
G1 X-17.21724 Y4.2863 E1725.3557 ; EInc=39.77353 cartesianDistance=20.28450 angle=0.000 pulseDistance=0.51000
; 
; feature travel
PRIO_OFF
G0 X-18.28203 Y4.2863 ; cartesianDistance=1.06479 (Travel)
; 
; feature fill
PRIO_ON
G1 X0.10197 Y-4.2863 E1765.12923 ; EInc=39.77353 cartesianDistance=20.28450 angle=0.000 pulseDistance=0.51000
; 
; feature travel
PRIO_OFF
G0 X-0.96283 Y-4.2863 ; cartesianDistance=1.06479 (Travel)
; 
; feature fill
PRIO_ON
G1 X-19.34683 Y4.2863 E1804.90276 ; EInc=39.77353 cartesianDistance=20.28450 angle=0.000 pulseDistance=0.51000
; 
; feature travel
PRIO_OFF
G0 X-20.41162 Y4.2863 ; cartesianDistance=1.06479 (Travel)
; 
; feature fill
PRIO_ON
G1 X-2.02762 Y-4.2863 E1844.67629 ; EInc=39.77353 cartesianDistance=20.28450 angle=0.000 pulseDistance=0.51000
; 
; feature travel
PRIO_OFF
G0 X-3.09241 Y-4.2863 ; cartesianDistance=1.06479 (Travel)
; 
; feature fill
PRIO_ON
G1 X-21.47641 Y4.2863 E1884.44982 ; EInc=39.77353 cartesianDistance=20.28450 angle=0.000 pulseDistance=0.51000
; 
; feature travel
PRIO_OFF
G0 X-22.5412 Y4.2863 ; cartesianDistance=1.06479 (Travel)
; 
; feature fill
PRIO_ON
G1 X-4.1572 Y-4.2863 E1924.22335 ; EInc=39.77353 cartesianDistance=20.28450 angle=0.000 pulseDistance=0.51000
; 
; feature travel
PRIO_OFF
G0 X-5.22199 Y-4.2863 ; cartesianDistance=1.06479 (Travel)
; 
; feature fill
PRIO_ON
G1 X-23.60599 Y4.2863 E1963.99687 ; EInc=39.77353 cartesianDistance=20.28450 angle=0.000 pulseDistance=0.51000
; 
; feature travel
PRIO_OFF
G0 X-24.4947 Y4.20419 ; cartesianDistance=0.89250 (Travel)
; 
; feature fill
PRIO_ON
G1 X-6.28678 Y-4.2863 E2003.38946 ; EInc=39.39258 cartesianDistance=20.09022 angle=0.000 pulseDistance=0.51000
; 
; feature travel
PRIO_OFF
G0 X-7.35157 Y-4.2863 ; cartesianDistance=1.06479 (Travel)
; 
; feature fill
PRIO_ON
G1 X-24.4947 Y3.70767 E2040.47838 ; EInc=37.08892 cartesianDistance=18.91535 angle=0.000 pulseDistance=0.51000
; 
; feature travel
PRIO_OFF
G0 X-24.4947 Y3.21115 ; cartesianDistance=0.49652 (Travel)
; 
; feature fill
PRIO_ON
G1 X-8.41636 Y-4.2863 E2075.26365 ; EInc=34.78526 cartesianDistance=17.74049 angle=0.000 pulseDistance=0.51000
; 
; feature travel
PRIO_OFF
G0 X-9.48115 Y-4.2863 ; cartesianDistance=1.06479 (Travel)
; 
; feature fill
PRIO_ON
G1 X-24.4947 Y2.71463 E2107.74525 ; EInc=32.48160 cartesianDistance=16.56562 angle=0.000 pulseDistance=0.51000
; 
; feature travel
PRIO_OFF
G0 X-24.4947 Y2.21811 ; cartesianDistance=0.49652 (Travel)
; 
; feature fill
PRIO_ON
G1 X-10.54594 Y-4.2863 E2137.9232 ; EInc=30.17794 cartesianDistance=15.39075 angle=0.000 pulseDistance=0.51000
; 
; feature travel
PRIO_OFF
G0 X-11.61073 Y-4.2863 ; cartesianDistance=1.06479 (Travel)
; 
; feature fill
PRIO_ON
G1 X-24.4947 Y1.72159 E2165.79748 ; EInc=27.87429 cartesianDistance=14.21589 angle=0.000 pulseDistance=0.51000
; 
; feature travel
PRIO_OFF
G0 X-24.4947 Y1.22507 ; cartesianDistance=0.49652 (Travel)
; 
; feature fill
PRIO_ON
G1 X-12.67552 Y-4.2863 E2191.36811 ; EInc=25.57063 cartesianDistance=13.04102 angle=0.000 pulseDistance=0.51000
; 
; feature travel
PRIO_OFF
G0 X-13.74031 Y-4.2863 ; cartesianDistance=1.06479 (Travel)
; 
; feature fill
PRIO_ON
G1 X-24.4947 Y0.72855 E2214.63507 ; EInc=23.26697 cartesianDistance=11.86615 angle=0.000 pulseDistance=0.51000
; 
; feature travel
PRIO_OFF
G0 X-24.4947 Y0.23203 ; cartesianDistance=0.49652 (Travel)
; 
; feature fill
PRIO_ON
G1 X-14.8051 Y-4.2863 E2235.59838 ; EInc=20.96331 cartesianDistance=10.69129 angle=0.000 pulseDistance=0.51000
; 
; feature travel
PRIO_OFF
G0 X-15.8699 Y-4.2863 ; cartesianDistance=1.06479 (Travel)
; 
; feature fill
PRIO_ON
G1 X-24.4947 Y-0.26449 E2254.25802 ; EInc=18.65965 cartesianDistance=9.51642 angle=0.000 pulseDistance=0.51000
; 
; feature travel
PRIO_OFF
G0 X-24.4947 Y-0.76101 ; cartesianDistance=0.49652 (Travel)
; 
; feature fill
PRIO_ON
G1 X-16.93469 Y-4.2863 E2270.61401 ; EInc=16.35599 cartesianDistance=8.34155 angle=0.000 pulseDistance=0.51000
; 
; feature travel
PRIO_OFF
G0 X-17.99948 Y-4.2863 ; cartesianDistance=1.06479 (Travel)
; 
; feature fill
PRIO_ON
G1 X-24.4947 Y-1.25753 E2284.66634 ; EInc=14.05233 cartesianDistance=7.16669 angle=0.000 pulseDistance=0.51000
; 
; feature travel
PRIO_OFF
G0 X-24.4947 Y-1.75405 ; cartesianDistance=0.49652 (Travel)
; 
; feature fill
PRIO_ON
G1 X-19.06427 Y-4.2863 E2296.415 ; EInc=11.74867 cartesianDistance=5.99182 angle=0.000 pulseDistance=0.51000
; 
; feature travel
PRIO_OFF
G0 X-20.12906 Y-4.2863 ; cartesianDistance=1.06479 (Travel)
; 
; feature fill
PRIO_ON
G1 X-24.4947 Y-2.25057 E2305.86001 ; EInc=9.44501 cartesianDistance=4.81695 angle=0.000 pulseDistance=0.51000
; 
; feature travel
PRIO_OFF
G0 X-24.4947 Y-2.74709 ; cartesianDistance=0.49652 (Travel)
; 
; feature fill
PRIO_ON
G1 X-21.19385 Y-4.2863 E2313.00135 ; EInc=7.14135 cartesianDistance=3.64209 angle=0.000 pulseDistance=0.51000
; 
; feature travel
PRIO_OFF
G0 X-22.25864 Y-4.2863 ; cartesianDistance=1.06479 (Travel)
; 
; feature fill
PRIO_ON
G1 X-24.4947 Y-3.24361 E2317.83904 ; EInc=4.83769 cartesianDistance=2.46722 angle=0.000 pulseDistance=0.51000
; 
; feature travel
PRIO_OFF
G0 X-24.4947 Y-3.74013 ; cartesianDistance=0.49652 (Travel)
; 
; feature fill
PRIO_ON
G1 X-23.32343 Y-4.2863 E2320.37306 ; EInc=2.53403 cartesianDistance=1.29235 angle=0.000 pulseDistance=0.51000
; 
; feature travel
PRIO_OFF
G0 X-24.38822 Y-4.2863 ; cartesianDistance=1.06479 (Travel)
; 
; feature fill
PRIO_ON
G1 X-24.4947 Y-4.23665 E2320.60343 ; EInc=0.23037 cartesianDistance=0.11749 angle=0.000 pulseDistance=0.51000
PRIO_OFF
LayersCompleted=4
M1
; 
;========================
; layer 4, Z = 1.2000
; 
; reset extrusion
STOPRE
PRESETON(E, 0)
DO PRIO_PULSE_DISTANCE=DROP_SCALE
DO PRIO_ON_PATH_OFFSET=0.5*PRIO_PULSE_DISTANCE
;outer: (25.2604,-5.0521) (25.2604,5.0521) (-25.2604,5.0521) (-25.2604,-5.0521) (19.8604,-5.0521) holes: !
;overhangs:!
; 
; feature plane change
G0 X-24.4947 Y-4.23665 Z1.2 ; cartesianDistance=0.00000 (Plane Change)
; 
; feature travel
G0 X3.92685 Y4.637 ; cartesianDistance=29.77459 (Travel)
; 
; feature outer perimeter
G1 F24000 FL[E] = OuterPerimeterFrequency * DROP_SCALE * 60
PRIO_ON
G1 X-24.8454 Y4.637 E67.69941 ; EInc=67.69941 cartesianDistance=28.77225 angle=90.000 pulseDistance=0.42500
G1 X-24.8454 Y-4.637 E89.52059 ; EInc=21.82118 cartesianDistance=9.27400 angle=90.000 pulseDistance=0.42500
G1 X24.8454 Y-4.637 E206.44012 ; EInc=116.91953 cartesianDistance=49.69080 angle=90.000 pulseDistance=0.42500
G1 X24.8454 Y4.637 E228.26129 ; EInc=21.82118 cartesianDistance=9.27400 angle=90.000 pulseDistance=0.42500
G1 X3.92685 Y4.637 E277.48141 ; EInc=49.22012 cartesianDistance=20.91855 angle=180.000 pulseDistance=0.42500
; 
; feature travel
PRIO_OFF
G0 X3.92685 Y4.286 ; cartesianDistance=0.35100 (Travel)
; 
; feature inner perimeter
G1 F24000 FL[E] = InnerPerimeterFrequency * DROP_SCALE * 60
PRIO_ON
G1 X24.4944 Y4.286 E315.56947 ; EInc=38.08806 cartesianDistance=20.56755 angle=90.000 pulseDistance=0.54000
G1 X24.4944 Y-4.286 E331.44354 ; EInc=15.87407 cartesianDistance=8.57200 angle=90.000 pulseDistance=0.54000
G1 X-24.4944 Y-4.286 E422.16354 ; EInc=90.72000 cartesianDistance=48.98880 angle=90.000 pulseDistance=0.54000
G1 X-24.4944 Y4.286 E438.03762 ; EInc=15.87407 cartesianDistance=8.57200 angle=90.000 pulseDistance=0.54000
G1 X3.92685 Y4.286 E490.66956 ; EInc=52.63194 cartesianDistance=28.42125 angle=180.000 pulseDistance=0.54000
; 
; feature travel
PRIO_OFF
G0 X4.49766 Y4.2863 ; cartesianDistance=0.57081 (Travel)
; 
; feature fill
G1 F24000 FL[E] = FillFrequency * DROP_SCALE * 60
PRIO_ON
G1 X-19.05537 Y-4.2863 E539.81585 ; EInc=49.14629 cartesianDistance=25.06461 angle=0.000 pulseDistance=0.51000
; 
; feature travel
PRIO_OFF
G0 X-20.37108 Y-4.2863 ; cartesianDistance=1.31571 (Travel)
; 
; feature fill
PRIO_ON
G1 X3.18195 Y4.2863 E588.96213 ; EInc=49.14629 cartesianDistance=25.06461 angle=0.000 pulseDistance=0.51000
; 
; feature travel
PRIO_OFF
G0 X1.86623 Y4.2863 ; cartesianDistance=1.31571 (Travel)
; 
; feature fill
PRIO_ON
G1 X-21.68679 Y-4.2863 E638.10842 ; EInc=49.14629 cartesianDistance=25.06461 angle=0.000 pulseDistance=0.51000
; 
; feature travel
PRIO_OFF
G0 X-23.0025 Y-4.2863 ; cartesianDistance=1.31571 (Travel)
; 
; feature fill
PRIO_ON
G1 X0.55052 Y4.2863 E687.2547 ; EInc=49.14629 cartesianDistance=25.06461 angle=0.000 pulseDistance=0.51000
; 
; feature travel
PRIO_OFF
G0 X-0.76519 Y4.2863 ; cartesianDistance=1.31571 (Travel)
; 
; feature fill
PRIO_ON
G1 X-24.31821 Y-4.2863 E736.40099 ; EInc=49.14629 cartesianDistance=25.06461 angle=0.000 pulseDistance=0.51000
; 
; feature travel
PRIO_OFF
G0 X-24.4947 Y-3.87166 ; cartesianDistance=0.45064 (Travel)
; 
; feature fill
PRIO_ON
G1 X-2.0809 Y4.2863 E783.17014 ; EInc=46.76915 cartesianDistance=23.85227 angle=0.000 pulseDistance=0.51000
; 
; feature travel
PRIO_OFF
G0 X-3.39661 Y4.2863 ; cartesianDistance=1.31571 (Travel)
; 
; feature fill
PRIO_ON
G1 X-24.4947 Y-3.39278 E827.19389 ; EInc=44.02375 cartesianDistance=22.45211 angle=0.000 pulseDistance=0.51000
; 
; feature travel
PRIO_OFF
G0 X-24.4947 Y-2.9139 ; cartesianDistance=0.47888 (Travel)
; 
; feature fill
PRIO_ON
G1 X-4.71233 Y4.2863 E868.47225 ; EInc=41.27836 cartesianDistance=21.05196 angle=0.000 pulseDistance=0.51000
; 
; feature travel
PRIO_OFF
G0 X-6.02804 Y4.2863 ; cartesianDistance=1.31571 (Travel)
; 
; feature fill
PRIO_ON
G1 X-24.4947 Y-2.43502 E907.00521 ; EInc=38.53296 cartesianDistance=19.65181 angle=0.000 pulseDistance=0.51000
; 
; feature travel
PRIO_OFF
G0 X-24.4947 Y-1.95614 ; cartesianDistance=0.47888 (Travel)
; 
; feature fill
PRIO_ON
G1 X-7.34375 Y4.2863 E942.79278 ; EInc=35.78757 cartesianDistance=18.25166 angle=0.000 pulseDistance=0.51000
; 
; feature travel
PRIO_OFF
G0 X-8.65946 Y4.2863 ; cartesianDistance=1.31571 (Travel)
; 
; feature fill
PRIO_ON
G1 X-24.4947 Y-1.47726 E975.83496 ; EInc=33.04217 cartesianDistance=16.85151 angle=0.000 pulseDistance=0.51000
; 
; feature travel
PRIO_OFF
G0 X-24.4947 Y-0.99838 ; cartesianDistance=0.47888 (Travel)
; 
; feature fill
PRIO_ON
G1 X-9.97517 Y4.2863 E1006.13174 ; EInc=30.29678 cartesianDistance=15.45136 angle=0.000 pulseDistance=0.51000
; 
; feature travel
PRIO_OFF
G0 X-11.29089 Y4.2863 ; cartesianDistance=1.31571 (Travel)
; 
; feature fill
PRIO_ON
G1 X-24.4947 Y-0.5195 E1033.68312 ; EInc=27.55138 cartesianDistance=14.05121 angle=0.000 pulseDistance=0.51000
; 
; feature travel
PRIO_OFF
G0 X-24.4947 Y-0.04062 ; cartesianDistance=0.47888 (Travel)
; 
; feature fill
PRIO_ON
G1 X-12.6066 Y4.2863 E1058.48911 ; EInc=24.80599 cartesianDistance=12.65105 angle=0.000 pulseDistance=0.51000
; 
; feature travel
PRIO_OFF
G0 X-13.92231 Y4.2863 ; cartesianDistance=1.31571 (Travel)
; 
; feature fill
PRIO_ON
G1 X-24.4947 Y0.43826 E1080.54971 ; EInc=22.06059 cartesianDistance=11.25090 angle=0.000 pulseDistance=0.51000
; 
; feature travel
PRIO_OFF
G0 X-24.4947 Y0.91714 ; cartesianDistance=0.47888 (Travel)
; 
; feature fill
PRIO_ON
G1 X-15.23802 Y4.2863 E1099.86491 ; EInc=19.31520 cartesianDistance=9.85075 angle=0.000 pulseDistance=0.51000
; 
; feature travel
PRIO_OFF
G0 X-16.55373 Y4.2863 ; cartesianDistance=1.31571 (Travel)
; 
; feature fill
PRIO_ON
G1 X-24.4947 Y1.39602 E1116.43471 ; EInc=16.56980 cartesianDistance=8.45060 angle=0.000 pulseDistance=0.51000
; 
; feature travel
PRIO_OFF
G0 X-24.4947 Y1.8749 ; cartesianDistance=0.47888 (Travel)
; 
; feature fill
PRIO_ON
G1 X-17.86945 Y4.2863 E1130.25912 ; EInc=13.82441 cartesianDistance=7.05045 angle=0.000 pulseDistance=0.51000
; 
; feature travel
PRIO_OFF
G0 X-19.18516 Y4.2863 ; cartesianDistance=1.31571 (Travel)
; 
; feature fill
PRIO_ON
G1 X-24.4947 Y2.35378 E1141.33813 ; EInc=11.07901 cartesianDistance=5.65030 angle=0.000 pulseDistance=0.51000
; 
; feature travel
PRIO_OFF
G0 X-24.4947 Y2.83266 ; cartesianDistance=0.47888 (Travel)
; 
; feature fill
PRIO_ON
G1 X-20.50087 Y4.2863 E1149.67175 ; EInc=8.33362 cartesianDistance=4.25015 angle=0.000 pulseDistance=0.51000
; 
; feature travel
PRIO_OFF
G0 X-21.81658 Y4.2863 ; cartesianDistance=1.31571 (Travel)
; 
; feature fill
PRIO_ON
G1 X-24.4947 Y3.31154 E1155.25998 ; EInc=5.58822 cartesianDistance=2.84999 angle=0.000 pulseDistance=0.51000
; 
; feature travel
PRIO_OFF
G0 X-24.4947 Y3.79042 ; cartesianDistance=0.47888 (Travel)
; 
; feature fill
PRIO_ON
G1 X-23.13229 Y4.2863 E1158.10281 ; EInc=2.84283 cartesianDistance=1.44984 angle=0.000 pulseDistance=0.51000
; 
; feature travel
PRIO_OFF
G0 X-17.73965 Y-4.2863 ; cartesianDistance=10.12769 (Travel)
; 
; feature fill
PRIO_ON
G1 X5.81337 Y4.2863 E1207.24909 ; EInc=49.14629 cartesianDistance=25.06461 angle=0.000 pulseDistance=0.51000
; 
; feature travel
PRIO_OFF
G0 X7.12908 Y4.2863 ; cartesianDistance=1.31571 (Travel)
; 
; feature fill
PRIO_ON
G1 X-16.42394 Y-4.2863 E1256.39538 ; EInc=49.14629 cartesianDistance=25.06461 angle=0.000 pulseDistance=0.51000
; 
; feature travel
PRIO_OFF
G0 X-15.10823 Y-4.2863 ; cartesianDistance=1.31571 (Travel)
; 
; feature fill
PRIO_ON
G1 X8.44479 Y4.2863 E1305.54166 ; EInc=49.14629 cartesianDistance=25.06461 angle=0.000 pulseDistance=0.51000
; 
; feature travel
PRIO_OFF
G0 X9.76051 Y4.2863 ; cartesianDistance=1.31571 (Travel)
; 
; feature fill
PRIO_ON
G1 X-13.79252 Y-4.2863 E1354.68795 ; EInc=49.14629 cartesianDistance=25.06461 angle=0.000 pulseDistance=0.51000
; 
; feature travel
PRIO_OFF
G0 X-12.47681 Y-4.2863 ; cartesianDistance=1.31571 (Travel)
; 
; feature fill
PRIO_ON
G1 X11.07622 Y4.2863 E1403.83423 ; EInc=49.14629 cartesianDistance=25.06461 angle=0.000 pulseDistance=0.51000
; 
; feature travel
PRIO_OFF
G0 X12.39193 Y4.2863 ; cartesianDistance=1.31571 (Travel)
; 
; feature fill
PRIO_ON
G1 X-11.16109 Y-4.2863 E1452.98052 ; EInc=49.14629 cartesianDistance=25.06461 angle=0.000 pulseDistance=0.51000
; 
; feature travel
PRIO_OFF
G0 X-9.84538 Y-4.2863 ; cartesianDistance=1.31571 (Travel)
; 
; feature fill
PRIO_ON
G1 X13.70764 Y4.2863 E1502.12681 ; EInc=49.14629 cartesianDistance=25.06461 angle=0.000 pulseDistance=0.51000
; 
; feature travel
PRIO_OFF
G0 X15.02335 Y4.2863 ; cartesianDistance=1.31571 (Travel)
; 
; feature fill
PRIO_ON
G1 X-8.52967 Y-4.2863 E1551.27309 ; EInc=49.14629 cartesianDistance=25.06461 angle=0.000 pulseDistance=0.51000
; 
; feature travel
PRIO_OFF
G0 X-7.21396 Y-4.2863 ; cartesianDistance=1.31571 (Travel)
; 
; feature fill
PRIO_ON
G1 X16.33907 Y4.2863 E1600.41938 ; EInc=49.14629 cartesianDistance=25.06461 angle=0.000 pulseDistance=0.51000
; 
; feature travel
PRIO_OFF
G0 X17.65478 Y4.2863 ; cartesianDistance=1.31571 (Travel)
; 
; feature fill
PRIO_ON
G1 X-5.89825 Y-4.2863 E1649.56566 ; EInc=49.14629 cartesianDistance=25.06461 angle=0.000 pulseDistance=0.51000
; 
; feature travel
PRIO_OFF
G0 X-4.58253 Y-4.2863 ; cartesianDistance=1.31571 (Travel)
; 
; feature fill
PRIO_ON
G1 X18.97049 Y4.2863 E1698.71195 ; EInc=49.14629 cartesianDistance=25.06461 angle=0.000 pulseDistance=0.51000
; 
; feature travel
PRIO_OFF
G0 X20.2862 Y4.2863 ; cartesianDistance=1.31571 (Travel)
; 
; feature fill
PRIO_ON
G1 X-3.26682 Y-4.2863 E1747.85823 ; EInc=49.14629 cartesianDistance=25.06461 angle=0.000 pulseDistance=0.51000
; 
; feature travel
PRIO_OFF
G0 X-1.95111 Y-4.2863 ; cartesianDistance=1.31571 (Travel)
; 
; feature fill
PRIO_ON
G1 X21.60191 Y4.2863 E1797.00452 ; EInc=49.14629 cartesianDistance=25.06461 angle=0.000 pulseDistance=0.51000
; 
; feature travel
PRIO_OFF
G0 X22.91763 Y4.2863 ; cartesianDistance=1.31571 (Travel)
; 
; feature fill
PRIO_ON
G1 X-0.6354 Y-4.2863 E1846.1508 ; EInc=49.14629 cartesianDistance=25.06461 angle=0.000 pulseDistance=0.51000
; 
; feature travel
PRIO_OFF
G0 X0.68031 Y-4.2863 ; cartesianDistance=1.31571 (Travel)
; 
; feature fill
PRIO_ON
G1 X24.23334 Y4.2863 E1895.29709 ; EInc=49.14629 cartesianDistance=25.06461 angle=0.000 pulseDistance=0.51000
; 
; feature travel
PRIO_OFF
G0 X24.4947 Y3.90255 ; cartesianDistance=0.46430 (Travel)
; 
; feature fill
PRIO_ON
G1 X1.99603 Y-4.2863 E1942.24334 ; EInc=46.94625 cartesianDistance=23.94259 angle=0.000 pulseDistance=0.51000
; 
; feature travel
PRIO_OFF
G0 X3.31174 Y-4.2863 ; cartesianDistance=1.31571 (Travel)
; 
; feature fill
PRIO_ON
G1 X24.4947 Y3.42367 E1986.4442 ; EInc=44.20086 cartesianDistance=22.54244 angle=0.000 pulseDistance=0.51000
; 
; feature travel
PRIO_OFF
G0 X24.4947 Y2.94479 ; cartesianDistance=0.47888 (Travel)
; 
; feature fill
PRIO_ON
G1 X4.62745 Y-4.2863 E2027.89967 ; EInc=41.45546 cartesianDistance=21.14229 angle=0.000 pulseDistance=0.51000
; 
; feature travel
PRIO_OFF
G0 X5.94316 Y-4.2863 ; cartesianDistance=1.31571 (Travel)
; 
; feature fill
PRIO_ON
G1 X24.4947 Y2.46591 E2066.60974 ; EInc=38.71007 cartesianDistance=19.74214 angle=0.000 pulseDistance=0.51000
; 
; feature travel
PRIO_OFF
G0 X24.4947 Y1.98703 ; cartesianDistance=0.47888 (Travel)
; 
; feature fill
PRIO_ON
G1 X7.25887 Y-4.2863 E2102.57441 ; EInc=35.96467 cartesianDistance=18.34198 angle=0.000 pulseDistance=0.51000
; 
; feature travel
PRIO_OFF
G0 X8.57459 Y-4.2863 ; cartesianDistance=1.31571 (Travel)
; 
; feature fill
PRIO_ON
G1 X24.4947 Y1.50815 E2135.79369 ; EInc=33.21928 cartesianDistance=16.94183 angle=0.000 pulseDistance=0.51000
; 
; feature travel
PRIO_OFF
G0 X24.4947 Y1.02927 ; cartesianDistance=0.47888 (Travel)
; 
; feature fill
PRIO_ON
G1 X9.8903 Y-4.2863 E2166.26757 ; EInc=30.47388 cartesianDistance=15.54168 angle=0.000 pulseDistance=0.51000
; 
; feature travel
PRIO_OFF
G0 X11.20601 Y-4.2863 ; cartesianDistance=1.31571 (Travel)
; 
; feature fill
PRIO_ON
G1 X24.4947 Y0.55039 E2193.99606 ; EInc=27.72849 cartesianDistance=14.14153 angle=0.000 pulseDistance=0.51000
; 
; feature travel
PRIO_OFF
G0 X24.4947 Y0.07151 ; cartesianDistance=0.47888 (Travel)
; 
; feature fill
PRIO_ON
G1 X12.52172 Y-4.2863 E2218.97916 ; EInc=24.98309 cartesianDistance=12.74138 angle=0.000 pulseDistance=0.51000
; 
; feature travel
PRIO_OFF
G0 X13.83743 Y-4.2863 ; cartesianDistance=1.31571 (Travel)
; 
; feature fill
PRIO_ON
G1 X24.4947 Y-0.40737 E2241.21686 ; EInc=22.23770 cartesianDistance=11.34123 angle=0.000 pulseDistance=0.51000
; 
; feature travel
PRIO_OFF
G0 X24.4947 Y-0.88625 ; cartesianDistance=0.47888 (Travel)
; 
; feature fill
PRIO_ON
G1 X15.15314 Y-4.2863 E2260.70916 ; EInc=19.49230 cartesianDistance=9.94108 angle=0.000 pulseDistance=0.51000
; 
; feature travel
PRIO_OFF
G0 X16.46886 Y-4.2863 ; cartesianDistance=1.31571 (Travel)
; 
; feature fill
PRIO_ON
G1 X24.4947 Y-1.36513 E2277.45607 ; EInc=16.74691 cartesianDistance=8.54092 angle=0.000 pulseDistance=0.51000
; 
; feature travel
PRIO_OFF
G0 X24.4947 Y-1.84401 ; cartesianDistance=0.47888 (Travel)
; 
; feature fill
PRIO_ON
G1 X17.78457 Y-4.2863 E2291.45759 ; EInc=14.00151 cartesianDistance=7.14077 angle=0.000 pulseDistance=0.51000
; 
; feature travel
PRIO_OFF
G0 X19.10028 Y-4.2863 ; cartesianDistance=1.31571 (Travel)
; 
; feature fill
PRIO_ON
G1 X24.4947 Y-2.32289 E2302.71371 ; EInc=11.25612 cartesianDistance=5.74062 angle=0.000 pulseDistance=0.51000
; 
; feature travel
PRIO_OFF
G0 X24.4947 Y-2.80177 ; cartesianDistance=0.47888 (Travel)
; 
; feature fill
PRIO_ON
G1 X20.41599 Y-4.2863 E2311.22443 ; EInc=8.51072 cartesianDistance=4.34047 angle=0.000 pulseDistance=0.51000
; 
; feature travel
PRIO_OFF
G0 X21.7317 Y-4.2863 ; cartesianDistance=1.31571 (Travel)
; 
; feature fill
PRIO_ON
G1 X24.4947 Y-3.28065 E2316.98976 ; EInc=5.76533 cartesianDistance=2.94032 angle=0.000 pulseDistance=0.51000
; 
; feature travel
PRIO_OFF
G0 X24.4947 Y-3.75953 ; cartesianDistance=0.47888 (Travel)
; 
; feature fill
PRIO_ON
G1 X23.04742 Y-4.2863 E2320.00969 ; EInc=3.01993 cartesianDistance=1.54017 angle=0.000 pulseDistance=0.51000
; 
; feature travel
PRIO_OFF
G0 X24.36313 Y-4.2863 ; cartesianDistance=1.31571 (Travel)
; 
; feature fill
PRIO_ON
G1 X24.4947 Y-4.23841 E2320.28423 ; EInc=0.27454 cartesianDistance=0.14002 angle=0.000 pulseDistance=0.51000
PRIO_OFF
LayersCompleted=5
M1
; 
;========================
; layer 5, Z = 1.4400
; 
; reset extrusion
STOPRE
PRESETON(E, 0)
DO PRIO_PULSE_DISTANCE=DROP_SCALE
DO PRIO_ON_PATH_OFFSET=0.5*PRIO_PULSE_DISTANCE
;outer: (25.2604,-5.0521) (25.2604,5.0521) (-25.2604,5.0521) (-25.2604,-5.0521) (18.6604,-5.0521) holes: !
;overhangs:!
; 
; feature plane change
G0 X24.4947 Y-4.23841 Z1.44 ; cartesianDistance=0.00000 (Plane Change)
; 
; feature travel
G0 X24.8454 Y-1.43812 ; cartesianDistance=2.82216 (Travel)
; 
; feature outer perimeter
G1 F24000 FL[E] = OuterPerimeterFrequency * DROP_SCALE * 60
PRIO_ON
G1 X24.8454 Y-4.637 E7.52677 ; EInc=7.52677 cartesianDistance=3.19888 angle=90.000 pulseDistance=0.42500
G1 X-24.8454 Y-4.637 E124.4463 ; EInc=116.91953 cartesianDistance=49.69080 angle=90.000 pulseDistance=0.42500
G1 X-24.8454 Y4.637 E146.26748 ; EInc=21.82118 cartesianDistance=9.27400 angle=90.000 pulseDistance=0.42500
G1 X24.8454 Y4.637 E263.18701 ; EInc=116.91953 cartesianDistance=49.69080 angle=90.000 pulseDistance=0.42500
G1 X24.8454 Y-1.43812 E277.48141 ; EInc=14.29441 cartesianDistance=6.07512 angle=180.000 pulseDistance=0.42500
; 
; feature travel
PRIO_OFF
G0 X24.4944 Y-1.43812 ; cartesianDistance=0.35100 (Travel)
; 
; feature inner perimeter
G1 F24000 FL[E] = InnerPerimeterFrequency * DROP_SCALE * 60
PRIO_ON
G1 X24.4944 Y4.286 E288.08164 ; EInc=10.60023 cartesianDistance=5.72412 angle=90.000 pulseDistance=0.54000
G1 X-24.4944 Y4.286 E378.80164 ; EInc=90.72000 cartesianDistance=48.98880 angle=90.000 pulseDistance=0.54000
G1 X-24.4944 Y-4.286 E394.67571 ; EInc=15.87407 cartesianDistance=8.57200 angle=90.000 pulseDistance=0.54000
G1 X24.4944 Y-4.286 E485.39571 ; EInc=90.72000 cartesianDistance=48.98880 angle=90.000 pulseDistance=0.54000
G1 X24.4944 Y-1.43812 E490.66956 ; EInc=5.27385 cartesianDistance=2.84788 angle=180.000 pulseDistance=0.54000
; 
; feature travel
PRIO_OFF
