;---BEGIN HEADER
; Generated by DropletSlicer
; Version: 3.4.4
; Date: Wednesday, May 29, 2024
; Time: 04:21:42 PM
G64 ;continuous path mode
G71 ;millimeters
G56 ;origin at center
OVR=100
OVRRAP=20
DO PRIO_ON_PATH_OFFSET=0.5*PRIO_PULSE_DISTANCE
RECOMMENDED_RECIPE="4008 Aluminum Wire"
CheckRecommendedRecipe
BUILDPROCESSORINTERFACEVERSION=1177
CheckBPVersion
OuterPerimeterFrequency=300
InnerPerimeterFrequency=400
ThinFeatureFrequency=300
UnsupportedStepoutFrequency=300
SupportedStepoutFrequency=300
FillFrequency=400
SupportWallFrequency=100
SupportPillarFrequency=100
;BUILDPROCESSORINTERFACEVERSION=1177
PART_MASS_CONSUMPTION=0
SUPPORT_MASS_CONSUMPTION=0
G0 X0 Y0 ; cartesianDistance=0.00000 (reset z)
MSG("Print Started")
;---END HEADER
;---BEGIN PRINT STATISTICS
;TOTAL WIRE FEED ESTIMATE:
;    Total Drops: 97,460.43
;      Total Mass: 14.13 g
;    Part Drops: 97,460.43
;      Part Mass: 14.13 g
;    Support Drops: 0.00
;      Support Mass: 0.00 g
;    Part Density: 100.0%
;---END PRINT STATISTICS
;XY Extents: [-24.845 -4.637] [24.845 4.637]
;NaiveEstimatedPrintTime=483.1230151233684
;SupportedStepoutFrequency=300
EstimatedPrintTime=453.9104919433594
;ZCount = 1
;ExtraChevronOffset = 10
NumberOfLayers=42
LayersCompleted=0
;Mass values below are in kilograms
TOTAL_MASS=0.014131762
PART_MASS=0.014131762
SUPPORT_MASS=0.000000000
CheckMass
DO PRIO_PULSE_DISTANCE=DROP_SCALE
DO PRIO_ON_PATH_OFFSET=0.5*PRIO_PULSE_DISTANCE
PARAM_SETUP
;ChunkSize=5
; 
;========================
; layer 0, Z = 0.2400
; 
; reset extrusion
STOPRE
PRESETON(E, 0)
DO PRIO_PULSE_DISTANCE=DROP_SCALE
DO PRIO_ON_PATH_OFFSET=0.5*PRIO_PULSE_DISTANCE
FEATURE_TYPE=0
;outer: (25.2604,-5.0521) (25.2604,5.0521) (-25.2604,5.0521) (-25.2604,-5.0521) (24.6604,-5.0521) holes: !
;overhangs:!
; 
; feature plane change
G0 X0 Y0 Z0.24 ; cartesianDistance=0.00000 (Plane Change)
; 
; feature travel
G0 X2.30853 Y4.637 ; cartesianDistance=5.17987 (Travel)
; 
; feature outer perimeter
G1 F24000 FL[E] = OuterPerimeterFrequency * DROP_SCALE * 60
DO PRIO_PULSE_DISTANCE=DROP_SCALE
DO PRIO_ON_PATH_OFFSET=0.5*PRIO_PULSE_DISTANCE
PRIO_ON
G1 X-24.8454 Y4.6370 E63.89160 ; EInc=63.89160 cartesianDistance=27.15393 angle=90.000 pulseDistance=0.42500
G1 X-24.8454 Y-4.6370 E85.71278 ; EInc=21.82118 cartesianDistance=9.27400 angle=90.000 pulseDistance=0.42500
G1 X24.8454 Y-4.6370 E202.63231 ; EInc=116.91953 cartesianDistance=49.69080 angle=90.000 pulseDistance=0.42500
G1 X24.8454 Y4.6370 E224.45349 ; EInc=21.82118 cartesianDistance=9.27400 angle=90.000 pulseDistance=0.42500
G1 X2.3085 Y4.6370 E277.48141 ; EInc=53.02793 cartesianDistance=22.53687 angle=180.000 pulseDistance=0.42500
; 
; feature travel
PRIO_OFF
G0 X2.30853 Y4.286 ; cartesianDistance=0.35100 (Travel)
; 
; feature inner perimeter
G1 F24000 FL[E] = InnerPerimeterFrequency * DROP_SCALE * 60
PRIO_ON
G1 X24.4944 Y4.2860 E318.56635 ; EInc=41.08494 cartesianDistance=22.18587 angle=90.000 pulseDistance=0.54000
G1 X24.4944 Y-4.2860 E334.44043 ; EInc=15.87407 cartesianDistance=8.57200 angle=90.000 pulseDistance=0.54000
G1 X-24.4944 Y-4.2860 E425.16043 ; EInc=90.72000 cartesianDistance=48.98880 angle=90.000 pulseDistance=0.54000
G1 X-24.4944 Y4.2860 E441.03450 ; EInc=15.87407 cartesianDistance=8.57200 angle=90.000 pulseDistance=0.54000
G1 X2.3085 Y4.2860 E490.66956 ; EInc=49.63506 cartesianDistance=26.80293 angle=180.000 pulseDistance=0.54000
; 
; feature travel
PRIO_OFF
G0 X1.95111 Y4.2863 ; cartesianDistance=0.35742 (Travel)
; 
; feature fill
G1 F24000 FL[E] = FillFrequency * DROP_SCALE * 60
PRIO_ON
G1 X0.0000 Y3.5762 E492.70518 ; => originalEInc=4.07123 adjustedEInc=2.03562 density=0.5
G1 X-21.6019 Y-4.2863 E537.78023 ; EInc=49.14629 cartesianDistance=25.06461 angle=0.000 pulseDistance=0.51000
; 
; feature travel
PRIO_OFF
G0 X-20.2862 Y-4.2863 ; cartesianDistance=1.31571 (Travel)
; 
; feature fill
PRIO_ON
G1 X0.0000 Y3.0973 E580.10989 
G1 X3.2668 Y4.2863 E583.51820 ; EInc=49.14629 cartesianDistance=25.06461 angle=0.000 pulseDistance=0.51000 => originalEInc=6.81662 adjustedEInc=3.40831 density=0.5
; 
; feature travel
PRIO_OFF
G0 X4.58253 Y4.2863 ; cartesianDistance=1.31571 (Travel)
; 
; feature fill
PRIO_ON
G1 X0.0000 Y2.6184 E588.29921 ; => originalEInc=9.56202 adjustedEInc=4.78101 density=0.5
G1 X-18.9705 Y-4.2863 E627.88348 ; EInc=49.14629 cartesianDistance=25.06461 angle=0.000 pulseDistance=0.51000
; 
; feature travel
PRIO_OFF
G0 X-17.65478 Y-4.2863 ; cartesianDistance=1.31571 (Travel)
; 
; feature fill
PRIO_ON
G1 X0.0000 Y2.1395 E664.72234 
G1 X5.8982 Y4.2863 E670.87605 ; EInc=49.14629 cartesianDistance=25.06461 angle=0.000 pulseDistance=0.51000 => originalEInc=12.30742 adjustedEInc=6.15371 density=0.5
; 
; feature travel
PRIO_OFF
G0 X7.21396 Y4.2863 ; cartesianDistance=1.31571 (Travel)
; 
; feature fill
PRIO_ON
G1 X0.0000 Y1.6606 E678.40246 ; => originalEInc=15.05281 adjustedEInc=7.52641 density=0.5
G1 X-16.3391 Y-4.2863 E712.49594 ; EInc=49.14629 cartesianDistance=25.06461 angle=0.000 pulseDistance=0.51000
; 
; feature travel
PRIO_OFF
G0 X-15.02335 Y-4.2863 ; cartesianDistance=1.31571 (Travel)
; 
; feature fill
PRIO_ON
G1 X-0.0000 Y1.1818 E743.84401 
G1 X8.5297 Y4.2863 E752.74311 ; EInc=49.14629 cartesianDistance=25.06461 angle=0.000 pulseDistance=0.51000 => originalEInc=17.79821 adjustedEInc=8.89910 density=0.5
; 
; feature travel
PRIO_OFF
G0 X9.84538 Y4.2863 ; cartesianDistance=1.31571 (Travel)
; 
; feature fill
PRIO_ON
G1 X0.0000 Y0.7029 E763.01492 ; => originalEInc=20.54360 adjustedEInc=10.27180 density=0.5
G1 X-13.7076 Y-4.2863 E791.61760 ; EInc=49.14629 cartesianDistance=25.06461 angle=0.000 pulseDistance=0.51000
; 
; feature travel
PRIO_OFF
G0 X-12.39193 Y-4.2863 ; cartesianDistance=1.31571 (Travel)
; 
; feature fill
PRIO_ON
G1 X0.0000 Y0.2240 E817.47489 
G1 X11.1611 Y4.2863 E829.11939 ; EInc=49.14629 cartesianDistance=25.06461 angle=0.000 pulseDistance=0.51000 => originalEInc=23.28899 adjustedEInc=11.64450 density=0.5
; 
; feature travel
PRIO_OFF
G0 X12.47681 Y4.2863 ; cartesianDistance=1.31571 (Travel)
; 
; feature fill
PRIO_ON
G1 X0.0000 Y-0.2549 E842.13658 ; => originalEInc=26.03440 adjustedEInc=13.01720 density=0.5
G1 X-11.0762 Y-4.2863 E865.24848 ; EInc=49.14629 cartesianDistance=25.06461 angle=0.000 pulseDistance=0.51000
; 
; feature travel
PRIO_OFF
G0 X-9.76051 Y-4.2863 ; cartesianDistance=1.31571 (Travel)
; 
; feature fill
PRIO_ON
G1 X-0.0000 Y-0.7338 E885.61498 
G1 X13.7925 Y4.2863 E900.00487 ; EInc=49.14629 cartesianDistance=25.06461 angle=0.000 pulseDistance=0.51000 => originalEInc=28.77978 adjustedEInc=14.38989 density=0.5
; 
; feature travel
PRIO_OFF
G0 X15.10823 Y4.2863 ; cartesianDistance=1.31571 (Travel)
; 
; feature fill
PRIO_ON
G1 X0.0000 Y-1.2126 E915.76746 ; => originalEInc=31.52519 adjustedEInc=15.76260 density=0.5
G1 X-8.4448 Y-4.2863 E933.38856 ; EInc=49.14629 cartesianDistance=25.06461 angle=0.000 pulseDistance=0.51000
; 
; feature travel
PRIO_OFF
G0 X-7.12908 Y-4.2863 ; cartesianDistance=1.31571 (Travel)
; 
; feature fill
PRIO_ON
G1 X0.0000 Y-1.6915 E948.26427 
G1 X16.4239 Y4.2863 E965.39956 ; EInc=49.14629 cartesianDistance=25.06461 angle=0.000 pulseDistance=0.51000 => originalEInc=34.27058 adjustedEInc=17.13529 density=0.5
; 
; feature travel
PRIO_OFF
G0 X17.73965 Y4.2863 ; cartesianDistance=1.31571 (Travel)
; 
; feature fill
PRIO_ON
G1 X0.0000 Y-2.1704 E983.90754 ; => originalEInc=37.01597 adjustedEInc=18.50798 density=0.5
G1 X-5.8134 Y-4.2863 E996.03786 ; EInc=49.14629 cartesianDistance=25.06461 angle=0.000 pulseDistance=0.51000
; 
; feature travel
PRIO_OFF
G0 X-4.49766 Y-4.2863 ; cartesianDistance=1.31571 (Travel)
; 
; feature fill
PRIO_ON
G1 X0.0000 Y-2.6493 E1005.42278 
G1 X19.0554 Y4.2863 E1025.30346 ; EInc=49.14629 cartesianDistance=25.06461 angle=0.000 pulseDistance=0.51000 => originalEInc=39.76137 adjustedEInc=19.88068 density=0.5
; 
; feature travel
PRIO_OFF
G0 X20.37108 Y4.2863 ; cartesianDistance=1.31571 (Travel)
; 
; feature fill
PRIO_ON
G1 X0.0000 Y-3.1282 E1046.55684 ; => originalEInc=42.50675 adjustedEInc=21.25338 density=0.5
G1 X-3.1820 Y-4.2863 E1053.19637 ; EInc=49.14629 cartesianDistance=25.06461 angle=0.000 pulseDistance=0.51000
; 
; feature travel
PRIO_OFF
G0 X-1.86623 Y-4.2863 ; cartesianDistance=1.31571 (Travel)
; 
; feature fill
PRIO_ON
G1 X0.0000 Y-3.6070 E1057.09049 
G1 X21.6868 Y4.2863 E1079.71657 ; EInc=49.14629 cartesianDistance=25.06461 angle=0.000 pulseDistance=0.51000 => originalEInc=45.25217 adjustedEInc=22.62609 density=0.5
; 
; feature travel
PRIO_OFF
G0 X23.0025 Y4.2863 ; cartesianDistance=1.31571 (Travel)
; 
; feature fill
PRIO_ON
G1 X0.0000 Y-4.0859 E1103.71535 ; => originalEInc=47.99755 adjustedEInc=23.99878 density=0.5
G1 X-0.5505 Y-4.2863 E1104.86408 ; EInc=49.14629 cartesianDistance=25.06461 angle=0.000 pulseDistance=0.51000
; 
; feature travel
PRIO_OFF
G0 X0.76519 Y-4.2863 ; cartesianDistance=1.31571 (Travel)
; 
; feature fill
PRIO_ON
G1 X24.3182 Y4.2863 E1154.01037 ; EInc=49.14629 cartesianDistance=25.06461 angle=0.000 pulseDistance=0.51000
; 
; feature travel
PRIO_OFF
G0 X24.4947 Y3.87166 ; cartesianDistance=0.45064 (Travel)
; 
; feature fill
PRIO_ON
G1 X2.0809 Y-4.2863 E1200.77952 ; EInc=46.76915 cartesianDistance=23.85227 angle=0.000 pulseDistance=0.51000
; 
; feature travel
PRIO_OFF
G0 X3.39661 Y-4.2863 ; cartesianDistance=1.31571 (Travel)
; 
; feature fill
PRIO_ON
G1 X24.4947 Y3.3928 E1244.80327 ; EInc=44.02375 cartesianDistance=22.45211 angle=0.000 pulseDistance=0.51000
; 
; feature travel
PRIO_OFF
G0 X24.4947 Y2.9139 ; cartesianDistance=0.47888 (Travel)
; 
; feature fill
PRIO_ON
G1 X4.7123 Y-4.2863 E1286.08163 ; EInc=41.27836 cartesianDistance=21.05196 angle=0.000 pulseDistance=0.51000
; 
; feature travel
PRIO_OFF
G0 X6.02804 Y-4.2863 ; cartesianDistance=1.31571 (Travel)
; 
; feature fill
PRIO_ON
G1 X24.4947 Y2.4350 E1324.61460 ; EInc=38.53296 cartesianDistance=19.65181 angle=0.000 pulseDistance=0.51000
; 
; feature travel
PRIO_OFF
G0 X24.4947 Y1.95614 ; cartesianDistance=0.47888 (Travel)
; 
; feature fill
PRIO_ON
G1 X7.3438 Y-4.2863 E1360.40217 ; EInc=35.78757 cartesianDistance=18.25166 angle=0.000 pulseDistance=0.51000
; 
; feature travel
PRIO_OFF
G0 X8.65946 Y-4.2863 ; cartesianDistance=1.31571 (Travel)
; 
; feature fill
PRIO_ON
G1 X24.4947 Y1.4773 E1393.44434 ; EInc=33.04217 cartesianDistance=16.85151 angle=0.000 pulseDistance=0.51000
; 
; feature travel
PRIO_OFF
G0 X24.4947 Y0.99838 ; cartesianDistance=0.47888 (Travel)
; 
; feature fill
PRIO_ON
G1 X9.9752 Y-4.2863 E1423.74112 ; EInc=30.29678 cartesianDistance=15.45136 angle=0.000 pulseDistance=0.51000
; 
; feature travel
PRIO_OFF
G0 X11.29089 Y-4.2863 ; cartesianDistance=1.31571 (Travel)
; 
; feature fill
PRIO_ON
G1 X24.4947 Y0.5195 E1451.29250 ; EInc=27.55138 cartesianDistance=14.05121 angle=0.000 pulseDistance=0.51000
; 
; feature travel
PRIO_OFF
G0 X24.4947 Y0.04062 ; cartesianDistance=0.47888 (Travel)
; 
; feature fill
PRIO_ON
G1 X12.6066 Y-4.2863 E1476.09849 ; EInc=24.80599 cartesianDistance=12.65105 angle=0.000 pulseDistance=0.51000
; 
; feature travel
PRIO_OFF
G0 X13.92231 Y-4.2863 ; cartesianDistance=1.31571 (Travel)
; 
; feature fill
PRIO_ON
G1 X24.4947 Y-0.4383 E1498.15909 ; EInc=22.06059 cartesianDistance=11.25090 angle=0.000 pulseDistance=0.51000
; 
; feature travel
PRIO_OFF
G0 X24.4947 Y-0.91714 ; cartesianDistance=0.47888 (Travel)
; 
; feature fill
PRIO_ON
G1 X15.2380 Y-4.2863 E1517.47429 ; EInc=19.31520 cartesianDistance=9.85075 angle=0.000 pulseDistance=0.51000
; 
; feature travel
PRIO_OFF
G0 X16.55373 Y-4.2863 ; cartesianDistance=1.31571 (Travel)
; 
; feature fill
PRIO_ON
G1 X24.4947 Y-1.3960 E1534.04409 ; EInc=16.56980 cartesianDistance=8.45060 angle=0.000 pulseDistance=0.51000
; 
; feature travel
PRIO_OFF
G0 X24.4947 Y-1.8749 ; cartesianDistance=0.47888 (Travel)
; 
; feature fill
PRIO_ON
G1 X17.8695 Y-4.2863 E1547.86850 ; EInc=13.82441 cartesianDistance=7.05045 angle=0.000 pulseDistance=0.51000
; 
; feature travel
PRIO_OFF
G0 X19.18516 Y-4.2863 ; cartesianDistance=1.31571 (Travel)
; 
; feature fill
PRIO_ON
G1 X24.4947 Y-2.3538 E1558.94752 ; EInc=11.07901 cartesianDistance=5.65030 angle=0.000 pulseDistance=0.51000
; 
; feature travel
PRIO_OFF
G0 X24.4947 Y-2.83266 ; cartesianDistance=0.47888 (Travel)
; 
; feature fill
PRIO_ON
G1 X20.5009 Y-4.2863 E1567.28113 ; EInc=8.33362 cartesianDistance=4.25015 angle=0.000 pulseDistance=0.51000
; 
; feature travel
PRIO_OFF
G0 X21.81658 Y-4.2863 ; cartesianDistance=1.31571 (Travel)
; 
; feature fill
PRIO_ON
G1 X24.4947 Y-3.3115 E1572.86936 ; EInc=5.58822 cartesianDistance=2.84999 angle=0.000 pulseDistance=0.51000
; 
; feature travel
PRIO_OFF
G0 X24.4947 Y-3.79042 ; cartesianDistance=0.47888 (Travel)
; 
; feature fill
PRIO_ON
G1 X23.1323 Y-4.2863 E1575.71219 ; EInc=2.84283 cartesianDistance=1.44984 angle=0.000 pulseDistance=0.51000
; 
; feature travel
PRIO_OFF
G0 X0.6354 Y4.2863 ; cartesianDistance=24.07488 (Travel)
; 
; feature fill
PRIO_ON
G1 X0.0000 Y4.0550 E1576.37511 ; => originalEInc=1.32584 adjustedEInc=0.66292 density=0.5
G1 X-22.9176 Y-4.2863 E1624.19555 ; EInc=49.14629 cartesianDistance=25.06461 angle=0.000 pulseDistance=0.51000
; 
; feature travel
PRIO_OFF
G0 X-24.23334 Y-4.2863 ; cartesianDistance=1.31571 (Travel)
; 
; feature fill
PRIO_ON
G1 X-0.6803 Y4.2863 E1673.34184 ; EInc=49.14629 cartesianDistance=25.06461 angle=0.000 pulseDistance=0.51000
; 
; feature travel
PRIO_OFF
G0 X-1.99603 Y4.2863 ; cartesianDistance=1.31571 (Travel)
; 
; feature fill
PRIO_ON
G1 X-24.4947 Y-3.9026 E1720.28809 ; EInc=46.94625 cartesianDistance=23.94259 angle=0.000 pulseDistance=0.51000
; 
; feature travel
PRIO_OFF
G0 X-24.4947 Y-3.42367 ; cartesianDistance=0.47888 (Travel)
; 
; feature fill
PRIO_ON
G1 X-3.3117 Y4.2863 E1764.48895 ; EInc=44.20086 cartesianDistance=22.54244 angle=0.000 pulseDistance=0.51000
; 
; feature travel
PRIO_OFF
G0 X-4.62745 Y4.2863 ; cartesianDistance=1.31571 (Travel)
; 
; feature fill
PRIO_ON
G1 X-24.4947 Y-2.9448 E1805.94442 ; EInc=41.45546 cartesianDistance=21.14229 angle=0.000 pulseDistance=0.51000
; 
; feature travel
PRIO_OFF
G0 X-24.4947 Y-2.46591 ; cartesianDistance=0.47888 (Travel)
; 
; feature fill
PRIO_ON
G1 X-5.9432 Y4.2863 E1844.65449 ; EInc=38.71007 cartesianDistance=19.74214 angle=0.000 pulseDistance=0.51000
; 
; feature travel
PRIO_OFF
G0 X-7.25887 Y4.2863 ; cartesianDistance=1.31571 (Travel)
; 
; feature fill
PRIO_ON
G1 X-24.4947 Y-1.9870 E1880.61916 ; EInc=35.96467 cartesianDistance=18.34198 angle=0.000 pulseDistance=0.51000
; 
; feature travel
PRIO_OFF
G0 X-24.4947 Y-1.50815 ; cartesianDistance=0.47888 (Travel)
; 
; feature fill
PRIO_ON
G1 X-8.5746 Y4.2863 E1913.83844 ; EInc=33.21928 cartesianDistance=16.94183 angle=0.000 pulseDistance=0.51000
; 
; feature travel
PRIO_OFF
G0 X-9.8903 Y4.2863 ; cartesianDistance=1.31571 (Travel)
; 
; feature fill
PRIO_ON
G1 X-24.4947 Y-1.0293 E1944.31232 ; EInc=30.47388 cartesianDistance=15.54168 angle=0.000 pulseDistance=0.51000
; 
; feature travel
PRIO_OFF
G0 X-24.4947 Y-0.55039 ; cartesianDistance=0.47888 (Travel)
; 
; feature fill
PRIO_ON
G1 X-11.2060 Y4.2863 E1972.04081 ; EInc=27.72849 cartesianDistance=14.14153 angle=0.000 pulseDistance=0.51000
; 
; feature travel
PRIO_OFF
G0 X-12.52172 Y4.2863 ; cartesianDistance=1.31571 (Travel)
; 
; feature fill
PRIO_ON
G1 X-24.4947 Y-0.0715 E1997.02391 ; EInc=24.98309 cartesianDistance=12.74138 angle=0.000 pulseDistance=0.51000
; 
; feature travel
PRIO_OFF
G0 X-24.4947 Y0.40737 ; cartesianDistance=0.47888 (Travel)
; 
; feature fill
PRIO_ON
G1 X-13.8374 Y4.2863 E2019.26161 ; EInc=22.23770 cartesianDistance=11.34123 angle=0.000 pulseDistance=0.51000
; 
; feature travel
PRIO_OFF
G0 X-15.15314 Y4.2863 ; cartesianDistance=1.31571 (Travel)
; 
; feature fill
PRIO_ON
G1 X-24.4947 Y0.8862 E2038.75391 ; EInc=19.49230 cartesianDistance=9.94108 angle=0.000 pulseDistance=0.51000
; 
; feature travel
PRIO_OFF
G0 X-24.4947 Y1.36513 ; cartesianDistance=0.47888 (Travel)
; 
; feature fill
PRIO_ON
G1 X-16.4689 Y4.2863 E2055.50082 ; EInc=16.74691 cartesianDistance=8.54092 angle=0.000 pulseDistance=0.51000
; 
; feature travel
PRIO_OFF
G0 X-17.78457 Y4.2863 ; cartesianDistance=1.31571 (Travel)
; 
; feature fill
PRIO_ON
G1 X-24.4947 Y1.8440 E2069.50234 ; EInc=14.00151 cartesianDistance=7.14077 angle=0.000 pulseDistance=0.51000
; 
; feature travel
PRIO_OFF
G0 X-24.4947 Y2.32289 ; cartesianDistance=0.47888 (Travel)
; 
; feature fill
PRIO_ON
G1 X-19.1003 Y4.2863 E2080.75846 ; EInc=11.25612 cartesianDistance=5.74062 angle=0.000 pulseDistance=0.51000
; 
; feature travel
PRIO_OFF
G0 X-20.41599 Y4.2863 ; cartesianDistance=1.31571 (Travel)
; 
; feature fill
PRIO_ON
G1 X-24.4947 Y2.8018 E2089.26918 ; EInc=8.51072 cartesianDistance=4.34047 angle=0.000 pulseDistance=0.51000
; 
; feature travel
PRIO_OFF
G0 X-24.4947 Y3.28065 ; cartesianDistance=0.47888 (Travel)
; 
; feature fill
PRIO_ON
G1 X-21.7317 Y4.2863 E2095.03451 ; EInc=5.76533 cartesianDistance=2.94032 angle=0.000 pulseDistance=0.51000
; 
; feature travel
PRIO_OFF
G0 X-23.04742 Y4.2863 ; cartesianDistance=1.31571 (Travel)
; 
; feature fill
PRIO_ON
G1 X-24.4947 Y3.7595 E2098.05444 ; EInc=3.01993 cartesianDistance=1.54017 angle=0.000 pulseDistance=0.51000
; 
; feature travel
PRIO_OFF
G0 X-24.4947 Y4.23841 ; cartesianDistance=0.47888 (Travel)
; 
; feature fill
PRIO_ON
G1 X-24.3631 Y4.2863 E2098.32898 ; EInc=0.27454 cartesianDistance=0.14002 angle=0.000 pulseDistance=0.51000
PRIO_OFF
LayersCompleted=1
M1
; 
;========================
; layer 1, Z = 0.4800
; 
; reset extrusion
STOPRE
PRESETON(E, 0)
DO PRIO_PULSE_DISTANCE=DROP_SCALE
DO PRIO_ON_PATH_OFFSET=0.5*PRIO_PULSE_DISTANCE
;outer: (25.2604,-5.0521) (25.2604,5.0521) (-25.2604,5.0521) (-25.2604,-5.0521) (23.4604,-5.0521) holes: !
;overhangs:!
; 
; feature plane change
G0 X-24.36313 Y4.2863 Z0.48 ; cartesianDistance=0.00000 (Plane Change)
; 
; feature travel
G0 X20.74801 Y4.637 ; cartesianDistance=45.11250 (Travel)
; 
; feature outer perimeter
G1 F24000 FL[E] = OuterPerimeterFrequency * DROP_SCALE * 60
PRIO_ON
G1 X24.8454 Y4.6370 E9.64092 ; EInc=9.64092 cartesianDistance=4.09739 angle=90.000 pulseDistance=0.42500
G1 X24.8454 Y-4.6370 E31.46210 ; EInc=21.82118 cartesianDistance=9.27400 angle=90.000 pulseDistance=0.42500
G1 X-24.8454 Y-4.6370 E148.38162 ; EInc=116.91953 cartesianDistance=49.69080 angle=90.000 pulseDistance=0.42500
G1 X-24.8454 Y4.6370 E170.20280 ; EInc=21.82118 cartesianDistance=9.27400 angle=90.000 pulseDistance=0.42500
G1 X20.7480 Y4.6370 E277.48141 ; EInc=107.27861 cartesianDistance=45.59341 angle=180.000 pulseDistance=0.42500
; 
; feature travel
PRIO_OFF
G0 X20.74801 Y4.286 ; cartesianDistance=0.35100 (Travel)
; 
; feature inner perimeter
G1 F24000 FL[E] = InnerPerimeterFrequency * DROP_SCALE * 60
PRIO_ON
G1 X-24.4944 Y4.2860 E361.26365 ; EInc=83.78224 cartesianDistance=45.24241 angle=90.000 pulseDistance=0.54000
G1 X-24.4944 Y-4.2860 E377.13773 ; EInc=15.87407 cartesianDistance=8.57200 angle=90.000 pulseDistance=0.54000
G1 X24.4944 Y-4.2860 E467.85773 ; EInc=90.72000 cartesianDistance=48.98880 angle=90.000 pulseDistance=0.54000
G1 X24.4944 Y4.2860 E483.73180 ; EInc=15.87407 cartesianDistance=8.57200 angle=90.000 pulseDistance=0.54000
G1 X20.7480 Y4.2860 E490.66956 ; EInc=6.93776 cartesianDistance=3.74639 angle=180.000 pulseDistance=0.54000
; 
; feature travel
PRIO_OFF
G0 X20.73828 Y4.2863 ; cartesianDistance=0.00974 (Travel)
; 
; feature fill
G1 F24000 FL[E] = FillFrequency * DROP_SCALE * 60
PRIO_ON
G1 X16.7408 Y-4.2863 E509.21626 ; EInc=18.54670 cartesianDistance=9.45882 angle=0.000 pulseDistance=0.51000
; 
; feature travel
PRIO_OFF
G0 X17.23733 Y-4.2863 ; cartesianDistance=0.49652 (Travel)
; 
; feature fill
PRIO_ON
G1 X21.2348 Y4.2863 E527.76296 ; EInc=18.54670 cartesianDistance=9.45882 angle=0.000 pulseDistance=0.51000
; 
; feature travel
PRIO_OFF
G0 X21.73132 Y4.2863 ; cartesianDistance=0.49652 (Travel)
; 
; feature fill
PRIO_ON
G1 X17.7339 Y-4.2863 E546.30966 ; EInc=18.54670 cartesianDistance=9.45882 angle=0.000 pulseDistance=0.51000
; 
; feature travel
PRIO_OFF
G0 X18.23037 Y-4.2863 ; cartesianDistance=0.49652 (Travel)
; 
; feature fill
PRIO_ON
G1 X22.2278 Y4.2863 E564.85636 ; EInc=18.54670 cartesianDistance=9.45882 angle=0.000 pulseDistance=0.51000
; 
; feature travel
PRIO_OFF
G0 X22.72436 Y4.2863 ; cartesianDistance=0.49652 (Travel)
; 
; feature fill
PRIO_ON
G1 X18.7269 Y-4.2863 E583.40307 ; EInc=18.54670 cartesianDistance=9.45882 angle=0.000 pulseDistance=0.51000
; 
; feature travel
PRIO_OFF
G0 X19.22341 Y-4.2863 ; cartesianDistance=0.49652 (Travel)
; 
; feature fill
PRIO_ON
G1 X23.2209 Y4.2863 E601.94977 ; EInc=18.54670 cartesianDistance=9.45882 angle=0.000 pulseDistance=0.51000
; 
; feature travel
PRIO_OFF
G0 X23.7174 Y4.2863 ; cartesianDistance=0.49652 (Travel)
; 
; feature fill
PRIO_ON
G1 X19.7199 Y-4.2863 E620.49647 ; EInc=18.54670 cartesianDistance=9.45882 angle=0.000 pulseDistance=0.51000
; 
; feature travel
PRIO_OFF
G0 X20.21645 Y-4.2863 ; cartesianDistance=0.49652 (Travel)
; 
; feature fill
PRIO_ON
G1 X24.2139 Y4.2863 E639.04317 ; EInc=18.54670 cartesianDistance=9.45882 angle=0.000 pulseDistance=0.51000
; 
; feature travel
PRIO_OFF
G0 X24.4947 Y3.82365 ; cartesianDistance=0.54119 (Travel)
; 
; feature fill
PRIO_ON
G1 X20.7130 Y-4.2863 E656.58893 ; EInc=17.54576 cartesianDistance=8.94834 angle=0.000 pulseDistance=0.51000
; 
; feature travel
PRIO_OFF
G0 X21.20949 Y-4.2863 ; cartesianDistance=0.49652 (Travel)
; 
; feature fill
PRIO_ON
G1 X24.4947 Y2.7589 E671.83103 ; EInc=15.24210 cartesianDistance=7.77347 angle=0.000 pulseDistance=0.51000
; 
; feature travel
PRIO_OFF
G0 X24.4947 Y1.69407 ; cartesianDistance=1.06479 (Travel)
; 
; feature fill
PRIO_ON
G1 X21.7060 Y-4.2863 E684.76947 ; EInc=12.93844 cartesianDistance=6.59860 angle=0.000 pulseDistance=0.51000
; 
; feature travel
PRIO_OFF
G0 X22.20253 Y-4.2863 ; cartesianDistance=0.49652 (Travel)
; 
; feature fill
PRIO_ON
G1 X24.4947 Y0.6293 E695.40425 ; EInc=10.63478 cartesianDistance=5.42374 angle=0.000 pulseDistance=0.51000
; 
; feature travel
PRIO_OFF
G0 X24.4947 Y-0.43552 ; cartesianDistance=1.06479 (Travel)
; 
; feature fill
PRIO_ON
G1 X22.6990 Y-4.2863 E703.73537 ; EInc=8.33112 cartesianDistance=4.24887 angle=0.000 pulseDistance=0.51000
; 
; feature travel
PRIO_OFF
G0 X23.19557 Y-4.2863 ; cartesianDistance=0.49652 (Travel)
; 
; feature fill
PRIO_ON
G1 X24.4947 Y-1.5003 E709.76283 ; EInc=6.02746 cartesianDistance=3.07400 angle=0.000 pulseDistance=0.51000
; 
; feature travel
PRIO_OFF
G0 X24.4947 Y-2.5651 ; cartesianDistance=1.06479 (Travel)
; 
; feature fill
PRIO_ON
G1 X23.6921 Y-4.2863 E713.48663 ; EInc=3.72380 cartesianDistance=1.89914 angle=0.000 pulseDistance=0.51000
; 
; feature travel
PRIO_OFF
G0 X24.18861 Y-4.2863 ; cartesianDistance=0.49652 (Travel)
; 
; feature fill
PRIO_ON
G1 X24.4947 Y-3.6299 E714.90677 ; EInc=1.42014 cartesianDistance=0.72427 angle=0.000 pulseDistance=0.51000
; 
; feature travel
PRIO_OFF
G0 X16.24429 Y-4.2863 ; cartesianDistance=8.27648 (Travel)
; 
; feature fill
PRIO_ON
G1 X20.2418 Y4.2863 E733.45347 ; EInc=18.54670 cartesianDistance=9.45882 angle=0.000 pulseDistance=0.51000
; 
; feature travel
PRIO_OFF
G0 X19.74524 Y4.2863 ; cartesianDistance=0.49652 (Travel)
; 
; feature fill
PRIO_ON
G1 X15.7478 Y-4.2863 E752.00017 ; EInc=18.54670 cartesianDistance=9.45882 angle=0.000 pulseDistance=0.51000
; 
; feature travel
PRIO_OFF
G0 X15.25125 Y-4.2863 ; cartesianDistance=0.49652 (Travel)
; 
; feature fill
PRIO_ON
G1 X19.2487 Y4.2863 E770.54687 ; EInc=18.54670 cartesianDistance=9.45882 angle=0.000 pulseDistance=0.51000
; 
; feature travel
PRIO_OFF
G0 X18.7522 Y4.2863 ; cartesianDistance=0.49652 (Travel)
; 
; feature fill
PRIO_ON
G1 X14.7547 Y-4.2863 E789.09357 ; EInc=18.54670 cartesianDistance=9.45882 angle=0.000 pulseDistance=0.51000
; 
; feature travel
PRIO_OFF
G0 X14.25821 Y-4.2863 ; cartesianDistance=0.49652 (Travel)
; 
; feature fill
PRIO_ON
G1 X18.2557 Y4.2863 E807.64027 ; EInc=18.54670 cartesianDistance=9.45882 angle=0.000 pulseDistance=0.51000
; 
; feature travel
PRIO_OFF
G0 X17.75916 Y4.2863 ; cartesianDistance=0.49652 (Travel)
; 
; feature fill
PRIO_ON
G1 X13.7617 Y-4.2863 E826.18697 ; EInc=18.54670 cartesianDistance=9.45882 angle=0.000 pulseDistance=0.51000
; 
; feature travel
PRIO_OFF
G0 X13.26517 Y-4.2863 ; cartesianDistance=0.49652 (Travel)
; 
; feature fill
PRIO_ON
G1 X17.2626 Y4.2863 E844.73367 ; EInc=18.54670 cartesianDistance=9.45882 angle=0.000 pulseDistance=0.51000
; 
; feature travel
PRIO_OFF
G0 X16.76612 Y4.2863 ; cartesianDistance=0.49652 (Travel)
; 
; feature fill
PRIO_ON
G1 X12.7686 Y-4.2863 E863.28037 ; EInc=18.54670 cartesianDistance=9.45882 angle=0.000 pulseDistance=0.51000
; 
; feature travel
PRIO_OFF
G0 X12.27213 Y-4.2863 ; cartesianDistance=0.49652 (Travel)
; 
; feature fill
PRIO_ON
G1 X16.2696 Y4.2863 E881.82707 ; EInc=18.54670 cartesianDistance=9.45882 angle=0.000 pulseDistance=0.51000
; 
; feature travel
PRIO_OFF
G0 X15.77308 Y4.2863 ; cartesianDistance=0.49652 (Travel)
; 
; feature fill
PRIO_ON
G1 X11.7756 Y-4.2863 E900.37378 ; EInc=18.54670 cartesianDistance=9.45882 angle=0.000 pulseDistance=0.51000
; 
; feature travel
PRIO_OFF
G0 X11.27909 Y-4.2863 ; cartesianDistance=0.49652 (Travel)
; 
; feature fill
PRIO_ON
G1 X15.2766 Y4.2863 E918.92048 ; EInc=18.54670 cartesianDistance=9.45882 angle=0.000 pulseDistance=0.51000
; 
; feature travel
PRIO_OFF
G0 X14.78004 Y4.2863 ; cartesianDistance=0.49652 (Travel)
; 
; feature fill
PRIO_ON
G1 X10.7826 Y-4.2863 E937.46718 ; EInc=18.54670 cartesianDistance=9.45882 angle=0.000 pulseDistance=0.51000
; 
; feature travel
PRIO_OFF
G0 X10.28605 Y-4.2863 ; cartesianDistance=0.49652 (Travel)
; 
; feature fill
PRIO_ON
G1 X14.2835 Y4.2863 E956.01388 ; EInc=18.54670 cartesianDistance=9.45882 angle=0.000 pulseDistance=0.51000
; 
; feature travel
PRIO_OFF
G0 X13.787 Y4.2863 ; cartesianDistance=0.49652 (Travel)
; 
; feature fill
PRIO_ON
G1 X9.7895 Y-4.2863 E974.56058 ; EInc=18.54670 cartesianDistance=9.45882 angle=0.000 pulseDistance=0.51000
; 
; feature travel
PRIO_OFF
G0 X9.29301 Y-4.2863 ; cartesianDistance=0.49652 (Travel)
; 
; feature fill
PRIO_ON
G1 X13.2905 Y4.2863 E993.10728 ; EInc=18.54670 cartesianDistance=9.45882 angle=0.000 pulseDistance=0.51000
; 
; feature travel
PRIO_OFF
G0 X12.79396 Y4.2863 ; cartesianDistance=0.49652 (Travel)
; 
; feature fill
PRIO_ON
G1 X8.7965 Y-4.2863 E1011.65398 ; EInc=18.54670 cartesianDistance=9.45882 angle=0.000 pulseDistance=0.51000
; 
; feature travel
PRIO_OFF
G0 X8.29997 Y-4.2863 ; cartesianDistance=0.49652 (Travel)
; 
; feature fill
PRIO_ON
G1 X12.2974 Y4.2863 E1030.20068 ; EInc=18.54670 cartesianDistance=9.45882 angle=0.000 pulseDistance=0.51000
; 
; feature travel
PRIO_OFF
G0 X11.80092 Y4.2863 ; cartesianDistance=0.49652 (Travel)
; 
; feature fill
PRIO_ON
G1 X7.8034 Y-4.2863 E1048.74738 ; EInc=18.54670 cartesianDistance=9.45882 angle=0.000 pulseDistance=0.51000
; 
; feature travel
PRIO_OFF
G0 X7.30693 Y-4.2863 ; cartesianDistance=0.49652 (Travel)
; 
; feature fill
PRIO_ON
G1 X11.3044 Y4.2863 E1067.29409 ; EInc=18.54670 cartesianDistance=9.45882 angle=0.000 pulseDistance=0.51000
; 
; feature travel
PRIO_OFF
G0 X10.80788 Y4.2863 ; cartesianDistance=0.49652 (Travel)
; 
; feature fill
PRIO_ON
G1 X6.8104 Y-4.2863 E1085.84079 ; EInc=18.54670 cartesianDistance=9.45882 angle=0.000 pulseDistance=0.51000
; 
; feature travel
PRIO_OFF
G0 X6.31389 Y-4.2863 ; cartesianDistance=0.49652 (Travel)
; 
; feature fill
PRIO_ON
G1 X10.3114 Y4.2863 E1104.38749 ; EInc=18.54670 cartesianDistance=9.45882 angle=0.000 pulseDistance=0.51000
; 
; feature travel
PRIO_OFF
G0 X9.81484 Y4.2863 ; cartesianDistance=0.49652 (Travel)
; 
; feature fill
PRIO_ON
G1 X5.8174 Y-4.2863 E1122.93419 ; EInc=18.54670 cartesianDistance=9.45882 angle=0.000 pulseDistance=0.51000
; 
; feature travel
PRIO_OFF
G0 X5.32085 Y-4.2863 ; cartesianDistance=0.49652 (Travel)
; 
; feature fill
PRIO_ON
G1 X9.3183 Y4.2863 E1141.48089 ; EInc=18.54670 cartesianDistance=9.45882 angle=0.000 pulseDistance=0.51000
; 
; feature travel
PRIO_OFF
G0 X8.8218 Y4.2863 ; cartesianDistance=0.49652 (Travel)
; 
; feature fill
PRIO_ON
G1 X4.8243 Y-4.2863 E1160.02759 ; EInc=18.54670 cartesianDistance=9.45882 angle=0.000 pulseDistance=0.51000
; 
; feature travel
PRIO_OFF
G0 X4.32781 Y-4.2863 ; cartesianDistance=0.49652 (Travel)
; 
; feature fill
PRIO_ON
G1 X8.3253 Y4.2863 E1178.57429 ; EInc=18.54670 cartesianDistance=9.45882 angle=0.000 pulseDistance=0.51000
; 
; feature travel
PRIO_OFF
G0 X7.82876 Y4.2863 ; cartesianDistance=0.49652 (Travel)
; 
; feature fill
PRIO_ON
G1 X3.8313 Y-4.2863 E1197.12099 ; EInc=18.54670 cartesianDistance=9.45882 angle=0.000 pulseDistance=0.51000
; 
; feature travel
PRIO_OFF
G0 X3.33477 Y-4.2863 ; cartesianDistance=0.49652 (Travel)
; 
; feature fill
PRIO_ON
G1 X7.3322 Y4.2863 E1215.66769 ; EInc=18.54670 cartesianDistance=9.45882 angle=0.000 pulseDistance=0.51000
; 
; feature travel
PRIO_OFF
G0 X6.83572 Y4.2863 ; cartesianDistance=0.49652 (Travel)
; 
; feature fill
PRIO_ON
G1 X2.8382 Y-4.2863 E1234.21440 ; EInc=18.54670 cartesianDistance=9.45882 angle=0.000 pulseDistance=0.51000
; 
; feature travel
PRIO_OFF
G0 X2.34173 Y-4.2863 ; cartesianDistance=0.49652 (Travel)
; 
; feature fill
PRIO_ON
G1 X6.3392 Y4.2863 E1252.76110 ; EInc=18.54670 cartesianDistance=9.45882 angle=0.000 pulseDistance=0.51000
; 
; feature travel
PRIO_OFF
G0 X5.84268 Y4.2863 ; cartesianDistance=0.49652 (Travel)
; 
; feature fill
PRIO_ON
G1 X1.8452 Y-4.2863 E1271.30780 ; EInc=18.54670 cartesianDistance=9.45882 angle=0.000 pulseDistance=0.51000
; 
; feature travel
PRIO_OFF
G0 X1.34869 Y-4.2863 ; cartesianDistance=0.49652 (Travel)
; 
; feature fill
PRIO_ON
G1 X5.3462 Y4.2863 E1289.85450 ; EInc=18.54670 cartesianDistance=9.45882 angle=0.000 pulseDistance=0.51000
; 
; feature travel
PRIO_OFF
G0 X4.84964 Y4.2863 ; cartesianDistance=0.49652 (Travel)
; 
; feature fill
PRIO_ON
G1 X0.8522 Y-4.2863 E1308.40120 ; EInc=18.54670 cartesianDistance=9.45882 angle=0.000 pulseDistance=0.51000
; 
; feature travel
PRIO_OFF
G0 X0.35565 Y-4.2863 ; cartesianDistance=0.49652 (Travel)
; 
; feature fill
PRIO_ON
G1 X4.3531 Y4.2863 E1326.94790 ; EInc=18.54670 cartesianDistance=9.45882 angle=0.000 pulseDistance=0.51000
; 
; feature travel
PRIO_OFF
G0 X3.8566 Y4.2863 ; cartesianDistance=0.49652 (Travel)
; 
; feature fill
PRIO_ON
G1 X0.0000 Y-3.9842 E1335.89446 ; => originalEInc=17.89312 adjustedEInc=8.94656 density=0.5
G1 X-0.1409 Y-4.2863 E1336.54804 ; EInc=18.54670 cartesianDistance=9.45882 angle=0.000 pulseDistance=0.51000
; 
; feature travel
PRIO_OFF
G0 X-0.63739 Y-4.2863 ; cartesianDistance=0.49652 (Travel)
; 
; feature fill
PRIO_ON
G1 X0.0000 Y-2.9194 E1339.50528 
G1 X3.3601 Y4.2863 E1347.30001 ; EInc=18.54670 cartesianDistance=9.45882 angle=0.000 pulseDistance=0.51000 => originalEInc=15.58946 adjustedEInc=7.79473 density=0.5
; 
; feature travel
PRIO_OFF
G0 X2.86356 Y4.2863 ; cartesianDistance=0.49652 (Travel)
; 
; feature fill
PRIO_ON
G1 X0.0000 Y-1.8546 E1353.94291 ; => originalEInc=13.28580 adjustedEInc=6.64290 density=0.5
G1 X-1.1339 Y-4.2863 E1359.20381 ; EInc=18.54670 cartesianDistance=9.45882 angle=0.000 pulseDistance=0.51000
; 
; feature travel
PRIO_OFF
G0 X-1.63043 Y-4.2863 ; cartesianDistance=0.49652 (Travel)
; 
; feature fill
PRIO_ON
G1 X0.0000 Y-0.7898 E1366.76837 
G1 X2.3670 Y4.2863 E1372.25944 ; EInc=18.54670 cartesianDistance=9.45882 angle=0.000 pulseDistance=0.51000 => originalEInc=10.98214 adjustedEInc=5.49107 density=0.5
; 
; feature travel
PRIO_OFF
G0 X1.87052 Y4.2863 ; cartesianDistance=0.49652 (Travel)
; 
; feature fill
PRIO_ON
G1 X0.0000 Y0.2750 E1376.59868 ; => originalEInc=8.67849 adjustedEInc=4.33924 density=0.5
G1 X-2.1269 Y-4.2863 E1386.46691 ; EInc=18.54670 cartesianDistance=9.45882 angle=0.000 pulseDistance=0.51000
; 
; feature travel
PRIO_OFF
G0 X-2.62347 Y-4.2863 ; cartesianDistance=0.49652 (Travel)
; 
; feature fill
PRIO_ON
G1 X0.0000 Y1.3397 E1398.63878 
G1 X1.3740 Y4.2863 E1401.82620 ; EInc=18.54670 cartesianDistance=9.45882 angle=0.000 pulseDistance=0.51000 => originalEInc=6.37482 adjustedEInc=3.18741 density=0.5
; 
; feature travel
PRIO_OFF
G0 X0.87748 Y4.2863 ; cartesianDistance=0.49652 (Travel)
; 
; feature fill
PRIO_ON
G1 X0.0000 Y2.4045 E1403.86178 ; => originalEInc=4.07116 adjustedEInc=2.03558 density=0.5
G1 X-3.1200 Y-4.2863 E1418.33731 ; EInc=18.54670 cartesianDistance=9.45882 angle=0.000 pulseDistance=0.51000
; 
; feature travel
PRIO_OFF
G0 X-3.61651 Y-4.2863 ; cartesianDistance=0.49652 (Travel)
; 
; feature fill
PRIO_ON
G1 X0.0000 Y3.4693 E1435.11651 
G1 X0.3810 Y4.2863 E1436.00026 ; EInc=18.54670 cartesianDistance=9.45882 angle=0.000 pulseDistance=0.51000 => originalEInc=1.76751 adjustedEInc=0.88375 density=0.5
; 
; feature travel
PRIO_OFF
G0 X-0.11556 Y4.2863 ; cartesianDistance=0.49652 (Travel)
; 
; feature fill
PRIO_ON
G1 X-4.1130 Y-4.2863 E1454.54696 ; EInc=18.54670 cartesianDistance=9.45882 angle=0.000 pulseDistance=0.51000
; 
; feature travel
PRIO_OFF
G0 X-4.60955 Y-4.2863 ; cartesianDistance=0.49652 (Travel)
; 
; feature fill
PRIO_ON
G1 X-0.6121 Y4.2863 E1473.09366 ; EInc=18.54670 cartesianDistance=9.45882 angle=0.000 pulseDistance=0.51000
; 
; feature travel
PRIO_OFF
G0 X-1.10861 Y4.2863 ; cartesianDistance=0.49652 (Travel)
; 
; feature fill
PRIO_ON
G1 X-5.1061 Y-4.2863 E1491.64036 ; EInc=18.54670 cartesianDistance=9.45882 angle=0.000 pulseDistance=0.51000
; 
; feature travel
PRIO_OFF
G0 X-5.60259 Y-4.2863 ; cartesianDistance=0.49652 (Travel)
; 
; feature fill
PRIO_ON
G1 X-1.6051 Y4.2863 E1510.18706 ; EInc=18.54670 cartesianDistance=9.45882 angle=0.000 pulseDistance=0.51000
; 
; feature travel
PRIO_OFF
G0 X-2.10165 Y4.2863 ; cartesianDistance=0.49652 (Travel)
; 
; feature fill
PRIO_ON
G1 X-6.0991 Y-4.2863 E1528.73376 ; EInc=18.54670 cartesianDistance=9.45882 angle=0.000 pulseDistance=0.51000
; 
; feature travel
PRIO_OFF
G0 X-6.59563 Y-4.2863 ; cartesianDistance=0.49652 (Travel)
; 
; feature fill
PRIO_ON
G1 X-2.5982 Y4.2863 E1547.28047 ; EInc=18.54670 cartesianDistance=9.45882 angle=0.000 pulseDistance=0.51000
; 
; feature travel
PRIO_OFF
G0 X-3.09469 Y4.2863 ; cartesianDistance=0.49652 (Travel)
; 
; feature fill
PRIO_ON
G1 X-7.0922 Y-4.2863 E1565.82717 ; EInc=18.54670 cartesianDistance=9.45882 angle=0.000 pulseDistance=0.51000
; 
; feature travel
PRIO_OFF
G0 X-7.58867 Y-4.2863 ; cartesianDistance=0.49652 (Travel)
; 
; feature fill
PRIO_ON
G1 X-3.5912 Y4.2863 E1584.37387 ; EInc=18.54670 cartesianDistance=9.45882 angle=0.000 pulseDistance=0.51000
; 
; feature travel
PRIO_OFF
G0 X-4.08773 Y4.2863 ; cartesianDistance=0.49652 (Travel)
; 
; feature fill
PRIO_ON
G1 X-8.0852 Y-4.2863 E1602.92057 ; EInc=18.54670 cartesianDistance=9.45882 angle=0.000 pulseDistance=0.51000
; 
; feature travel
PRIO_OFF
G0 X-8.58171 Y-4.2863 ; cartesianDistance=0.49652 (Travel)
; 
; feature fill
PRIO_ON
G1 X-4.5842 Y4.2863 E1621.46727 ; EInc=18.54670 cartesianDistance=9.45882 angle=0.000 pulseDistance=0.51000
; 
; feature travel
PRIO_OFF
G0 X-5.08077 Y4.2863 ; cartesianDistance=0.49652 (Travel)
; 
; feature fill
PRIO_ON
G1 X-9.0782 Y-4.2863 E1640.01397 ; EInc=18.54670 cartesianDistance=9.45882 angle=0.000 pulseDistance=0.51000
; 
; feature travel
PRIO_OFF
G0 X-9.57475 Y-4.2863 ; cartesianDistance=0.49652 (Travel)
; 
; feature fill
PRIO_ON
G1 X-5.5773 Y4.2863 E1658.56067 ; EInc=18.54670 cartesianDistance=9.45882 angle=0.000 pulseDistance=0.51000
; 
; feature travel
PRIO_OFF
G0 X-6.07381 Y4.2863 ; cartesianDistance=0.49652 (Travel)
; 
; feature fill
PRIO_ON
G1 X-10.0713 Y-4.2863 E1677.10737 ; EInc=18.54670 cartesianDistance=9.45882 angle=0.000 pulseDistance=0.51000
; 
; feature travel
PRIO_OFF
G0 X-10.56779 Y-4.2863 ; cartesianDistance=0.49652 (Travel)
; 
; feature fill
PRIO_ON
G1 X-6.5703 Y4.2863 E1695.65407 ; EInc=18.54670 cartesianDistance=9.45882 angle=0.000 pulseDistance=0.51000
; 
; feature travel
PRIO_OFF
G0 X-7.06685 Y4.2863 ; cartesianDistance=0.49652 (Travel)
; 
; feature fill
PRIO_ON
G1 X-11.0643 Y-4.2863 E1714.20078 ; EInc=18.54670 cartesianDistance=9.45882 angle=0.000 pulseDistance=0.51000
; 
; feature travel
PRIO_OFF
G0 X-11.56083 Y-4.2863 ; cartesianDistance=0.49652 (Travel)
; 
; feature fill
PRIO_ON
G1 X-7.5634 Y4.2863 E1732.74748 ; EInc=18.54670 cartesianDistance=9.45882 angle=0.000 pulseDistance=0.51000
; 
; feature travel
PRIO_OFF
G0 X-8.05989 Y4.2863 ; cartesianDistance=0.49652 (Travel)
; 
; feature fill
PRIO_ON
G1 X-12.0573 Y-4.2863 E1751.29418 ; EInc=18.54670 cartesianDistance=9.45882 angle=0.000 pulseDistance=0.51000
; 
; feature travel
PRIO_OFF
G0 X-12.55387 Y-4.2863 ; cartesianDistance=0.49652 (Travel)
; 
; feature fill
PRIO_ON
G1 X-8.5564 Y4.2863 E1769.84088 ; EInc=18.54670 cartesianDistance=9.45882 angle=0.000 pulseDistance=0.51000
; 
; feature travel
PRIO_OFF
G0 X-9.05293 Y4.2863 ; cartesianDistance=0.49652 (Travel)
; 
; feature fill
PRIO_ON
G1 X-13.0504 Y-4.2863 E1788.38758 ; EInc=18.54670 cartesianDistance=9.45882 angle=0.000 pulseDistance=0.51000
; 
; feature travel
PRIO_OFF
G0 X-13.54692 Y-4.2863 ; cartesianDistance=0.49652 (Travel)
; 
; feature fill
PRIO_ON
G1 X-9.5495 Y4.2863 E1806.93428 ; EInc=18.54670 cartesianDistance=9.45882 angle=0.000 pulseDistance=0.51000
; 
; feature travel
PRIO_OFF
G0 X-10.04597 Y4.2863 ; cartesianDistance=0.49652 (Travel)
; 
; feature fill
PRIO_ON
G1 X-14.0434 Y-4.2863 E1825.48098 ; EInc=18.54670 cartesianDistance=9.45882 angle=0.000 pulseDistance=0.51000
; 
; feature travel
PRIO_OFF
G0 X-14.53996 Y-4.2863 ; cartesianDistance=0.49652 (Travel)
; 
; feature fill
PRIO_ON
G1 X-10.5425 Y4.2863 E1844.02768 ; EInc=18.54670 cartesianDistance=9.45882 angle=0.000 pulseDistance=0.51000
; 
; feature travel
PRIO_OFF
G0 X-11.03901 Y4.2863 ; cartesianDistance=0.49652 (Travel)
; 
; feature fill
PRIO_ON
G1 X-15.0365 Y-4.2863 E1862.57438 ; EInc=18.54670 cartesianDistance=9.45882 angle=0.000 pulseDistance=0.51000
; 
; feature travel
PRIO_OFF
G0 X-15.533 Y-4.2863 ; cartesianDistance=0.49652 (Travel)
; 
; feature fill
PRIO_ON
G1 X-11.5355 Y4.2863 E1881.12109 ; EInc=18.54670 cartesianDistance=9.45882 angle=0.000 pulseDistance=0.51000
; 
; feature travel
PRIO_OFF
G0 X-12.03205 Y4.2863 ; cartesianDistance=0.49652 (Travel)
; 
; feature fill
PRIO_ON
G1 X-16.0295 Y-4.2863 E1899.66779 ; EInc=18.54670 cartesianDistance=9.45882 angle=0.000 pulseDistance=0.51000
; 
; feature travel
PRIO_OFF
G0 X-16.52604 Y-4.2863 ; cartesianDistance=0.49652 (Travel)
; 
; feature fill
PRIO_ON
G1 X-12.5286 Y4.2863 E1918.21449 ; EInc=18.54670 cartesianDistance=9.45882 angle=0.000 pulseDistance=0.51000
; 
; feature travel
PRIO_OFF
G0 X-13.02509 Y4.2863 ; cartesianDistance=0.49652 (Travel)
; 
; feature fill
PRIO_ON
G1 X-17.0226 Y-4.2863 E1936.76119 ; EInc=18.54670 cartesianDistance=9.45882 angle=0.000 pulseDistance=0.51000
; 
; feature travel
PRIO_OFF
G0 X-17.51908 Y-4.2863 ; cartesianDistance=0.49652 (Travel)
; 
; feature fill
PRIO_ON
G1 X-13.5216 Y4.2863 E1955.30789 ; EInc=18.54670 cartesianDistance=9.45882 angle=0.000 pulseDistance=0.51000
; 
; feature travel
PRIO_OFF
G0 X-14.01813 Y4.2863 ; cartesianDistance=0.49652 (Travel)
; 
; feature fill
PRIO_ON
G1 X-18.0156 Y-4.2863 E1973.85459 ; EInc=18.54670 cartesianDistance=9.45882 angle=0.000 pulseDistance=0.51000
; 
; feature travel
PRIO_OFF
G0 X-18.51212 Y-4.2863 ; cartesianDistance=0.49652 (Travel)
; 
; feature fill
PRIO_ON
G1 X-14.5146 Y4.2863 E1992.40129 ; EInc=18.54670 cartesianDistance=9.45882 angle=0.000 pulseDistance=0.51000
; 
; feature travel
PRIO_OFF
G0 X-15.01117 Y4.2863 ; cartesianDistance=0.49652 (Travel)
; 
; feature fill
PRIO_ON
G1 X-19.0086 Y-4.2863 E2010.94799 ; EInc=18.54670 cartesianDistance=9.45882 angle=0.000 pulseDistance=0.51000
; 
; feature travel
PRIO_OFF
G0 X-19.50516 Y-4.2863 ; cartesianDistance=0.49652 (Travel)
; 
; feature fill
PRIO_ON
G1 X-15.5077 Y4.2863 E2029.49469 ; EInc=18.54670 cartesianDistance=9.45882 angle=0.000 pulseDistance=0.51000
; 
; feature travel
PRIO_OFF
G0 X-16.00421 Y4.2863 ; cartesianDistance=0.49652 (Travel)
; 
; feature fill
PRIO_ON
G1 X-20.0017 Y-4.2863 E2048.04139 ; EInc=18.54670 cartesianDistance=9.45882 angle=0.000 pulseDistance=0.51000
; 
; feature travel
PRIO_OFF
G0 X-20.4982 Y-4.2863 ; cartesianDistance=0.49652 (Travel)
; 
; feature fill
PRIO_ON
G1 X-16.5007 Y4.2863 E2066.58810 ; EInc=18.54670 cartesianDistance=9.45882 angle=0.000 pulseDistance=0.51000
; 
; feature travel
PRIO_OFF
G0 X-16.99725 Y4.2863 ; cartesianDistance=0.49652 (Travel)
; 
; feature fill
PRIO_ON
G1 X-20.9947 Y-4.2863 E2085.13480 ; EInc=18.54670 cartesianDistance=9.45882 angle=0.000 pulseDistance=0.51000
; 
; feature travel
PRIO_OFF
G0 X-21.49124 Y-4.2863 ; cartesianDistance=0.49652 (Travel)
; 
; feature fill
PRIO_ON
G1 X-17.4938 Y4.2863 E2103.68150 ; EInc=18.54670 cartesianDistance=9.45882 angle=0.000 pulseDistance=0.51000
; 
; feature travel
PRIO_OFF
G0 X-17.99029 Y4.2863 ; cartesianDistance=0.49652 (Travel)
; 
; feature fill
PRIO_ON
G1 X-21.9878 Y-4.2863 E2122.22820 ; EInc=18.54670 cartesianDistance=9.45882 angle=0.000 pulseDistance=0.51000
; 
; feature travel
PRIO_OFF
G0 X-22.48428 Y-4.2863 ; cartesianDistance=0.49652 (Travel)
; 
; feature fill
PRIO_ON
G1 X-18.4868 Y4.2863 E2140.77490 ; EInc=18.54670 cartesianDistance=9.45882 angle=0.000 pulseDistance=0.51000
; 
; feature travel
PRIO_OFF
G0 X-18.98333 Y4.2863 ; cartesianDistance=0.49652 (Travel)
; 
; feature fill
PRIO_ON
G1 X-22.9808 Y-4.2863 E2159.32160 ; EInc=18.54670 cartesianDistance=9.45882 angle=0.000 pulseDistance=0.51000
; 
; feature travel
PRIO_OFF
G0 X-23.47732 Y-4.2863 ; cartesianDistance=0.49652 (Travel)
; 
; feature fill
PRIO_ON
G1 X-19.4798 Y4.2863 E2177.86830 ; EInc=18.54670 cartesianDistance=9.45882 angle=0.000 pulseDistance=0.51000
; 
; feature travel
PRIO_OFF
G0 X-19.97637 Y4.2863 ; cartesianDistance=0.49652 (Travel)
; 
; feature fill
PRIO_ON
G1 X-23.9738 Y-4.2863 E2196.41500 ; EInc=18.54670 cartesianDistance=9.45882 angle=0.000 pulseDistance=0.51000
; 
; feature travel
PRIO_OFF
G0 X-24.47036 Y-4.2863 ; cartesianDistance=0.49652 (Travel)
; 
; feature fill
PRIO_ON
G1 X-20.4729 Y4.2863 E2214.96170 ; EInc=18.54670 cartesianDistance=9.45882 angle=0.000 pulseDistance=0.51000
; 
; feature travel
PRIO_OFF
G0 X-20.96941 Y4.2863 ; cartesianDistance=0.49652 (Travel)
; 
; feature fill
PRIO_ON
G1 X-24.4947 Y-3.2737 E2231.31769 ; EInc=16.35599 cartesianDistance=8.34155 angle=0.000 pulseDistance=0.51000
; 
; feature travel
PRIO_OFF
G0 X-24.4947 Y-2.20892 ; cartesianDistance=1.06479 (Travel)
; 
; feature fill
PRIO_ON
G1 X-21.4659 Y4.2863 E2245.37002 ; EInc=14.05233 cartesianDistance=7.16669 angle=0.000 pulseDistance=0.51000
; 
; feature travel
PRIO_OFF
G0 X-21.96245 Y4.2863 ; cartesianDistance=0.49652 (Travel)
; 
; feature fill
PRIO_ON
G1 X-24.4947 Y-1.1441 E2257.11868 ; EInc=11.74867 cartesianDistance=5.99182 angle=0.000 pulseDistance=0.51000
; 
; feature travel
PRIO_OFF
G0 X-24.4947 Y-0.07934 ; cartesianDistance=1.06479 (Travel)
; 
; feature fill
PRIO_ON
G1 X-22.4590 Y4.2863 E2266.56369 ; EInc=9.44501 cartesianDistance=4.81695 angle=0.000 pulseDistance=0.51000
; 
; feature travel
PRIO_OFF
G0 X-22.95549 Y4.2863 ; cartesianDistance=0.49652 (Travel)
; 
; feature fill
PRIO_ON
G1 X-24.4947 Y0.9855 E2273.70503 ; EInc=7.14135 cartesianDistance=3.64209 angle=0.000 pulseDistance=0.51000
; 
; feature travel
PRIO_OFF
G0 X-24.4947 Y2.05024 ; cartesianDistance=1.06479 (Travel)
; 
; feature fill
PRIO_ON
G1 X-23.4520 Y4.2863 E2278.54272 ; EInc=4.83769 cartesianDistance=2.46722 angle=0.000 pulseDistance=0.51000
; 
; feature travel
PRIO_OFF
G0 X-23.94853 Y4.2863 ; cartesianDistance=0.49652 (Travel)
; 
; feature fill
PRIO_ON
G1 X-24.4947 Y3.1150 E2281.07674 ; EInc=2.53403 cartesianDistance=1.29235 angle=0.000 pulseDistance=0.51000
; 
; feature travel
PRIO_OFF
G0 X-24.4947 Y4.17982 ; cartesianDistance=1.06479 (Travel)
; 
; feature fill
PRIO_ON
G1 X-24.4450 Y4.2863 E2281.30711 ; EInc=0.23037 cartesianDistance=0.11749 angle=0.000 pulseDistance=0.51000
PRIO_OFF
LayersCompleted=2
M1
; 
;========================
; layer 2, Z = 0.7200
; 
; reset extrusion
STOPRE
PRESETON(E, 0)
DO PRIO_PULSE_DISTANCE=DROP_SCALE
DO PRIO_ON_PATH_OFFSET=0.5*PRIO_PULSE_DISTANCE
;outer: (25.2604,-5.0521) (25.2604,5.0521) (-25.2604,5.0521) (-25.2604,-5.0521) (22.2604,-5.0521) holes: !
;overhangs:!
; 
; feature plane change
G0 X-24.44505 Y4.2863 Z0.72 ; cartesianDistance=0.00000 (Plane Change)
; 
; feature travel
G0 X24.8454 Y-3.10697 ; cartesianDistance=49.84184 (Travel)
; 
; feature outer perimeter
G1 F24000 FL[E] = OuterPerimeterFrequency * DROP_SCALE * 60
PRIO_ON
G1 X24.8454 Y4.6370 E18.22111 ; EInc=18.22111 cartesianDistance=7.74397 angle=90.000 pulseDistance=0.42500
G1 X-24.8454 Y4.6370 E135.14064 ; EInc=116.91953 cartesianDistance=49.69080 angle=90.000 pulseDistance=0.42500
G1 X-24.8454 Y-4.6370 E156.96182 ; EInc=21.82118 cartesianDistance=9.27400 angle=90.000 pulseDistance=0.42500
G1 X24.8454 Y-4.6370 E273.88135 ; EInc=116.91953 cartesianDistance=49.69080 angle=90.000 pulseDistance=0.42500
G1 X24.8454 Y-3.1070 E277.48141 ; EInc=3.60006 cartesianDistance=1.53003 angle=180.000 pulseDistance=0.42500
; 
; feature travel
PRIO_OFF
G0 X24.4944 Y-3.10697 ; cartesianDistance=0.35100 (Travel)
; 
; feature inner perimeter
G1 F24000 FL[E] = InnerPerimeterFrequency * DROP_SCALE * 60
PRIO_ON
G1 X24.4944 Y-4.2860 E279.66479 ; EInc=2.18338 cartesianDistance=1.17903 angle=90.000 pulseDistance=0.54000
G1 X-24.4944 Y-4.2860 E370.38479 ; EInc=90.72000 cartesianDistance=48.98880 angle=90.000 pulseDistance=0.54000
G1 X-24.4944 Y4.2860 E386.25887 ; EInc=15.87407 cartesianDistance=8.57200 angle=90.000 pulseDistance=0.54000
G1 X24.4944 Y4.2860 E476.97887 ; EInc=90.72000 cartesianDistance=48.98880 angle=90.000 pulseDistance=0.54000
G1 X24.4944 Y-3.1070 E490.66956 ; EInc=13.69069 cartesianDistance=7.39297 angle=180.000 pulseDistance=0.54000
; 
; feature travel
PRIO_OFF
G0 X24.4947 Y-3.23367 ; cartesianDistance=0.12669 (Travel)
; 
; feature fill
G1 F24000 FL[E] = FillFrequency * DROP_SCALE * 60
PRIO_ON
G1 X21.7577 Y4.2863 E506.36089 ; EInc=15.69133 cartesianDistance=8.00258 angle=0.000 pulseDistance=0.51000
; 
; feature travel
PRIO_OFF
G0 X22.23654 Y4.2863 ; cartesianDistance=0.47888 (Travel)
; 
; feature fill
PRIO_ON
G1 X24.4947 Y-1.9180 E519.30683 ; EInc=12.94594 cartesianDistance=6.60243 angle=0.000 pulseDistance=0.51000
; 
; feature travel
PRIO_OFF
G0 X24.4947 Y-0.60224 ; cartesianDistance=1.31571 (Travel)
; 
; feature fill
PRIO_ON
G1 X22.7154 Y4.2863 E529.50737 ; EInc=10.20054 cartesianDistance=5.20228 angle=0.000 pulseDistance=0.51000
; 
; feature travel
PRIO_OFF
G0 X23.1943 Y4.2863 ; cartesianDistance=0.47888 (Travel)
; 
; feature fill
PRIO_ON
G1 X24.4947 Y0.7135 E536.96252 ; EInc=7.45515 cartesianDistance=3.80213 angle=0.000 pulseDistance=0.51000
; 
; feature travel
PRIO_OFF
G0 X24.4947 Y2.02918 ; cartesianDistance=1.31571 (Travel)
; 
; feature fill
PRIO_ON
G1 X23.6732 Y4.2863 E541.67227 ; EInc=4.70975 cartesianDistance=2.40197 angle=0.000 pulseDistance=0.51000
; 
; feature travel
PRIO_OFF
G0 X24.15206 Y4.2863 ; cartesianDistance=0.47888 (Travel)
; 
; feature fill
PRIO_ON
G1 X24.4947 Y3.3449 E543.63663 ; EInc=1.96436 cartesianDistance=1.00182 angle=0.000 pulseDistance=0.51000
; 
; feature travel
PRIO_OFF
G0 X21.27878 Y4.2863 ; cartesianDistance=3.35088 (Travel)
; 
; feature fill
PRIO_ON
G1 X24.3989 Y-4.2863 E561.52442 ; EInc=17.88779 cartesianDistance=9.12277 angle=0.000 pulseDistance=0.51000
; 
; feature travel
PRIO_OFF
G0 X23.92007 Y-4.2863 ; cartesianDistance=0.47888 (Travel)
; 
; feature fill
PRIO_ON
G1 X20.7999 Y4.2863 E579.41220 ; EInc=17.88779 cartesianDistance=9.12277 angle=0.000 pulseDistance=0.51000
; 
; feature travel
PRIO_OFF
G0 X20.32102 Y4.2863 ; cartesianDistance=0.47888 (Travel)
; 
; feature fill
PRIO_ON
G1 X23.4412 Y-4.2863 E597.29999 ; EInc=17.88779 cartesianDistance=9.12277 angle=0.000 pulseDistance=0.51000
; 
; feature travel
PRIO_OFF
G0 X22.96231 Y-4.2863 ; cartesianDistance=0.47888 (Travel)
; 
; feature fill
PRIO_ON
G1 X19.8421 Y4.2863 E615.18777 ; EInc=17.88779 cartesianDistance=9.12277 angle=0.000 pulseDistance=0.51000
; 
; feature travel
PRIO_OFF
G0 X19.36326 Y4.2863 ; cartesianDistance=0.47888 (Travel)
; 
; feature fill
PRIO_ON
G1 X22.4834 Y-4.2863 E633.07556 ; EInc=17.88779 cartesianDistance=9.12277 angle=0.000 pulseDistance=0.51000
; 
; feature travel
PRIO_OFF
G0 X22.00455 Y-4.2863 ; cartesianDistance=0.47888 (Travel)
; 
; feature fill
PRIO_ON
G1 X18.8844 Y4.2863 E650.96334 ; EInc=17.88779 cartesianDistance=9.12277 angle=0.000 pulseDistance=0.51000
; 
; feature travel
PRIO_OFF
G0 X18.4055 Y4.2863 ; cartesianDistance=0.47888 (Travel)
; 
; feature fill
PRIO_ON
G1 X21.5257 Y-4.2863 E668.85113 ; EInc=17.88779 cartesianDistance=9.12277 angle=0.000 pulseDistance=0.51000
; 
; feature travel
PRIO_OFF
G0 X21.04679 Y-4.2863 ; cartesianDistance=0.47888 (Travel)
; 
; feature fill
PRIO_ON
G1 X17.9266 Y4.2863 E686.73891 ; EInc=17.88779 cartesianDistance=9.12277 angle=0.000 pulseDistance=0.51000
; 
; feature travel
PRIO_OFF
G0 X17.44774 Y4.2863 ; cartesianDistance=0.47888 (Travel)
; 
; feature fill
PRIO_ON
G1 X20.5679 Y-4.2863 E704.62670 ; EInc=17.88779 cartesianDistance=9.12277 angle=0.000 pulseDistance=0.51000
; 
; feature travel
PRIO_OFF
G0 X20.08903 Y-4.2863 ; cartesianDistance=0.47888 (Travel)
; 
; feature fill
PRIO_ON
G1 X16.9689 Y4.2863 E722.51448 ; EInc=17.88779 cartesianDistance=9.12277 angle=0.000 pulseDistance=0.51000
; 
; feature travel
PRIO_OFF
G0 X16.48998 Y4.2863 ; cartesianDistance=0.47888 (Travel)
; 
; feature fill
PRIO_ON
G1 X19.6102 Y-4.2863 E740.40227 ; EInc=17.88779 cartesianDistance=9.12277 angle=0.000 pulseDistance=0.51000
; 
; feature travel
PRIO_OFF
G0 X19.13127 Y-4.2863 ; cartesianDistance=0.47888 (Travel)
; 
; feature fill
PRIO_ON
G1 X16.0111 Y4.2863 E758.29005 ; EInc=17.88779 cartesianDistance=9.12277 angle=0.000 pulseDistance=0.51000
; 
; feature travel
PRIO_OFF
G0 X15.53222 Y4.2863 ; cartesianDistance=0.47888 (Travel)
; 
; feature fill
PRIO_ON
G1 X18.6524 Y-4.2863 E776.17784 ; EInc=17.88779 cartesianDistance=9.12277 angle=0.000 pulseDistance=0.51000
; 
; feature travel
PRIO_OFF
G0 X18.17351 Y-4.2863 ; cartesianDistance=0.47888 (Travel)
; 
; feature fill
PRIO_ON
G1 X15.0533 Y4.2863 E794.06562 ; EInc=17.88779 cartesianDistance=9.12277 angle=0.000 pulseDistance=0.51000
; 
; feature travel
PRIO_OFF
G0 X14.57446 Y4.2863 ; cartesianDistance=0.47888 (Travel)
; 
; feature fill
PRIO_ON
G1 X17.6946 Y-4.2863 E811.95341 ; EInc=17.88779 cartesianDistance=9.12277 angle=0.000 pulseDistance=0.51000
; 
; feature travel
PRIO_OFF
G0 X17.21575 Y-4.2863 ; cartesianDistance=0.47888 (Travel)
; 
; feature fill
PRIO_ON
G1 X14.0956 Y4.2863 E829.84119 ; EInc=17.88779 cartesianDistance=9.12277 angle=0.000 pulseDistance=0.51000
; 
; feature travel
PRIO_OFF
G0 X13.6167 Y4.2863 ; cartesianDistance=0.47888 (Travel)
; 
; feature fill
PRIO_ON
G1 X16.7369 Y-4.2863 E847.72898 ; EInc=17.88779 cartesianDistance=9.12277 angle=0.000 pulseDistance=0.51000
; 
; feature travel
PRIO_OFF
G0 X16.25799 Y-4.2863 ; cartesianDistance=0.47888 (Travel)
; 
; feature fill
PRIO_ON
G1 X13.1378 Y4.2863 E865.61676 ; EInc=17.88779 cartesianDistance=9.12277 angle=0.000 pulseDistance=0.51000
; 
; feature travel
PRIO_OFF
G0 X12.65894 Y4.2863 ; cartesianDistance=0.47888 (Travel)
; 
; feature fill
PRIO_ON
G1 X15.7791 Y-4.2863 E883.50455 ; EInc=17.88779 cartesianDistance=9.12277 angle=0.000 pulseDistance=0.51000
; 
; feature travel
PRIO_OFF
G0 X15.30023 Y-4.2863 ; cartesianDistance=0.47888 (Travel)
; 
; feature fill
PRIO_ON
G1 X12.1801 Y4.2863 E901.39233 ; EInc=17.88779 cartesianDistance=9.12277 angle=0.000 pulseDistance=0.51000
; 
; feature travel
PRIO_OFF
G0 X11.70118 Y4.2863 ; cartesianDistance=0.47888 (Travel)
; 
; feature fill
PRIO_ON
G1 X14.8214 Y-4.2863 E919.28012 ; EInc=17.88779 cartesianDistance=9.12277 angle=0.000 pulseDistance=0.51000
; 
; feature travel
PRIO_OFF
G0 X14.34247 Y-4.2863 ; cartesianDistance=0.47888 (Travel)
; 
; feature fill
PRIO_ON
G1 X11.2223 Y4.2863 E937.16790 ; EInc=17.88779 cartesianDistance=9.12277 angle=0.000 pulseDistance=0.51000
; 
; feature travel
PRIO_OFF
G0 X10.74342 Y4.2863 ; cartesianDistance=0.47888 (Travel)
; 
; feature fill
PRIO_ON
G1 X13.8636 Y-4.2863 E955.05569 ; EInc=17.88779 cartesianDistance=9.12277 angle=0.000 pulseDistance=0.51000
; 
; feature travel
PRIO_OFF
G0 X13.38471 Y-4.2863 ; cartesianDistance=0.47888 (Travel)
; 
; feature fill
PRIO_ON
G1 X10.2645 Y4.2863 E972.94347 ; EInc=17.88779 cartesianDistance=9.12277 angle=0.000 pulseDistance=0.51000
; 
; feature travel
PRIO_OFF
G0 X9.78566 Y4.2863 ; cartesianDistance=0.47888 (Travel)
; 
; feature fill
PRIO_ON
G1 X12.9058 Y-4.2863 E990.83126 ; EInc=17.88779 cartesianDistance=9.12277 angle=0.000 pulseDistance=0.51000
; 
; feature travel
PRIO_OFF
G0 X12.42695 Y-4.2863 ; cartesianDistance=0.47888 (Travel)
; 
; feature fill
PRIO_ON
G1 X9.3068 Y4.2863 E1008.71904 ; EInc=17.88779 cartesianDistance=9.12277 angle=0.000 pulseDistance=0.51000
; 
; feature travel
PRIO_OFF
G0 X8.8279 Y4.2863 ; cartesianDistance=0.47888 (Travel)
; 
; feature fill
PRIO_ON
G1 X11.9481 Y-4.2863 E1026.60683 ; EInc=17.88779 cartesianDistance=9.12277 angle=0.000 pulseDistance=0.51000
; 
; feature travel
PRIO_OFF
G0 X11.46919 Y-4.2863 ; cartesianDistance=0.47888 (Travel)
; 
; feature fill
PRIO_ON
G1 X8.3490 Y4.2863 E1044.49461 ; EInc=17.88779 cartesianDistance=9.12277 angle=0.000 pulseDistance=0.51000
; 
; feature travel
PRIO_OFF
G0 X7.87014 Y4.2863 ; cartesianDistance=0.47888 (Travel)
; 
; feature fill
PRIO_ON
G1 X10.9903 Y-4.2863 E1062.38240 ; EInc=17.88779 cartesianDistance=9.12277 angle=0.000 pulseDistance=0.51000
; 
; feature travel
PRIO_OFF
G0 X10.51143 Y-4.2863 ; cartesianDistance=0.47888 (Travel)
; 
; feature fill
PRIO_ON
G1 X7.3913 Y4.2863 E1080.27018 ; EInc=17.88779 cartesianDistance=9.12277 angle=0.000 pulseDistance=0.51000
; 
; feature travel
PRIO_OFF
G0 X6.91238 Y4.2863 ; cartesianDistance=0.47888 (Travel)
; 
; feature fill
PRIO_ON
G1 X10.0326 Y-4.2863 E1098.15797 ; EInc=17.88779 cartesianDistance=9.12277 angle=0.000 pulseDistance=0.51000
; 
; feature travel
PRIO_OFF
G0 X9.55367 Y-4.2863 ; cartesianDistance=0.47888 (Travel)
; 
; feature fill
PRIO_ON
G1 X6.4335 Y4.2863 E1116.04575 ; EInc=17.88779 cartesianDistance=9.12277 angle=0.000 pulseDistance=0.51000
; 
; feature travel
PRIO_OFF
G0 X5.95462 Y4.2863 ; cartesianDistance=0.47888 (Travel)
; 
; feature fill
PRIO_ON
G1 X9.0748 Y-4.2863 E1133.93354 ; EInc=17.88779 cartesianDistance=9.12277 angle=0.000 pulseDistance=0.51000
; 
; feature travel
PRIO_OFF
G0 X8.59591 Y-4.2863 ; cartesianDistance=0.47888 (Travel)
; 
; feature fill
PRIO_ON
G1 X5.4757 Y4.2863 E1151.82132 ; EInc=17.88779 cartesianDistance=9.12277 angle=0.000 pulseDistance=0.51000
; 
; feature travel
PRIO_OFF
G0 X4.99686 Y4.2863 ; cartesianDistance=0.47888 (Travel)
; 
; feature fill
PRIO_ON
G1 X8.1170 Y-4.2863 E1169.70911 ; EInc=17.88779 cartesianDistance=9.12277 angle=0.000 pulseDistance=0.51000
; 
; feature travel
PRIO_OFF
G0 X7.63815 Y-4.2863 ; cartesianDistance=0.47888 (Travel)
; 
; feature fill
PRIO_ON
G1 X4.5180 Y4.2863 E1187.59689 ; EInc=17.88779 cartesianDistance=9.12277 angle=0.000 pulseDistance=0.51000
; 
; feature travel
PRIO_OFF
G0 X4.0391 Y4.2863 ; cartesianDistance=0.47888 (Travel)
; 
; feature fill
PRIO_ON
G1 X7.1593 Y-4.2863 E1205.48468 ; EInc=17.88779 cartesianDistance=9.12277 angle=0.000 pulseDistance=0.51000
; 
; feature travel
PRIO_OFF
G0 X6.68039 Y-4.2863 ; cartesianDistance=0.47888 (Travel)
; 
; feature fill
PRIO_ON
G1 X3.5602 Y4.2863 E1223.37246 ; EInc=17.88779 cartesianDistance=9.12277 angle=0.000 pulseDistance=0.51000
; 
; feature travel
PRIO_OFF
G0 X3.08134 Y4.2863 ; cartesianDistance=0.47888 (Travel)
; 
; feature fill
PRIO_ON
G1 X6.2015 Y-4.2863 E1241.26025 ; EInc=17.88779 cartesianDistance=9.12277 angle=0.000 pulseDistance=0.51000
; 
; feature travel
PRIO_OFF
G0 X5.72263 Y-4.2863 ; cartesianDistance=0.47888 (Travel)
; 
; feature fill
PRIO_ON
G1 X2.6025 Y4.2863 E1259.14803 ; EInc=17.88779 cartesianDistance=9.12277 angle=0.000 pulseDistance=0.51000
; 
; feature travel
PRIO_OFF
G0 X2.12358 Y4.2863 ; cartesianDistance=0.47888 (Travel)
; 
; feature fill
PRIO_ON
G1 X5.2438 Y-4.2863 E1277.03582 ; EInc=17.88779 cartesianDistance=9.12277 angle=0.000 pulseDistance=0.51000
; 
; feature travel
PRIO_OFF
G0 X4.76487 Y-4.2863 ; cartesianDistance=0.47888 (Travel)
; 
; feature fill
PRIO_ON
G1 X1.6447 Y4.2863 E1294.92360 ; EInc=17.88779 cartesianDistance=9.12277 angle=0.000 pulseDistance=0.51000
; 
; feature travel
PRIO_OFF
G0 X1.16582 Y4.2863 ; cartesianDistance=0.47888 (Travel)
; 
; feature fill
PRIO_ON
G1 X4.2860 Y-4.2863 E1312.81139 ; EInc=17.88779 cartesianDistance=9.12277 angle=0.000 pulseDistance=0.51000
; 
; feature travel
PRIO_OFF
G0 X3.80711 Y-4.2863 ; cartesianDistance=0.47888 (Travel)
; 
; feature fill
PRIO_ON
G1 X0.6869 Y4.2863 E1330.69917 ; EInc=17.88779 cartesianDistance=9.12277 angle=0.000 pulseDistance=0.51000
; 
; feature travel
PRIO_OFF
G0 X0.20806 Y4.2863 ; cartesianDistance=0.47888 (Travel)
; 
; feature fill
PRIO_ON
G1 X3.3282 Y-4.2863 E1348.58696 ; EInc=17.88779 cartesianDistance=9.12277 angle=0.000 pulseDistance=0.51000
; 
; feature travel
PRIO_OFF
G0 X2.84935 Y-4.2863 ; cartesianDistance=0.47888 (Travel)
; 
; feature fill
PRIO_ON
G1 X0.0000 Y3.5422 E1356.75455 ; => originalEInc=16.33518 adjustedEInc=8.16759 density=0.5
G1 X-0.2708 Y4.2863 E1358.30715 ; EInc=17.88779 cartesianDistance=9.12277 angle=0.000 pulseDistance=0.51000
; 
; feature travel
PRIO_OFF
G0 X-0.7497 Y4.2863 ; cartesianDistance=0.47888 (Travel)
; 
; feature fill
PRIO_ON
G1 X0.0000 Y2.2265 E1362.60514 
G1 X2.3705 Y-4.2863 E1369.40004 ; EInc=17.88779 cartesianDistance=9.12277 angle=0.000 pulseDistance=0.51000 => originalEInc=13.58979 adjustedEInc=6.79490 density=0.5
; 
; feature travel
PRIO_OFF
G0 X1.89159 Y-4.2863 ; cartesianDistance=0.47888 (Travel)
; 
; feature fill
PRIO_ON
G1 X0.0000 Y0.9108 E1374.82224 ; => originalEInc=10.84439 adjustedEInc=5.42220 density=0.5
G1 X-1.2286 Y4.2863 E1381.86563 ; EInc=17.88779 cartesianDistance=9.12277 angle=0.000 pulseDistance=0.51000
; 
; feature travel
PRIO_OFF
G0 X-1.70746 Y4.2863 ; cartesianDistance=0.47888 (Travel)
; 
; feature fill
PRIO_ON
G1 X0.0000 Y-0.4049 E1391.65441 
G1 X1.4127 Y-4.2863 E1395.70392 ; EInc=17.88779 cartesianDistance=9.12277 angle=0.000 pulseDistance=0.51000 => originalEInc=8.09900 adjustedEInc=4.04950 density=0.5
; 
; feature travel
PRIO_OFF
G0 X0.93383 Y-4.2863 ; cartesianDistance=0.47888 (Travel)
; 
; feature fill
PRIO_ON
G1 X0.0000 Y-1.7206 E1398.38072 ; => originalEInc=5.35360 adjustedEInc=2.67680 density=0.5
G1 X-2.1863 Y4.2863 E1410.91489 ; EInc=17.88779 cartesianDistance=9.12277 angle=0.000 pulseDistance=0.51000
; 
; feature travel
PRIO_OFF
G0 X-2.66522 Y4.2863 ; cartesianDistance=0.47888 (Travel)
; 
; feature fill
PRIO_ON
G1 X0.0000 Y-3.0363 E1426.19448 
G1 X0.4550 Y-4.2863 E1427.49858 ; EInc=17.88779 cartesianDistance=9.12277 angle=0.000 pulseDistance=0.51000 => originalEInc=2.60821 adjustedEInc=1.30410 density=0.5
; 
; feature travel
PRIO_OFF
G0 X-0.02393 Y-4.2863 ; cartesianDistance=0.47888 (Travel)
; 
; feature fill
PRIO_ON
G1 X-3.1441 Y4.2863 E1445.38636 ; EInc=17.88779 cartesianDistance=9.12277 angle=0.000 pulseDistance=0.51000
; 
; feature travel
PRIO_OFF
G0 X-3.62298 Y4.2863 ; cartesianDistance=0.47888 (Travel)
; 
; feature fill
PRIO_ON
G1 X-0.5028 Y-4.2863 E1463.27415 ; EInc=17.88779 cartesianDistance=9.12277 angle=0.000 pulseDistance=0.51000
; 
; feature travel
PRIO_OFF
G0 X-0.98169 Y-4.2863 ; cartesianDistance=0.47888 (Travel)
; 
; feature fill
PRIO_ON
G1 X-4.1019 Y4.2863 E1481.16193 ; EInc=17.88779 cartesianDistance=9.12277 angle=0.000 pulseDistance=0.51000
; 
; feature travel
PRIO_OFF
G0 X-4.58074 Y4.2863 ; cartesianDistance=0.47888 (Travel)
; 
; feature fill
PRIO_ON
G1 X-1.4606 Y-4.2863 E1499.04972 ; EInc=17.88779 cartesianDistance=9.12277 angle=0.000 pulseDistance=0.51000
; 
; feature travel
PRIO_OFF
G0 X-1.93945 Y-4.2863 ; cartesianDistance=0.47888 (Travel)
; 
; feature fill
PRIO_ON
G1 X-5.0596 Y4.2863 E1516.93750 ; EInc=17.88779 cartesianDistance=9.12277 angle=0.000 pulseDistance=0.51000
; 
; feature travel
PRIO_OFF
G0 X-5.5385 Y4.2863 ; cartesianDistance=0.47888 (Travel)
; 
; feature fill
PRIO_ON
G1 X-2.4183 Y-4.2863 E1534.82529 ; EInc=17.88779 cartesianDistance=9.12277 angle=0.000 pulseDistance=0.51000
; 
; feature travel
PRIO_OFF
G0 X-2.89721 Y-4.2863 ; cartesianDistance=0.47888 (Travel)
; 
; feature fill
PRIO_ON
G1 X-6.0174 Y4.2863 E1552.71307 ; EInc=17.88779 cartesianDistance=9.12277 angle=0.000 pulseDistance=0.51000
; 
; feature travel
PRIO_OFF
G0 X-6.49626 Y4.2863 ; cartesianDistance=0.47888 (Travel)
; 
; feature fill
PRIO_ON
G1 X-3.3761 Y-4.2863 E1570.60086 ; EInc=17.88779 cartesianDistance=9.12277 angle=0.000 pulseDistance=0.51000
; 
; feature travel
PRIO_OFF
G0 X-3.85497 Y-4.2863 ; cartesianDistance=0.47888 (Travel)
; 
; feature fill
PRIO_ON
G1 X-6.9751 Y4.2863 E1588.48864 ; EInc=17.88779 cartesianDistance=9.12277 angle=0.000 pulseDistance=0.51000
; 
; feature travel
PRIO_OFF
G0 X-7.45402 Y4.2863 ; cartesianDistance=0.47888 (Travel)
; 
; feature fill
PRIO_ON
G1 X-4.3338 Y-4.2863 E1606.37643 ; EInc=17.88779 cartesianDistance=9.12277 angle=0.000 pulseDistance=0.51000
; 
; feature travel
PRIO_OFF
G0 X-4.81273 Y-4.2863 ; cartesianDistance=0.47888 (Travel)
; 
; feature fill
PRIO_ON
G1 X-7.9329 Y4.2863 E1624.26421 ; EInc=17.88779 cartesianDistance=9.12277 angle=0.000 pulseDistance=0.51000
; 
; feature travel
PRIO_OFF
G0 X-8.41178 Y4.2863 ; cartesianDistance=0.47888 (Travel)
; 
; feature fill
PRIO_ON
G1 X-5.2916 Y-4.2863 E1642.15200 ; EInc=17.88779 cartesianDistance=9.12277 angle=0.000 pulseDistance=0.51000
; 
; feature travel
PRIO_OFF
G0 X-5.77049 Y-4.2863 ; cartesianDistance=0.47888 (Travel)
; 
; feature fill
PRIO_ON
G1 X-8.8907 Y4.2863 E1660.03979 ; EInc=17.88779 cartesianDistance=9.12277 angle=0.000 pulseDistance=0.51000
; 
; feature travel
PRIO_OFF
G0 X-9.36954 Y4.2863 ; cartesianDistance=0.47888 (Travel)
; 
; feature fill
PRIO_ON
G1 X-6.2494 Y-4.2863 E1677.92757 ; EInc=17.88779 cartesianDistance=9.12277 angle=0.000 pulseDistance=0.51000
; 
; feature travel
PRIO_OFF
G0 X-6.72825 Y-4.2863 ; cartesianDistance=0.47888 (Travel)
; 
; feature fill
PRIO_ON
G1 X-9.8484 Y4.2863 E1695.81536 ; EInc=17.88779 cartesianDistance=9.12277 angle=0.000 pulseDistance=0.51000
; 
; feature travel
PRIO_OFF
G0 X-10.3273 Y4.2863 ; cartesianDistance=0.47888 (Travel)
; 
; feature fill
PRIO_ON
G1 X-7.2071 Y-4.2863 E1713.70314 ; EInc=17.88779 cartesianDistance=9.12277 angle=0.000 pulseDistance=0.51000
; 
; feature travel
PRIO_OFF
G0 X-7.68601 Y-4.2863 ; cartesianDistance=0.47888 (Travel)
; 
; feature fill
PRIO_ON
G1 X-10.8062 Y4.2863 E1731.59093 ; EInc=17.88779 cartesianDistance=9.12277 angle=0.000 pulseDistance=0.51000
; 
; feature travel
PRIO_OFF
G0 X-11.28506 Y4.2863 ; cartesianDistance=0.47888 (Travel)
; 
; feature fill
PRIO_ON
G1 X-8.1649 Y-4.2863 E1749.47871 ; EInc=17.88779 cartesianDistance=9.12277 angle=0.000 pulseDistance=0.51000
; 
; feature travel
PRIO_OFF
G0 X-8.64377 Y-4.2863 ; cartesianDistance=0.47888 (Travel)
; 
; feature fill
PRIO_ON
G1 X-11.7639 Y4.2863 E1767.36650 ; EInc=17.88779 cartesianDistance=9.12277 angle=0.000 pulseDistance=0.51000
; 
; feature travel
PRIO_OFF
G0 X-12.24282 Y4.2863 ; cartesianDistance=0.47888 (Travel)
; 
; feature fill
PRIO_ON
G1 X-9.1227 Y-4.2863 E1785.25428 ; EInc=17.88779 cartesianDistance=9.12277 angle=0.000 pulseDistance=0.51000
; 
; feature travel
PRIO_OFF
G0 X-9.60153 Y-4.2863 ; cartesianDistance=0.47888 (Travel)
; 
; feature fill
PRIO_ON
G1 X-12.7217 Y4.2863 E1803.14207 ; EInc=17.88779 cartesianDistance=9.12277 angle=0.000 pulseDistance=0.51000
; 
; feature travel
PRIO_OFF
G0 X-13.20058 Y4.2863 ; cartesianDistance=0.47888 (Travel)
; 
; feature fill
PRIO_ON
G1 X-10.0804 Y-4.2863 E1821.02985 ; EInc=17.88779 cartesianDistance=9.12277 angle=0.000 pulseDistance=0.51000
; 
; feature travel
PRIO_OFF
G0 X-10.55929 Y-4.2863 ; cartesianDistance=0.47888 (Travel)
; 
; feature fill
PRIO_ON
G1 X-13.6795 Y4.2863 E1838.91764 ; EInc=17.88779 cartesianDistance=9.12277 angle=0.000 pulseDistance=0.51000
; 
; feature travel
PRIO_OFF
G0 X-14.15834 Y4.2863 ; cartesianDistance=0.47888 (Travel)
; 
; feature fill
PRIO_ON
G1 X-11.0382 Y-4.2863 E1856.80542 ; EInc=17.88779 cartesianDistance=9.12277 angle=0.000 pulseDistance=0.51000
; 
; feature travel
PRIO_OFF
G0 X-11.51705 Y-4.2863 ; cartesianDistance=0.47888 (Travel)
; 
; feature fill
PRIO_ON
G1 X-14.6372 Y4.2863 E1874.69321 ; EInc=17.88779 cartesianDistance=9.12277 angle=0.000 pulseDistance=0.51000
; 
; feature travel
PRIO_OFF
G0 X-15.1161 Y4.2863 ; cartesianDistance=0.47888 (Travel)
; 
; feature fill
PRIO_ON
G1 X-11.9959 Y-4.2863 E1892.58099 ; EInc=17.88779 cartesianDistance=9.12277 angle=0.000 pulseDistance=0.51000
; 
; feature travel
PRIO_OFF
G0 X-12.47481 Y-4.2863 ; cartesianDistance=0.47888 (Travel)
; 
; feature fill
PRIO_ON
G1 X-15.5950 Y4.2863 E1910.46878 ; EInc=17.88779 cartesianDistance=9.12277 angle=0.000 pulseDistance=0.51000
; 
; feature travel
PRIO_OFF
G0 X-16.07386 Y4.2863 ; cartesianDistance=0.47888 (Travel)
; 
; feature fill
PRIO_ON
G1 X-12.9537 Y-4.2863 E1928.35656 ; EInc=17.88779 cartesianDistance=9.12277 angle=0.000 pulseDistance=0.51000
; 
; feature travel
PRIO_OFF
G0 X-13.43257 Y-4.2863 ; cartesianDistance=0.47888 (Travel)
; 
; feature fill
PRIO_ON
G1 X-16.5527 Y4.2863 E1946.24435 ; EInc=17.88779 cartesianDistance=9.12277 angle=0.000 pulseDistance=0.51000
; 
; feature travel
PRIO_OFF
G0 X-17.03162 Y4.2863 ; cartesianDistance=0.47888 (Travel)
; 
; feature fill
PRIO_ON
G1 X-13.9115 Y-4.2863 E1964.13213 ; EInc=17.88779 cartesianDistance=9.12277 angle=0.000 pulseDistance=0.51000
; 
; feature travel
PRIO_OFF
G0 X-14.39033 Y-4.2863 ; cartesianDistance=0.47888 (Travel)
; 
; feature fill
PRIO_ON
G1 X-17.5105 Y4.2863 E1982.01992 ; EInc=17.88779 cartesianDistance=9.12277 angle=0.000 pulseDistance=0.51000
; 
; feature travel
PRIO_OFF
G0 X-17.98938 Y4.2863 ; cartesianDistance=0.47888 (Travel)
; 
; feature fill
PRIO_ON
G1 X-14.8692 Y-4.2863 E1999.90770 ; EInc=17.88779 cartesianDistance=9.12277 angle=0.000 pulseDistance=0.51000
; 
; feature travel
PRIO_OFF
G0 X-15.34809 Y-4.2863 ; cartesianDistance=0.47888 (Travel)
; 
; feature fill
PRIO_ON
G1 X-18.4683 Y4.2863 E2017.79549 ; EInc=17.88779 cartesianDistance=9.12277 angle=0.000 pulseDistance=0.51000
; 
; feature travel
PRIO_OFF
G0 X-18.94714 Y4.2863 ; cartesianDistance=0.47888 (Travel)
; 
; feature fill
PRIO_ON
G1 X-15.8270 Y-4.2863 E2035.68327 ; EInc=17.88779 cartesianDistance=9.12277 angle=0.000 pulseDistance=0.51000
; 
; feature travel
PRIO_OFF
G0 X-16.30585 Y-4.2863 ; cartesianDistance=0.47888 (Travel)
; 
; feature fill
PRIO_ON
G1 X-19.4260 Y4.2863 E2053.57106 ; EInc=17.88779 cartesianDistance=9.12277 angle=0.000 pulseDistance=0.51000
; 
; feature travel
PRIO_OFF
G0 X-19.9049 Y4.2863 ; cartesianDistance=0.47888 (Travel)
; 
; feature fill
PRIO_ON
G1 X-16.7847 Y-4.2863 E2071.45884 ; EInc=17.88779 cartesianDistance=9.12277 angle=0.000 pulseDistance=0.51000
; 
; feature travel
PRIO_OFF
G0 X-17.26361 Y-4.2863 ; cartesianDistance=0.47888 (Travel)
; 
; feature fill
PRIO_ON
G1 X-20.3838 Y4.2863 E2089.34663 ; EInc=17.88779 cartesianDistance=9.12277 angle=0.000 pulseDistance=0.51000
; 
; feature travel
PRIO_OFF
G0 X-20.86266 Y4.2863 ; cartesianDistance=0.47888 (Travel)
; 
; feature fill
PRIO_ON
G1 X-17.7425 Y-4.2863 E2107.23441 ; EInc=17.88779 cartesianDistance=9.12277 angle=0.000 pulseDistance=0.51000
; 
; feature travel
PRIO_OFF
G0 X-18.22137 Y-4.2863 ; cartesianDistance=0.47888 (Travel)
; 
; feature fill
PRIO_ON
G1 X-21.3415 Y4.2863 E2125.12220 ; EInc=17.88779 cartesianDistance=9.12277 angle=0.000 pulseDistance=0.51000
; 
; feature travel
PRIO_OFF
G0 X-21.82042 Y4.2863 ; cartesianDistance=0.47888 (Travel)
; 
; feature fill
PRIO_ON
G1 X-18.7003 Y-4.2863 E2143.00998 ; EInc=17.88779 cartesianDistance=9.12277 angle=0.000 pulseDistance=0.51000
; 
; feature travel
PRIO_OFF
G0 X-19.17913 Y-4.2863 ; cartesianDistance=0.47888 (Travel)
; 
; feature fill
PRIO_ON
G1 X-22.2993 Y4.2863 E2160.89777 ; EInc=17.88779 cartesianDistance=9.12277 angle=0.000 pulseDistance=0.51000
; 
; feature travel
PRIO_OFF
G0 X-22.77818 Y4.2863 ; cartesianDistance=0.47888 (Travel)
; 
; feature fill
PRIO_ON
G1 X-19.6580 Y-4.2863 E2178.78555 ; EInc=17.88779 cartesianDistance=9.12277 angle=0.000 pulseDistance=0.51000
; 
; feature travel
PRIO_OFF
G0 X-20.13689 Y-4.2863 ; cartesianDistance=0.47888 (Travel)
; 
; feature fill
PRIO_ON
G1 X-23.2571 Y4.2863 E2196.67334 ; EInc=17.88779 cartesianDistance=9.12277 angle=0.000 pulseDistance=0.51000
; 
; feature travel
PRIO_OFF
G0 X-23.73594 Y4.2863 ; cartesianDistance=0.47888 (Travel)
; 
; feature fill
PRIO_ON
G1 X-20.6158 Y-4.2863 E2214.56112 ; EInc=17.88779 cartesianDistance=9.12277 angle=0.000 pulseDistance=0.51000
; 
; feature travel
PRIO_OFF
G0 X-21.09465 Y-4.2863 ; cartesianDistance=0.47888 (Travel)
; 
; feature fill
PRIO_ON
G1 X-24.2148 Y4.2863 E2232.44891 ; EInc=17.88779 cartesianDistance=9.12277 angle=0.000 pulseDistance=0.51000
; 
; feature travel
PRIO_OFF
G0 X-24.4947 Y3.73954 ; cartesianDistance=0.61423 (Travel)
; 
; feature fill
PRIO_ON
G1 X-21.5735 Y-4.2863 E2249.19582 ; EInc=16.74691 cartesianDistance=8.54092 angle=0.000 pulseDistance=0.51000
; 
; feature travel
PRIO_OFF
G0 X-22.05241 Y-4.2863 ; cartesianDistance=0.47888 (Travel)
; 
; feature fill
PRIO_ON
G1 X-24.4947 Y2.4238 E2263.19733 ; EInc=14.00151 cartesianDistance=7.14077 angle=0.000 pulseDistance=0.51000
; 
; feature travel
PRIO_OFF
G0 X-24.4947 Y1.10812 ; cartesianDistance=1.31571 (Travel)
; 
; feature fill
PRIO_ON
G1 X-22.5313 Y-4.2863 E2274.45345 ; EInc=11.25612 cartesianDistance=5.74062 angle=0.000 pulseDistance=0.51000
; 
; feature travel
PRIO_OFF
G0 X-23.01017 Y-4.2863 ; cartesianDistance=0.47888 (Travel)
; 
; feature fill
PRIO_ON
G1 X-24.4947 Y-0.2076 E2282.96417 ; EInc=8.51072 cartesianDistance=4.34047 angle=0.000 pulseDistance=0.51000
; 
; feature travel
PRIO_OFF
G0 X-24.4947 Y-1.5233 ; cartesianDistance=1.31571 (Travel)
; 
; feature fill
PRIO_ON
G1 X-23.4890 Y-4.2863 E2288.72950 ; EInc=5.76533 cartesianDistance=2.94032 angle=0.000 pulseDistance=0.51000
; 
; feature travel
PRIO_OFF
G0 X-23.96793 Y-4.2863 ; cartesianDistance=0.47888 (Travel)
; 
; feature fill
PRIO_ON
G1 X-24.4947 Y-2.8390 E2291.74944 ; EInc=3.01993 cartesianDistance=1.54017 angle=0.000 pulseDistance=0.51000
; 
; feature travel
PRIO_OFF
G0 X-24.4947 Y-4.15473 ; cartesianDistance=1.31571 (Travel)
; 
; feature fill
PRIO_ON
G1 X-24.4468 Y-4.2863 E2292.02398 ; EInc=0.27454 cartesianDistance=0.14002 angle=0.000 pulseDistance=0.51000
PRIO_OFF
LayersCompleted=3
M1
; 
;========================
; layer 3, Z = 0.9600
; 
; reset extrusion
STOPRE
PRESETON(E, 0)
DO PRIO_PULSE_DISTANCE=DROP_SCALE
DO PRIO_ON_PATH_OFFSET=0.5*PRIO_PULSE_DISTANCE
;outer: (25.2604,-5.0521) (25.2604,5.0521) (-25.2604,5.0521) (-25.2604,-5.0521) (21.0604,-5.0521) holes: !
;overhangs:!
; 
; feature plane change
G0 X-24.44681 Y-4.2863 Z0.96 ; cartesianDistance=0.00000 (Plane Change)
; 
; feature travel
G0 X4.1599 Y-4.637 ; cartesianDistance=28.60886 (Travel)
; 
; feature outer perimeter
G1 F24000 FL[E] = OuterPerimeterFrequency * DROP_SCALE * 60
PRIO_ON
G1 X-24.8454 Y-4.6370 E68.24776 ; EInc=68.24776 cartesianDistance=29.00530 angle=90.000 pulseDistance=0.42500
G1 X-24.8454 Y4.6370 E90.06893 ; EInc=21.82118 cartesianDistance=9.27400 angle=90.000 pulseDistance=0.42500
G1 X24.8454 Y4.6370 E206.98846 ; EInc=116.91953 cartesianDistance=49.69080 angle=90.000 pulseDistance=0.42500
G1 X24.8454 Y-4.6370 E228.80964 ; EInc=21.82118 cartesianDistance=9.27400 angle=90.000 pulseDistance=0.42500
G1 X4.1599 Y-4.6370 E277.48141 ; EInc=48.67177 cartesianDistance=20.68550 angle=180.000 pulseDistance=0.42500
; 
; feature travel
PRIO_OFF
G0 X4.1599 Y-4.286 ; cartesianDistance=0.35100 (Travel)
; 
; feature inner perimeter
G1 F24000 FL[E] = InnerPerimeterFrequency * DROP_SCALE * 60
PRIO_ON
G1 X24.4944 Y-4.2860 E315.13790 ; EInc=37.65649 cartesianDistance=20.33450 angle=90.000 pulseDistance=0.54000
G1 X24.4944 Y4.2860 E331.01197 ; EInc=15.87407 cartesianDistance=8.57200 angle=90.000 pulseDistance=0.54000
G1 X-24.4944 Y4.2860 E421.73197 ; EInc=90.72000 cartesianDistance=48.98880 angle=90.000 pulseDistance=0.54000
G1 X-24.4944 Y-4.2860 E437.60605 ; EInc=15.87407 cartesianDistance=8.57200 angle=90.000 pulseDistance=0.54000
G1 X4.1599 Y-4.2860 E490.66956 ; EInc=53.06351 cartesianDistance=28.65430 angle=180.000 pulseDistance=0.54000
; 
; feature travel
PRIO_OFF
G0 X4.36113 Y-4.2863 ; cartesianDistance=0.20123 (Travel)
; 
; feature fill
G1 F24000 FL[E] = FillFrequency * DROP_SCALE * 60
PRIO_ON
G1 X0.0000 Y-2.2527 E495.38718 ; => originalEInc=9.43524 adjustedEInc=4.71762 density=0.5
G1 X-14.0229 Y4.2863 E525.72547 ; EInc=39.77353 cartesianDistance=20.28450 angle=0.000 pulseDistance=0.51000
; 
; feature travel
PRIO_OFF
G0 X-12.95808 Y4.2863 ; cartesianDistance=1.06479 (Travel)
; 
; feature fill
PRIO_ON
G1 X0.0000 Y-1.7562 E553.76009 
G1 X5.4259 Y-4.2863 E559.62955 ; EInc=39.77353 cartesianDistance=20.28450 angle=0.000 pulseDistance=0.51000 => originalEInc=11.73890 adjustedEInc=5.86945 density=0.5
; 
; feature travel
PRIO_OFF
G0 X6.49071 Y-4.2863 ; cartesianDistance=1.06479 (Travel)
; 
; feature fill
PRIO_ON
G1 X0.0000 Y-1.2596 E566.65083 ; => originalEInc=14.04256 adjustedEInc=7.02128 density=0.5
G1 X-11.8933 Y4.2863 E592.38180 ; EInc=39.77353 cartesianDistance=20.28450 angle=0.000 pulseDistance=0.51000
; 
; feature travel
PRIO_OFF
G0 X-10.8285 Y4.2863 ; cartesianDistance=1.06479 (Travel)
; 
; feature fill
PRIO_ON
G1 X0.0000 Y-0.7631 E615.80911 
G1 X7.5555 Y-4.2863 E623.98222 ; EInc=39.77353 cartesianDistance=20.28450 angle=0.000 pulseDistance=0.51000 => originalEInc=16.34622 adjustedEInc=8.17311 density=0.5
; 
; feature travel
PRIO_OFF
G0 X8.62029 Y-4.2863 ; cartesianDistance=1.06479 (Travel)
; 
; feature fill
PRIO_ON
G1 X0.0000 Y-0.2666 E633.30715 ; => originalEInc=18.64987 adjustedEInc=9.32494 density=0.5
G1 X-9.7637 Y4.2863 E654.43080 ; EInc=39.77353 cartesianDistance=20.28450 angle=0.000 pulseDistance=0.51000
; 
; feature travel
PRIO_OFF
G0 X-8.69892 Y4.2863 ; cartesianDistance=1.06479 (Travel)
; 
; feature fill
PRIO_ON
G1 X0.0000 Y0.2299 E673.25079 
G1 X9.6851 Y-4.2863 E683.72756 ; EInc=39.77353 cartesianDistance=20.28450 angle=0.000 pulseDistance=0.51000 => originalEInc=20.95354 adjustedEInc=10.47677 density=0.5
; 
; feature travel
PRIO_OFF
G0 X10.74987 Y-4.2863 ; cartesianDistance=1.06479 (Travel)
; 
; feature fill
PRIO_ON
G1 X-0.0000 Y0.7264 E695.35616 ; => originalEInc=23.25720 adjustedEInc=11.62860 density=0.5
G1 X-7.6341 Y4.2863 E711.87249 ; EInc=39.77353 cartesianDistance=20.28450 angle=0.000 pulseDistance=0.51000
; 
; feature travel
PRIO_OFF
G0 X-6.56934 Y4.2863 ; cartesianDistance=1.06479 (Travel)
; 
; feature fill
PRIO_ON
G1 X-0.0000 Y1.2230 E726.08517 
G1 X11.8147 Y-4.2863 E738.86560 ; EInc=39.77353 cartesianDistance=20.28450 angle=0.000 pulseDistance=0.51000 => originalEInc=25.56085 adjustedEInc=12.78043 density=0.5
; 
; feature travel
PRIO_OFF
G0 X12.87945 Y-4.2863 ; cartesianDistance=1.06479 (Travel)
; 
; feature fill
PRIO_ON
G1 X0.0000 Y1.7195 E752.79785 ; => originalEInc=27.86451 adjustedEInc=13.93226 density=0.5
G1 X-5.5046 Y4.2863 E764.70687 ; EInc=39.77353 cartesianDistance=20.28450 angle=0.000 pulseDistance=0.51000
; 
; feature travel
PRIO_OFF
G0 X-4.43976 Y4.2863 ; cartesianDistance=1.06479 (Travel)
; 
; feature fill
PRIO_ON
G1 X0.0000 Y2.2160 E774.31223 
G1 X13.9442 Y-4.2863 E789.39631 ; EInc=39.77353 cartesianDistance=20.28450 angle=0.000 pulseDistance=0.51000 => originalEInc=30.16817 adjustedEInc=15.08409 density=0.5
; 
; feature travel
PRIO_OFF
G0 X15.00904 Y-4.2863 ; cartesianDistance=1.06479 (Travel)
; 
; feature fill
PRIO_ON
G1 X-0.0000 Y2.7125 E805.63224 ; => originalEInc=32.47185 adjustedEInc=16.23593 density=0.5
G1 X-3.3750 Y4.2863 E812.93392 ; EInc=39.77353 cartesianDistance=20.28450 angle=0.000 pulseDistance=0.51000
; 
; feature travel
PRIO_OFF
G0 X-2.31017 Y4.2863 ; cartesianDistance=1.06479 (Travel)
; 
; feature fill
PRIO_ON
G1 X0.0000 Y3.2091 E817.93194 
G1 X16.0738 Y-4.2863 E835.31969 ; EInc=39.77353 cartesianDistance=20.28450 angle=0.000 pulseDistance=0.51000 => originalEInc=34.77551 adjustedEInc=17.38775 density=0.5
; 
; feature travel
PRIO_OFF
G0 X17.13862 Y-4.2863 ; cartesianDistance=1.06479 (Travel)
; 
; feature fill
PRIO_ON
G1 X0.0000 Y3.7056 E853.85927 ; => originalEInc=37.07916 adjustedEInc=18.53958 density=0.5
G1 X-1.2454 Y4.2863 E856.55364 ; EInc=39.77353 cartesianDistance=20.28450 angle=0.000 pulseDistance=0.51000
; 
; feature travel
PRIO_OFF
G0 X-0.18059 Y4.2863 ; cartesianDistance=1.06479 (Travel)
; 
; feature fill
PRIO_ON
G1 X0.0000 Y4.2021 E856.94434 
G1 X18.2034 Y-4.2863 E876.63575 ; EInc=39.77353 cartesianDistance=20.28450 angle=0.000 pulseDistance=0.51000 => originalEInc=39.38283 adjustedEInc=19.69141 density=0.5
; 
; feature travel
PRIO_OFF
G0 X19.2682 Y-4.2863 ; cartesianDistance=1.06479 (Travel)
; 
; feature fill
PRIO_ON
G1 X0.8842 Y4.2863 E916.40928 ; EInc=39.77353 cartesianDistance=20.28450 angle=0.000 pulseDistance=0.51000
; 
; feature travel
PRIO_OFF
G0 X1.94899 Y4.2863 ; cartesianDistance=1.06479 (Travel)
; 
; feature fill
PRIO_ON
G1 X20.3330 Y-4.2863 E956.18281 ; EInc=39.77353 cartesianDistance=20.28450 angle=0.000 pulseDistance=0.51000
; 
; feature travel
PRIO_OFF
G0 X21.39778 Y-4.2863 ; cartesianDistance=1.06479 (Travel)
; 
; feature fill
PRIO_ON
G1 X3.0138 Y4.2863 E995.95634 ; EInc=39.77353 cartesianDistance=20.28450 angle=0.000 pulseDistance=0.51000
; 
; feature travel
PRIO_OFF
G0 X4.07857 Y4.2863 ; cartesianDistance=1.06479 (Travel)
; 
; feature fill
PRIO_ON
G1 X22.4626 Y-4.2863 E1035.72987 ; EInc=39.77353 cartesianDistance=20.28450 angle=0.000 pulseDistance=0.51000
; 
; feature travel
PRIO_OFF
G0 X23.52736 Y-4.2863 ; cartesianDistance=1.06479 (Travel)
; 
; feature fill
PRIO_ON
G1 X5.1434 Y4.2863 E1075.50340 ; EInc=39.77353 cartesianDistance=20.28450 angle=0.000 pulseDistance=0.51000
; 
; feature travel
PRIO_OFF
G0 X6.20815 Y4.2863 ; cartesianDistance=1.06479 (Travel)
; 
; feature fill
PRIO_ON
G1 X24.4947 Y-4.2409 E1115.06609 ; EInc=39.56269 cartesianDistance=20.17697 angle=0.000 pulseDistance=0.51000
; 
; feature travel
PRIO_OFF
G0 X24.4947 Y-3.74434 ; cartesianDistance=0.49652 (Travel)
; 
; feature fill
PRIO_ON
G1 X7.2729 Y4.2863 E1152.32512 ; EInc=37.25903 cartesianDistance=19.00211 angle=0.000 pulseDistance=0.51000
; 
; feature travel
PRIO_OFF
G0 X8.33773 Y4.2863 ; cartesianDistance=1.06479 (Travel)
; 
; feature fill
PRIO_ON
G1 X24.4947 Y-3.2478 E1187.28050 ; EInc=34.95537 cartesianDistance=17.82724 angle=0.000 pulseDistance=0.51000
; 
; feature travel
PRIO_OFF
G0 X24.4947 Y-2.7513 ; cartesianDistance=0.49652 (Travel)
; 
; feature fill
PRIO_ON
G1 X9.4025 Y4.2863 E1219.93221 ; EInc=32.65171 cartesianDistance=16.65237 angle=0.000 pulseDistance=0.51000
; 
; feature travel
PRIO_OFF
G0 X10.46731 Y4.2863 ; cartesianDistance=1.06479 (Travel)
; 
; feature fill
PRIO_ON
G1 X24.4947 Y-2.2548 E1250.28026 ; EInc=30.34805 cartesianDistance=15.47751 angle=0.000 pulseDistance=0.51000
; 
; feature travel
PRIO_OFF
G0 X24.4947 Y-1.75826 ; cartesianDistance=0.49652 (Travel)
; 
; feature fill
PRIO_ON
G1 X11.5321 Y4.2863 E1278.32466 ; EInc=28.04439 cartesianDistance=14.30264 angle=0.000 pulseDistance=0.51000
; 
; feature travel
PRIO_OFF
G0 X12.5969 Y4.2863 ; cartesianDistance=1.06479 (Travel)
; 
; feature fill
PRIO_ON
G1 X24.4947 Y-1.2617 E1304.06539 ; EInc=25.74073 cartesianDistance=13.12777 angle=0.000 pulseDistance=0.51000
; 
; feature travel
PRIO_OFF
G0 X24.4947 Y-0.76522 ; cartesianDistance=0.49652 (Travel)
; 
; feature fill
PRIO_ON
G1 X13.6617 Y4.2863 E1327.50246 ; EInc=23.43707 cartesianDistance=11.95291 angle=0.000 pulseDistance=0.51000
; 
; feature travel
PRIO_OFF
G0 X14.72648 Y4.2863 ; cartesianDistance=1.06479 (Travel)
; 
; feature fill
PRIO_ON
G1 X24.4947 Y-0.2687 E1348.63588 ; EInc=21.13341 cartesianDistance=10.77804 angle=0.000 pulseDistance=0.51000
; 
; feature travel
PRIO_OFF
G0 X24.4947 Y0.22782 ; cartesianDistance=0.49652 (Travel)
; 
; feature fill
PRIO_ON
G1 X15.7913 Y4.2863 E1367.46563 ; EInc=18.82975 cartesianDistance=9.60317 angle=0.000 pulseDistance=0.51000
; 
; feature travel
PRIO_OFF
G0 X16.85606 Y4.2863 ; cartesianDistance=1.06479 (Travel)
; 
; feature fill
PRIO_ON
G1 X24.4947 Y0.7243 E1383.99173 ; EInc=16.52609 cartesianDistance=8.42831 angle=0.000 pulseDistance=0.51000
; 
; feature travel
PRIO_OFF
G0 X24.4947 Y1.22086 ; cartesianDistance=0.49652 (Travel)
; 
; feature fill
PRIO_ON
G1 X17.9209 Y4.2863 E1398.21416 ; EInc=14.22243 cartesianDistance=7.25344 angle=0.000 pulseDistance=0.51000
; 
; feature travel
PRIO_OFF
G0 X18.98564 Y4.2863 ; cartesianDistance=1.06479 (Travel)
; 
; feature fill
PRIO_ON
G1 X24.4947 Y1.7174 E1410.13293 ; EInc=11.91877 cartesianDistance=6.07857 angle=0.000 pulseDistance=0.51000
; 
; feature travel
PRIO_OFF
G0 X24.4947 Y2.2139 ; cartesianDistance=0.49652 (Travel)
; 
; feature fill
PRIO_ON
G1 X20.0504 Y4.2863 E1419.74805 ; EInc=9.61511 cartesianDistance=4.90371 angle=0.000 pulseDistance=0.51000
; 
; feature travel
PRIO_OFF
G0 X21.11522 Y4.2863 ; cartesianDistance=1.06479 (Travel)
; 
; feature fill
PRIO_ON
G1 X24.4947 Y2.7104 E1427.05950 ; EInc=7.31145 cartesianDistance=3.72884 angle=0.000 pulseDistance=0.51000
; 
; feature travel
PRIO_OFF
G0 X24.4947 Y3.20694 ; cartesianDistance=0.49652 (Travel)
; 
; feature fill
PRIO_ON
G1 X22.1800 Y4.2863 E1432.06730 ; EInc=5.00779 cartesianDistance=2.55398 angle=0.000 pulseDistance=0.51000
; 
; feature travel
PRIO_OFF
G0 X23.2448 Y4.2863 ; cartesianDistance=1.06479 (Travel)
; 
; feature fill
PRIO_ON
G1 X24.4947 Y3.7035 E1434.77143 ; EInc=2.70413 cartesianDistance=1.37911 angle=0.000 pulseDistance=0.51000
; 
; feature travel
PRIO_OFF
G0 X24.4947 Y4.19998 ; cartesianDistance=0.49652 (Travel)
; 
; feature fill
PRIO_ON
G1 X24.3096 Y4.2863 E1435.17190 ; EInc=0.40047 cartesianDistance=0.20424 angle=0.000 pulseDistance=0.51000
; 
; feature travel
PRIO_OFF
G0 X3.29634 Y-4.2863 ; cartesianDistance=22.69463 (Travel)
; 
; feature fill
PRIO_ON
G1 X0.0000 Y-2.7492 E1438.73770 ; => originalEInc=7.13159 adjustedEInc=3.56579 density=0.5
G1 X-15.0877 Y4.2863 E1471.37964 ; EInc=39.77353 cartesianDistance=20.28450 angle=0.000 pulseDistance=0.51000
; 
; feature travel
PRIO_OFF
G0 X-16.15245 Y4.2863 ; cartesianDistance=1.06479 (Travel)
; 
; feature fill
PRIO_ON
G1 X0.0000 Y-3.2457 E1506.32524 
G1 X2.2315 Y-4.2863 E1508.73921 ; EInc=39.77353 cartesianDistance=20.28450 angle=0.000 pulseDistance=0.51000 => originalEInc=4.82793 adjustedEInc=2.41396 density=0.5
; 
; feature travel
PRIO_OFF
G0 X1.16676 Y-4.2863 ; cartesianDistance=1.06479 (Travel)
; 
; feature fill
PRIO_ON
G1 X0.0000 Y-3.7422 E1510.00134 ; => originalEInc=2.52427 adjustedEInc=1.26213 density=0.5
G1 X-17.2172 Y4.2863 E1547.25060 ; EInc=39.77353 cartesianDistance=20.28450 angle=0.000 pulseDistance=0.51000
; 
; feature travel
PRIO_OFF
G0 X-18.28203 Y4.2863 ; cartesianDistance=1.06479 (Travel)
; 
; feature fill
PRIO_ON
G1 X0.0000 Y-4.2388 E1586.80352 
G1 X0.1020 Y-4.2863 E1586.91383 ; EInc=39.77353 cartesianDistance=20.28450 angle=0.000 pulseDistance=0.51000 => originalEInc=0.22061 adjustedEInc=0.11031 density=0.5
; 
; feature travel
PRIO_OFF
G0 X-0.96283 Y-4.2863 ; cartesianDistance=1.06479 (Travel)
; 
; feature fill
PRIO_ON
G1 X-19.3468 Y4.2863 E1626.68736 ; EInc=39.77353 cartesianDistance=20.28450 angle=0.000 pulseDistance=0.51000
; 
; feature travel
PRIO_OFF
G0 X-20.41162 Y4.2863 ; cartesianDistance=1.06479 (Travel)
; 
; feature fill
PRIO_ON
G1 X-2.0276 Y-4.2863 E1666.46089 ; EInc=39.77353 cartesianDistance=20.28450 angle=0.000 pulseDistance=0.51000
; 
; feature travel
PRIO_OFF
G0 X-3.09241 Y-4.2863 ; cartesianDistance=1.06479 (Travel)
; 
; feature fill
PRIO_ON
G1 X-21.4764 Y4.2863 E1706.23442 ; EInc=39.77353 cartesianDistance=20.28450 angle=0.000 pulseDistance=0.51000
; 
; feature travel
PRIO_OFF
G0 X-22.5412 Y4.2863 ; cartesianDistance=1.06479 (Travel)
; 
; feature fill
PRIO_ON
G1 X-4.1572 Y-4.2863 E1746.00795 ; EInc=39.77353 cartesianDistance=20.28450 angle=0.000 pulseDistance=0.51000
; 
; feature travel
PRIO_OFF
G0 X-5.22199 Y-4.2863 ; cartesianDistance=1.06479 (Travel)
; 
; feature fill
PRIO_ON
G1 X-23.6060 Y4.2863 E1785.78147 ; EInc=39.77353 cartesianDistance=20.28450 angle=0.000 pulseDistance=0.51000
; 
; feature travel
PRIO_OFF
G0 X-24.4947 Y4.20419 ; cartesianDistance=0.89250 (Travel)
; 
; feature fill
PRIO_ON
G1 X-6.2868 Y-4.2863 E1825.17406 ; EInc=39.39258 cartesianDistance=20.09022 angle=0.000 pulseDistance=0.51000
; 
; feature travel
PRIO_OFF
G0 X-7.35157 Y-4.2863 ; cartesianDistance=1.06479 (Travel)
; 
; feature fill
PRIO_ON
G1 X-24.4947 Y3.7077 E1862.26298 ; EInc=37.08892 cartesianDistance=18.91535 angle=0.000 pulseDistance=0.51000
; 
; feature travel
PRIO_OFF
G0 X-24.4947 Y3.21115 ; cartesianDistance=0.49652 (Travel)
; 
; feature fill
PRIO_ON
G1 X-8.4164 Y-4.2863 E1897.04825 ; EInc=34.78526 cartesianDistance=17.74049 angle=0.000 pulseDistance=0.51000
; 
; feature travel
PRIO_OFF
G0 X-9.48115 Y-4.2863 ; cartesianDistance=1.06479 (Travel)
; 
; feature fill
PRIO_ON
G1 X-24.4947 Y2.7146 E1929.52985 ; EInc=32.48160 cartesianDistance=16.56562 angle=0.000 pulseDistance=0.51000
; 
; feature travel
PRIO_OFF
G0 X-24.4947 Y2.21811 ; cartesianDistance=0.49652 (Travel)
; 
; feature fill
PRIO_ON
G1 X-10.5459 Y-4.2863 E1959.70780 ; EInc=30.17794 cartesianDistance=15.39075 angle=0.000 pulseDistance=0.51000
; 
; feature travel
PRIO_OFF
G0 X-11.61073 Y-4.2863 ; cartesianDistance=1.06479 (Travel)
; 
; feature fill
PRIO_ON
G1 X-24.4947 Y1.7216 E1987.58208 ; EInc=27.87429 cartesianDistance=14.21589 angle=0.000 pulseDistance=0.51000
; 
; feature travel
PRIO_OFF
G0 X-24.4947 Y1.22507 ; cartesianDistance=0.49652 (Travel)
; 
; feature fill
PRIO_ON
G1 X-12.6755 Y-4.2863 E2013.15271 ; EInc=25.57063 cartesianDistance=13.04102 angle=0.000 pulseDistance=0.51000
; 
; feature travel
PRIO_OFF
G0 X-13.74031 Y-4.2863 ; cartesianDistance=1.06479 (Travel)
; 
; feature fill
PRIO_ON
G1 X-24.4947 Y0.7286 E2036.41967 ; EInc=23.26697 cartesianDistance=11.86615 angle=0.000 pulseDistance=0.51000
; 
; feature travel
PRIO_OFF
G0 X-24.4947 Y0.23203 ; cartesianDistance=0.49652 (Travel)
; 
; feature fill
PRIO_ON
G1 X-14.8051 Y-4.2863 E2057.38298 ; EInc=20.96331 cartesianDistance=10.69129 angle=0.000 pulseDistance=0.51000
; 
; feature travel
PRIO_OFF
G0 X-15.8699 Y-4.2863 ; cartesianDistance=1.06479 (Travel)
; 
; feature fill
PRIO_ON
G1 X-24.4947 Y-0.2645 E2076.04262 ; EInc=18.65965 cartesianDistance=9.51642 angle=0.000 pulseDistance=0.51000
; 
; feature travel
PRIO_OFF
G0 X-24.4947 Y-0.76101 ; cartesianDistance=0.49652 (Travel)
; 
; feature fill
PRIO_ON
G1 X-16.9347 Y-4.2863 E2092.39861 ; EInc=16.35599 cartesianDistance=8.34155 angle=0.000 pulseDistance=0.51000
; 
; feature travel
PRIO_OFF
G0 X-17.99948 Y-4.2863 ; cartesianDistance=1.06479 (Travel)
; 
; feature fill
PRIO_ON
G1 X-24.4947 Y-1.2575 E2106.45094 ; EInc=14.05233 cartesianDistance=7.16669 angle=0.000 pulseDistance=0.51000
; 
; feature travel
PRIO_OFF
G0 X-24.4947 Y-1.75405 ; cartesianDistance=0.49652 (Travel)
; 
; feature fill
PRIO_ON
G1 X-19.0643 Y-4.2863 E2118.19960 ; EInc=11.74867 cartesianDistance=5.99182 angle=0.000 pulseDistance=0.51000
; 
; feature travel
PRIO_OFF
G0 X-20.12906 Y-4.2863 ; cartesianDistance=1.06479 (Travel)
; 
; feature fill
PRIO_ON
G1 X-24.4947 Y-2.2506 E2127.64461 ; EInc=9.44501 cartesianDistance=4.81695 angle=0.000 pulseDistance=0.51000
; 
; feature travel
PRIO_OFF
G0 X-24.4947 Y-2.74709 ; cartesianDistance=0.49652 (Travel)
; 
; feature fill
PRIO_ON
G1 X-21.1939 Y-4.2863 E2134.78595 ; EInc=7.14135 cartesianDistance=3.64209 angle=0.000 pulseDistance=0.51000
; 
; feature travel
PRIO_OFF
G0 X-22.25864 Y-4.2863 ; cartesianDistance=1.06479 (Travel)
; 
; feature fill
PRIO_ON
G1 X-24.4947 Y-3.2436 E2139.62364 ; EInc=4.83769 cartesianDistance=2.46722 angle=0.000 pulseDistance=0.51000
; 
; feature travel
PRIO_OFF
G0 X-24.4947 Y-3.74013 ; cartesianDistance=0.49652 (Travel)
; 
; feature fill
PRIO_ON
G1 X-23.3234 Y-4.2863 E2142.15766 ; EInc=2.53403 cartesianDistance=1.29235 angle=0.000 pulseDistance=0.51000
; 
; feature travel
PRIO_OFF
G0 X-24.38822 Y-4.2863 ; cartesianDistance=1.06479 (Travel)
; 
; feature fill
PRIO_ON
G1 X-24.4947 Y-4.2367 E2142.38803 ; EInc=0.23037 cartesianDistance=0.11749 angle=0.000 pulseDistance=0.51000
PRIO_OFF
LayersCompleted=4
M1
; 
;========================
; layer 4, Z = 1.2000
; 
; reset extrusion
STOPRE
PRESETON(E, 0)
DO PRIO_PULSE_DISTANCE=DROP_SCALE
DO PRIO_ON_PATH_OFFSET=0.5*PRIO_PULSE_DISTANCE
;outer: (25.2604,-5.0521) (25.2604,5.0521) (-25.2604,5.0521) (-25.2604,-5.0521) (19.8604,-5.0521) holes: !
;overhangs:!
; 
; feature plane change
G0 X-24.4947 Y-4.23665 Z1.2 ; cartesianDistance=0.00000 (Plane Change)
; 
; feature travel
G0 X3.92685 Y4.637 ; cartesianDistance=29.77459 (Travel)
; 
; feature outer perimeter
G1 F24000 FL[E] = OuterPerimeterFrequency * DROP_SCALE * 60
PRIO_ON
G1 X-24.8454 Y4.6370 E67.69941 ; EInc=67.69941 cartesianDistance=28.77225 angle=90.000 pulseDistance=0.42500
G1 X-24.8454 Y-4.6370 E89.52059 ; EInc=21.82118 cartesianDistance=9.27400 angle=90.000 pulseDistance=0.42500
G1 X24.8454 Y-4.6370 E206.44012 ; EInc=116.91953 cartesianDistance=49.69080 angle=90.000 pulseDistance=0.42500
G1 X24.8454 Y4.6370 E228.26129 ; EInc=21.82118 cartesianDistance=9.27400 angle=90.000 pulseDistance=0.42500
G1 X3.9268 Y4.6370 E277.48141 ; EInc=49.22012 cartesianDistance=20.91855 angle=180.000 pulseDistance=0.42500
; 
; feature travel
PRIO_OFF
G0 X3.92685 Y4.286 ; cartesianDistance=0.35100 (Travel)
; 
; feature inner perimeter
G1 F24000 FL[E] = InnerPerimeterFrequency * DROP_SCALE * 60
PRIO_ON
G1 X24.4944 Y4.2860 E315.56947 ; EInc=38.08806 cartesianDistance=20.56755 angle=90.000 pulseDistance=0.54000
G1 X24.4944 Y-4.2860 E331.44354 ; EInc=15.87407 cartesianDistance=8.57200 angle=90.000 pulseDistance=0.54000
G1 X-24.4944 Y-4.2860 E422.16354 ; EInc=90.72000 cartesianDistance=48.98880 angle=90.000 pulseDistance=0.54000
G1 X-24.4944 Y4.2860 E438.03762 ; EInc=15.87407 cartesianDistance=8.57200 angle=90.000 pulseDistance=0.54000
G1 X3.9268 Y4.2860 E490.66956 ; EInc=52.63194 cartesianDistance=28.42125 angle=180.000 pulseDistance=0.54000
; 
; feature travel
PRIO_OFF
G0 X4.49766 Y4.2863 ; cartesianDistance=0.57081 (Travel)
; 
; feature fill
G1 F24000 FL[E] = FillFrequency * DROP_SCALE * 60
PRIO_ON
G1 X0.0000 Y2.6493 E495.36202 ; => originalEInc=9.38492 adjustedEInc=4.69246 density=0.5
G1 X-19.0554 Y-4.2863 E535.12339 ; EInc=49.14629 cartesianDistance=25.06461 angle=0.000 pulseDistance=0.51000
; 
; feature travel
PRIO_OFF
G0 X-20.37108 Y-4.2863 ; cartesianDistance=1.31571 (Travel)
; 
; feature fill
PRIO_ON
G1 X0.0000 Y3.1282 E577.63014 
G1 X3.1820 Y4.2863 E580.94991 ; EInc=49.14629 cartesianDistance=25.06461 angle=0.000 pulseDistance=0.51000 => originalEInc=6.63953 adjustedEInc=3.31976 density=0.5
; 
; feature travel
PRIO_OFF
G0 X1.86623 Y4.2863 ; cartesianDistance=1.31571 (Travel)
; 
; feature fill
PRIO_ON
G1 X0.0000 Y3.6070 E582.89697 ; => originalEInc=3.89412 adjustedEInc=1.94706 density=0.5
G1 X-21.6868 Y-4.2863 E628.14914 ; EInc=49.14629 cartesianDistance=25.06461 angle=0.000 pulseDistance=0.51000
; 
; feature travel
PRIO_OFF
G0 X-23.0025 Y-4.2863 ; cartesianDistance=1.31571 (Travel)
; 
; feature fill
PRIO_ON
G1 X0.0000 Y4.0859 E676.14669 
G1 X0.5505 Y4.2863 E676.72105 ; EInc=49.14629 cartesianDistance=25.06461 angle=0.000 pulseDistance=0.51000 => originalEInc=1.14873 adjustedEInc=0.57436 density=0.5
; 
; feature travel
PRIO_OFF
G0 X-0.76519 Y4.2863 ; cartesianDistance=1.31571 (Travel)
; 
; feature fill
PRIO_ON
G1 X-24.3182 Y-4.2863 E725.86734 ; EInc=49.14629 cartesianDistance=25.06461 angle=0.000 pulseDistance=0.51000
; 
; feature travel
PRIO_OFF
G0 X-24.4947 Y-3.87166 ; cartesianDistance=0.45064 (Travel)
; 
; feature fill
PRIO_ON
G1 X-2.0809 Y4.2863 E772.63649 ; EInc=46.76915 cartesianDistance=23.85227 angle=0.000 pulseDistance=0.51000
; 
; feature travel
PRIO_OFF
G0 X-3.39661 Y4.2863 ; cartesianDistance=1.31571 (Travel)
; 
; feature fill
PRIO_ON
G1 X-24.4947 Y-3.3928 E816.66024 ; EInc=44.02375 cartesianDistance=22.45211 angle=0.000 pulseDistance=0.51000
; 
; feature travel
PRIO_OFF
G0 X-24.4947 Y-2.9139 ; cartesianDistance=0.47888 (Travel)
; 
; feature fill
PRIO_ON
G1 X-4.7123 Y4.2863 E857.93860 ; EInc=41.27836 cartesianDistance=21.05196 angle=0.000 pulseDistance=0.51000
; 
; feature travel
PRIO_OFF
G0 X-6.02804 Y4.2863 ; cartesianDistance=1.31571 (Travel)
; 
; feature fill
PRIO_ON
G1 X-24.4947 Y-2.4350 E896.47156 ; EInc=38.53296 cartesianDistance=19.65181 angle=0.000 pulseDistance=0.51000
; 
; feature travel
PRIO_OFF
G0 X-24.4947 Y-1.95614 ; cartesianDistance=0.47888 (Travel)
; 
; feature fill
PRIO_ON
G1 X-7.3438 Y4.2863 E932.25913 ; EInc=35.78757 cartesianDistance=18.25166 angle=0.000 pulseDistance=0.51000
; 
; feature travel
PRIO_OFF
G0 X-8.65946 Y4.2863 ; cartesianDistance=1.31571 (Travel)
; 
; feature fill
PRIO_ON
G1 X-24.4947 Y-1.4773 E965.30131 ; EInc=33.04217 cartesianDistance=16.85151 angle=0.000 pulseDistance=0.51000
; 
; feature travel
PRIO_OFF
G0 X-24.4947 Y-0.99838 ; cartesianDistance=0.47888 (Travel)
; 
; feature fill
PRIO_ON
G1 X-9.9752 Y4.2863 E995.59809 ; EInc=30.29678 cartesianDistance=15.45136 angle=0.000 pulseDistance=0.51000
; 
; feature travel
PRIO_OFF
G0 X-11.29089 Y4.2863 ; cartesianDistance=1.31571 (Travel)
; 
; feature fill
PRIO_ON
G1 X-24.4947 Y-0.5195 E1023.14947 ; EInc=27.55138 cartesianDistance=14.05121 angle=0.000 pulseDistance=0.51000
; 
; feature travel
PRIO_OFF
G0 X-24.4947 Y-0.04062 ; cartesianDistance=0.47888 (Travel)
; 
; feature fill
PRIO_ON
G1 X-12.6066 Y4.2863 E1047.95546 ; EInc=24.80599 cartesianDistance=12.65105 angle=0.000 pulseDistance=0.51000
; 
; feature travel
PRIO_OFF
G0 X-13.92231 Y4.2863 ; cartesianDistance=1.31571 (Travel)
; 
; feature fill
PRIO_ON
G1 X-24.4947 Y0.4383 E1070.01606 ; EInc=22.06059 cartesianDistance=11.25090 angle=0.000 pulseDistance=0.51000
; 
; feature travel
PRIO_OFF
G0 X-24.4947 Y0.91714 ; cartesianDistance=0.47888 (Travel)
; 
; feature fill
PRIO_ON
G1 X-15.2380 Y4.2863 E1089.33126 ; EInc=19.31520 cartesianDistance=9.85075 angle=0.000 pulseDistance=0.51000
; 
; feature travel
PRIO_OFF
G0 X-16.55373 Y4.2863 ; cartesianDistance=1.31571 (Travel)
; 
; feature fill
PRIO_ON
G1 X-24.4947 Y1.3960 E1105.90106 ; EInc=16.56980 cartesianDistance=8.45060 angle=0.000 pulseDistance=0.51000
; 
; feature travel
PRIO_OFF
G0 X-24.4947 Y1.8749 ; cartesianDistance=0.47888 (Travel)
; 
; feature fill
PRIO_ON
G1 X-17.8695 Y4.2863 E1119.72547 ; EInc=13.82441 cartesianDistance=7.05045 angle=0.000 pulseDistance=0.51000
; 
; feature travel
PRIO_OFF
G0 X-19.18516 Y4.2863 ; cartesianDistance=1.31571 (Travel)
; 
; feature fill
PRIO_ON
G1 X-24.4947 Y2.3538 E1130.80448 ; EInc=11.07901 cartesianDistance=5.65030 angle=0.000 pulseDistance=0.51000
; 
; feature travel
PRIO_OFF
G0 X-24.4947 Y2.83266 ; cartesianDistance=0.47888 (Travel)
; 
; feature fill
PRIO_ON
G1 X-20.5009 Y4.2863 E1139.13810 ; EInc=8.33362 cartesianDistance=4.25015 angle=0.000 pulseDistance=0.51000
; 
; feature travel
PRIO_OFF
G0 X-21.81658 Y4.2863 ; cartesianDistance=1.31571 (Travel)
; 
; feature fill
PRIO_ON
G1 X-24.4947 Y3.3115 E1144.72633 ; EInc=5.58822 cartesianDistance=2.84999 angle=0.000 pulseDistance=0.51000
; 
; feature travel
PRIO_OFF
G0 X-24.4947 Y3.79042 ; cartesianDistance=0.47888 (Travel)
; 
; feature fill
PRIO_ON
G1 X-23.1323 Y4.2863 E1147.56916 ; EInc=2.84283 cartesianDistance=1.44984 angle=0.000 pulseDistance=0.51000
; 
; feature travel
PRIO_OFF
G0 X-17.73965 Y-4.2863 ; cartesianDistance=10.12769 (Travel)
; 
; feature fill
PRIO_ON
G1 X0.0000 Y2.1704 E1184.58513 
G1 X5.8134 Y4.2863 E1190.65029 ; EInc=49.14629 cartesianDistance=25.06461 angle=0.000 pulseDistance=0.51000 => originalEInc=12.13031 adjustedEInc=6.06516 density=0.5
; 
; feature travel
PRIO_OFF
G0 X7.12908 Y4.2863 ; cartesianDistance=1.31571 (Travel)
; 
; feature fill
PRIO_ON
G1 X-0.0000 Y1.6915 E1198.08814 ; => originalEInc=14.87571 adjustedEInc=7.43785 density=0.5
G1 X-16.4239 Y-4.2863 E1232.35872 ; EInc=49.14629 cartesianDistance=25.06461 angle=0.000 pulseDistance=0.51000
; 
; feature travel
PRIO_OFF
G0 X-15.10823 Y-4.2863 ; cartesianDistance=1.31571 (Travel)
; 
; feature fill
PRIO_ON
G1 X0.0000 Y1.2126 E1263.88391 
G1 X8.4448 Y4.2863 E1272.69445 ; EInc=49.14629 cartesianDistance=25.06461 angle=0.000 pulseDistance=0.51000 => originalEInc=17.62110 adjustedEInc=8.81055 density=0.5
; 
; feature travel
PRIO_OFF
G0 X9.76051 Y4.2863 ; cartesianDistance=1.31571 (Travel)
; 
; feature fill
PRIO_ON
G1 X0.0000 Y0.7338 E1282.87771 ; => originalEInc=20.36650 adjustedEInc=10.18325 density=0.5
G1 X-13.7925 Y-4.2863 E1311.65749 ; EInc=49.14629 cartesianDistance=25.06461 angle=0.000 pulseDistance=0.51000
; 
; feature travel
PRIO_OFF
G0 X-12.47681 Y-4.2863 ; cartesianDistance=1.31571 (Travel)
; 
; feature fill
PRIO_ON
G1 X-0.0000 Y0.2549 E1337.69188 
G1 X11.0762 Y4.2863 E1349.24783 ; EInc=49.14629 cartesianDistance=25.06461 angle=0.000 pulseDistance=0.51000 => originalEInc=23.11189 adjustedEInc=11.55594 density=0.5
; 
; feature travel
PRIO_OFF
G0 X12.39193 Y4.2863 ; cartesianDistance=1.31571 (Travel)
; 
; feature fill
PRIO_ON
G1 X0.0000 Y-0.2240 E1362.17648 ; => originalEInc=25.85729 adjustedEInc=12.92865 density=0.5
G1 X-11.1611 Y-4.2863 E1385.46547 ; EInc=49.14629 cartesianDistance=25.06461 angle=0.000 pulseDistance=0.51000
; 
; feature travel
PRIO_OFF
G0 X-9.84538 Y-4.2863 ; cartesianDistance=1.31571 (Travel)
; 
; feature fill
PRIO_ON
G1 X-0.0000 Y-0.7029 E1406.00907 
G1 X13.7076 Y4.2863 E1420.31042 ; EInc=49.14629 cartesianDistance=25.06461 angle=0.000 pulseDistance=0.51000 => originalEInc=28.60269 adjustedEInc=14.30134 density=0.5
; 
; feature travel
PRIO_OFF
G0 X15.02335 Y4.2863 ; cartesianDistance=1.31571 (Travel)
; 
; feature fill
PRIO_ON
G1 X0.0000 Y-1.1818 E1435.98445 ; => originalEInc=31.34807 adjustedEInc=15.67404 density=0.5
G1 X-8.5297 Y-4.2863 E1453.78266 ; EInc=49.14629 cartesianDistance=25.06461 angle=0.000 pulseDistance=0.51000
; 
; feature travel
PRIO_OFF
G0 X-7.21396 Y-4.2863 ; cartesianDistance=1.31571 (Travel)
; 
; feature fill
PRIO_ON
G1 X0.0000 Y-1.6606 E1468.83548 
G1 X16.3391 Y4.2863 E1485.88221 ; EInc=49.14629 cartesianDistance=25.06461 angle=0.000 pulseDistance=0.51000 => originalEInc=34.09348 adjustedEInc=17.04674 density=0.5
; 
; feature travel
PRIO_OFF
G0 X17.65478 Y4.2863 ; cartesianDistance=1.31571 (Travel)
; 
; feature fill
PRIO_ON
G1 X0.0000 Y-2.1395 E1504.30164 ; => originalEInc=36.83886 adjustedEInc=18.41943 density=0.5
G1 X-5.8982 Y-4.2863 E1516.60906 ; EInc=49.14629 cartesianDistance=25.06461 angle=0.000 pulseDistance=0.51000
; 
; feature travel
PRIO_OFF
G0 X-4.58253 Y-4.2863 ; cartesianDistance=1.31571 (Travel)
; 
; feature fill
PRIO_ON
G1 X0.0000 Y-2.6184 E1526.17108 
G1 X18.9705 Y4.2863 E1545.96322 ; EInc=49.14629 cartesianDistance=25.06461 angle=0.000 pulseDistance=0.51000 => originalEInc=39.58427 adjustedEInc=19.79214 density=0.5
; 
; feature travel
PRIO_OFF
G0 X20.2862 Y4.2863 ; cartesianDistance=1.31571 (Travel)
; 
; feature fill
PRIO_ON
G1 X-0.0000 Y-3.0973 E1567.12805 ; => originalEInc=42.32966 adjustedEInc=21.16483 density=0.5
G1 X-3.2668 Y-4.2863 E1573.94467 ; EInc=49.14629 cartesianDistance=25.06461 angle=0.000 pulseDistance=0.51000
; 
; feature travel
PRIO_OFF
G0 X-1.95111 Y-4.2863 ; cartesianDistance=1.31571 (Travel)
; 
; feature fill
PRIO_ON
G1 X0.0000 Y-3.5762 E1578.01590 
G1 X21.6019 Y4.2863 E1600.55343 ; EInc=49.14629 cartesianDistance=25.06461 angle=0.000 pulseDistance=0.51000 => originalEInc=45.07506 adjustedEInc=22.53753 density=0.5
; 
; feature travel
PRIO_OFF
G0 X22.91763 Y4.2863 ; cartesianDistance=1.31571 (Travel)
; 
; feature fill
PRIO_ON
G1 X0.0000 Y-4.0550 E1624.46365 ; => originalEInc=47.82044 adjustedEInc=23.91022 density=0.5
G1 X-0.6354 Y-4.2863 E1625.78949 ; EInc=49.14629 cartesianDistance=25.06461 angle=0.000 pulseDistance=0.51000
; 
; feature travel
PRIO_OFF
G0 X0.68031 Y-4.2863 ; cartesianDistance=1.31571 (Travel)
; 
; feature fill
PRIO_ON
G1 X24.2333 Y4.2863 E1674.93578 ; EInc=49.14629 cartesianDistance=25.06461 angle=0.000 pulseDistance=0.51000
; 
; feature travel
PRIO_OFF
