;---BEGIN HEADER
; Generated by DropletSlicer
; Version: 3.4.4
; Date: Tuesday, June 18, 2024
; Time: 09:56:11 PM
G64 ;continuous path mode
G71 ;millimeters
G56 ;origin at center
OVR=100
OVRRAP=20
DO PRIO_ON_PATH_OFFSET=0.5*PRIO_PULSE_DISTANCE
RECOMMENDED_RECIPE="4008 Aluminum Wire"
CheckRecommendedRecipe
BUILDPROCESSORINTERFACEVERSION=1177
CheckBPVersion
OuterPerimeterFrequency=300
InnerPerimeterFrequency=400
ThinFeatureFrequency=300
UnsupportedStepoutFrequency=300
SupportedStepoutFrequency=300
FillFrequency=400
SupportWallFrequency=100
SupportPillarFrequency=100
;BUILDPROCESSORINTERFACEVERSION=1177
PART_MASS_CONSUMPTION=0
SUPPORT_MASS_CONSUMPTION=0
G0 X0 Y0 ; cartesianDistance=0.00000 (reset z)
MSG("Print Started")
;---END HEADER
;---BEGIN PRINT STATISTICS
;TOTAL WIRE FEED ESTIMATE:
;    Total Drops: 474,093.55
;      Total Mass: 68.74 g
;    Part Drops: 474,093.55
;      Part Mass: 68.74 g
;    Support Drops: 0.00
;      Support Mass: 0.00 g
;    Part Density: 100.0%
;---END PRINT STATISTICS
;XY Extents: [-24.845 -24.845] [24.845 24.845]
;NaiveEstimatedPrintTime=760.6529785546442
;SupportedStepoutFrequency=300
EstimatedPrintTime=1627.7589111328125
;ZCount = 1
;ExtraChevronOffset = 10
NumberOfLayers=42
LayersCompleted=0
;Mass values below are in kilograms
TOTAL_MASS=0.068743564
PART_MASS=0.068743564
SUPPORT_MASS=0.000000000
CheckMass
DO PRIO_PULSE_DISTANCE=DROP_SCALE
DO PRIO_ON_PATH_OFFSET=0.5*PRIO_PULSE_DISTANCE
PARAM_SETUP
;ChunkSize=5
; 
;========================
; layer 0, Z = 0.2400
; 
; reset extrusion
STOPRE
PRESETON(E, 0)
DO PRIO_PULSE_DISTANCE=DROP_SCALE
DO PRIO_ON_PATH_OFFSET=0.5*PRIO_PULSE_DISTANCE
FEATURE_TYPE=0
;outer: (25.2604,-25.2604) (25.2604,25.2604) (-25.2604,25.2604) (-25.2604,-25.2604) (-24.6604,-25.2604) holes: !
;overhangs:!
; 
; feature plane change
G0 X0 Y0 Z0.24 ; cartesianDistance=0.00000 (Plane Change)
; 
; feature travel
G0 X24.58076 Y-24.8454 ; cartesianDistance=34.95008 (Travel)
; 
; feature outer perimeter
G1 F24000 FL[E] = OuterPerimeterFrequency * DROP_SCALE * 60
DO PRIO_PULSE_DISTANCE=DROP_SCALE
DO PRIO_ON_PATH_OFFSET=0.5*PRIO_PULSE_DISTANCE
PRIO_ON
G1 X24.8454 Y-24.8454 E0.62267 ; EInc=0.62267 cartesianDistance=0.26464 angle=90.000 pulseDistance=0.42500
G1 X24.8454 Y24.8454 E117.5422 ; EInc=116.91953 cartesianDistance=49.69080 angle=90.000 pulseDistance=0.42500
G1 X-24.8454 Y24.8454 E234.46173 ; EInc=116.91953 cartesianDistance=49.69080 angle=90.000 pulseDistance=0.42500
G1 X-24.8454 Y-24.8454 E351.38126 ; EInc=116.91953 cartesianDistance=49.69080 angle=90.000 pulseDistance=0.42500
G1 X24.58076 Y-24.8454 E467.67812 ; EInc=116.29686 cartesianDistance=49.42616 angle=180.000 pulseDistance=0.42500
; 
; feature travel
PRIO_OFF
G0 X24.4944 Y-24.4944 ; cartesianDistance=0.36147 (Travel)
; 
; feature inner perimeter
G1 F24000 FL[E] = InnerPerimeterFrequency * DROP_SCALE * 60
PRIO_ON
G1 X-24.4944 Y-24.4944 E558.39812 ; EInc=90.72000 cartesianDistance=48.98880 angle=90.000 pulseDistance=0.54000
G1 X-24.4944 Y24.4944 E649.11812 ; EInc=90.72000 cartesianDistance=48.98880 angle=90.000 pulseDistance=0.54000
G1 X24.4944 Y24.4944 E739.83812 ; EInc=90.72000 cartesianDistance=48.98880 angle=90.000 pulseDistance=0.54000
G1 X24.4944 Y-24.4944 E830.55812 ; EInc=90.72000 cartesianDistance=48.98880 angle=90.000 pulseDistance=0.54000
; 
; feature travel
PRIO_OFF
G0 X24.4947 Y-24.28682 ; cartesianDistance=0.20758 (Travel)
; 
; feature fill
G1 F24000 FL[E] = FillFrequency * DROP_SCALE * 60
PRIO_ON
G1 X23.92357 Y-24.4947 E831.74986 ; EInc=1.19174 cartesianDistance=0.60779 angle=0.000 pulseDistance=0.51000
; 
; feature travel
PRIO_OFF
G0 X24.4947 Y-23.80794 ; cartesianDistance=0.89321 (Travel)
; 
; feature fill
PRIO_ON
G1 X22.60785 Y-24.4947 E835.68699 ; EInc=3.93714 cartesianDistance=2.00794 angle=0.000 pulseDistance=0.51000
; 
; feature travel
PRIO_OFF
G0 X21.29214 Y-24.4947 ; cartesianDistance=1.31571 (Travel)
; 
; feature fill
PRIO_ON
G1 X24.4947 Y-23.32906 E842.36953 ; EInc=6.68253 cartesianDistance=3.40809 angle=0.000 pulseDistance=0.51000
; 
; feature travel
PRIO_OFF
G0 X24.4947 Y-22.85018 ; cartesianDistance=0.47888 (Travel)
; 
; feature fill
PRIO_ON
G1 X19.97643 Y-24.4947 E851.79745 ; EInc=9.42793 cartesianDistance=4.80824 angle=0.000 pulseDistance=0.51000
; 
; feature travel
PRIO_OFF
G0 X18.66072 Y-24.4947 ; cartesianDistance=1.31571 (Travel)
; 
; feature fill
PRIO_ON
G1 X24.4947 Y-22.3713 E863.97077 ; EInc=12.17332 cartesianDistance=6.20839 angle=0.000 pulseDistance=0.51000
; 
; feature travel
PRIO_OFF
G0 X24.4947 Y-21.89242 ; cartesianDistance=0.47888 (Travel)
; 
; feature fill
PRIO_ON
G1 X17.34501 Y-24.4947 E878.88949 ; EInc=14.91872 cartesianDistance=7.60855 angle=0.000 pulseDistance=0.51000
; 
; feature travel
PRIO_OFF
G0 X16.02929 Y-24.4947 ; cartesianDistance=1.31571 (Travel)
; 
; feature fill
PRIO_ON
G1 X24.4947 Y-21.41354 E896.5536 ; EInc=17.66411 cartesianDistance=9.00870 angle=0.000 pulseDistance=0.51000
; 
; feature travel
PRIO_OFF
G0 X24.4947 Y-20.93466 ; cartesianDistance=0.47888 (Travel)
; 
; feature fill
PRIO_ON
G1 X14.71358 Y-24.4947 E916.96311 ; EInc=20.40951 cartesianDistance=10.40885 angle=0.000 pulseDistance=0.51000
; 
; feature travel
PRIO_OFF
G0 X13.39787 Y-24.4947 ; cartesianDistance=1.31571 (Travel)
; 
; feature fill
PRIO_ON
G1 X24.4947 Y-20.45578 E940.11801 ; EInc=23.15490 cartesianDistance=11.80900 angle=0.000 pulseDistance=0.51000
; 
; feature travel
PRIO_OFF
G0 X24.4947 Y-19.9769 ; cartesianDistance=0.47888 (Travel)
; 
; feature fill
PRIO_ON
G1 X12.08216 Y-24.4947 E966.0183 ; EInc=25.90030 cartesianDistance=13.20915 angle=0.000 pulseDistance=0.51000
; 
; feature travel
PRIO_OFF
G0 X10.76645 Y-24.4947 ; cartesianDistance=1.31571 (Travel)
; 
; feature fill
PRIO_ON
G1 X24.4947 Y-19.49802 E994.66399 ; EInc=28.64569 cartesianDistance=14.60930 angle=0.000 pulseDistance=0.51000
; 
; feature travel
PRIO_OFF
G0 X24.4947 Y-19.01914 ; cartesianDistance=0.47888 (Travel)
; 
; feature fill
PRIO_ON
G1 X9.45073 Y-24.4947 E1026.05508 ; EInc=31.39109 cartesianDistance=16.00945 angle=0.000 pulseDistance=0.51000
; 
; feature travel
PRIO_OFF
G0 X8.13502 Y-24.4947 ; cartesianDistance=1.31571 (Travel)
; 
; feature fill
PRIO_ON
G1 X24.4947 Y-18.54026 E1060.19156 ; EInc=34.13648 cartesianDistance=17.40961 angle=0.000 pulseDistance=0.51000
; 
; feature travel
PRIO_OFF
G0 X24.4947 Y-18.06138 ; cartesianDistance=0.47888 (Travel)
; 
; feature fill
PRIO_ON
G1 X6.81931 Y-24.4947 E1097.07344 ; EInc=36.88188 cartesianDistance=18.80976 angle=0.000 pulseDistance=0.51000
; 
; feature travel
PRIO_OFF
G0 X5.5036 Y-24.4947 ; cartesianDistance=1.31571 (Travel)
; 
; feature fill
PRIO_ON
G1 X24.4947 Y-17.5825 E1136.70071 ; EInc=39.62727 cartesianDistance=20.20991 angle=0.000 pulseDistance=0.51000
; 
; feature travel
PRIO_OFF
G0 X24.4947 Y-17.10362 ; cartesianDistance=0.47888 (Travel)
; 
; feature fill
PRIO_ON
G1 X4.18789 Y-24.4947 E1179.07337 ; EInc=42.37267 cartesianDistance=21.61006 angle=0.000 pulseDistance=0.51000
; 
; feature travel
PRIO_OFF
G0 X2.87217 Y-24.4947 ; cartesianDistance=1.31571 (Travel)
; 
; feature fill
PRIO_ON
G1 X24.4947 Y-16.62474 E1224.19143 ; EInc=45.11806 cartesianDistance=23.01021 angle=0.000 pulseDistance=0.51000
; 
; feature travel
PRIO_OFF
G0 X24.4947 Y-16.14586 ; cartesianDistance=0.47888 (Travel)
; 
; feature fill
PRIO_ON
G1 X1.55646 Y-24.4947 E1272.05489 ; EInc=47.86346 cartesianDistance=24.41036 angle=0.000 pulseDistance=0.51000
; 
; feature travel
PRIO_OFF
G0 X0.24075 Y-24.4947 ; cartesianDistance=1.31571 (Travel)
; 
; feature fill
PRIO_ON
G1 X24.4947 Y-15.66698 E1322.66374 ; EInc=50.60885 cartesianDistance=25.81051 angle=0.000 pulseDistance=0.51000
; 
; feature travel
PRIO_OFF
G0 X24.4947 Y-15.1881 ; cartesianDistance=0.47888 (Travel)
; 
; feature fill
PRIO_ON
G1 X-1.07496 Y-24.4947 E1376.01799 ; EInc=53.35425 cartesianDistance=27.21067 angle=0.000 pulseDistance=0.51000
; 
; feature travel
PRIO_OFF
G0 X-2.39067 Y-24.4947 ; cartesianDistance=1.31571 (Travel)
; 
; feature fill
PRIO_ON
G1 X24.4947 Y-14.70922 E1432.11763 ; EInc=56.09964 cartesianDistance=28.61082 angle=0.000 pulseDistance=0.51000
; 
; feature travel
PRIO_OFF
G0 X24.4947 Y-14.23034 ; cartesianDistance=0.47888 (Travel)
; 
; feature fill
PRIO_ON
G1 X-3.70639 Y-24.4947 E1490.96266 ; EInc=58.84504 cartesianDistance=30.01097 angle=0.000 pulseDistance=0.51000
; 
; feature travel
PRIO_OFF
G0 X-5.0221 Y-24.4947 ; cartesianDistance=1.31571 (Travel)
; 
; feature fill
PRIO_ON
G1 X24.4947 Y-13.75146 E1552.5531 ; EInc=61.59043 cartesianDistance=31.41112 angle=0.000 pulseDistance=0.51000
; 
; feature travel
PRIO_OFF
G0 X24.4947 Y-13.27258 ; cartesianDistance=0.47888 (Travel)
; 
; feature fill
PRIO_ON
G1 X-6.33781 Y-24.4947 E1616.88892 ; EInc=64.33583 cartesianDistance=32.81127 angle=0.000 pulseDistance=0.51000
; 
; feature travel
PRIO_OFF
G0 X-7.65352 Y-24.4947 ; cartesianDistance=1.31571 (Travel)
; 
; feature fill
PRIO_ON
G1 X24.4947 Y-12.7937 E1683.97014 ; EInc=67.08122 cartesianDistance=34.21142 angle=0.000 pulseDistance=0.51000
; 
; feature travel
PRIO_OFF
G0 X24.4947 Y-12.31482 ; cartesianDistance=0.47888 (Travel)
; 
; feature fill
PRIO_ON
G1 X-8.96923 Y-24.4947 E1753.79676 ; EInc=69.82662 cartesianDistance=35.61157 angle=0.000 pulseDistance=0.51000
; 
; feature travel
PRIO_OFF
G0 X-10.28495 Y-24.4947 ; cartesianDistance=1.31571 (Travel)
; 
; feature fill
PRIO_ON
G1 X24.4947 Y-11.83594 E1826.36877 ; EInc=72.57201 cartesianDistance=37.01173 angle=0.000 pulseDistance=0.51000
; 
; feature travel
PRIO_OFF
G0 X24.4947 Y-11.35706 ; cartesianDistance=0.47888 (Travel)
; 
; feature fill
PRIO_ON
G1 X-11.60066 Y-24.4947 E1901.68617 ; EInc=75.31741 cartesianDistance=38.41188 angle=0.000 pulseDistance=0.51000
; 
; feature travel
PRIO_OFF
G0 X-12.91637 Y-24.4947 ; cartesianDistance=1.31571 (Travel)
; 
; feature fill
PRIO_ON
G1 X24.4947 Y-10.87818 E1979.74898 ; EInc=78.06280 cartesianDistance=39.81203 angle=0.000 pulseDistance=0.51000
; 
; feature travel
PRIO_OFF
G0 X24.4947 Y-10.3993 ; cartesianDistance=0.47888 (Travel)
; 
; feature fill
PRIO_ON
G1 X-14.23208 Y-24.4947 E2060.55717 ; EInc=80.80820 cartesianDistance=41.21218 angle=0.000 pulseDistance=0.51000
; 
; feature travel
PRIO_OFF
G0 X-15.54779 Y-24.4947 ; cartesianDistance=1.31571 (Travel)
; 
; feature fill
PRIO_ON
G1 X24.4947 Y-9.92042 E2144.11076 ; EInc=83.55359 cartesianDistance=42.61233 angle=0.000 pulseDistance=0.51000
; 
; feature travel
PRIO_OFF
G0 X24.4947 Y-9.44154 ; cartesianDistance=0.47888 (Travel)
; 
; feature fill
PRIO_ON
G1 X-16.86351 Y-24.4947 E2230.40975 ; EInc=86.29899 cartesianDistance=44.01248 angle=0.000 pulseDistance=0.51000
; 
; feature travel
PRIO_OFF
G0 X-18.17922 Y-24.4947 ; cartesianDistance=1.31571 (Travel)
; 
; feature fill
PRIO_ON
G1 X24.4947 Y-8.96266 E2319.45413 ; EInc=89.04438 cartesianDistance=45.41263 angle=0.000 pulseDistance=0.51000
; 
; feature travel
PRIO_OFF
G0 X24.4947 Y-8.48378 ; cartesianDistance=0.47888 (Travel)
; 
; feature fill
PRIO_ON
G1 X-19.49493 Y-24.4947 E2411.2439 ; EInc=91.78978 cartesianDistance=46.81279 angle=0.000 pulseDistance=0.51000
; 
; feature travel
PRIO_OFF
G0 X-20.81064 Y-24.4947 ; cartesianDistance=1.31571 (Travel)
; 
; feature fill
PRIO_ON
G1 X24.4947 Y-8.0049 E2505.77907 ; EInc=94.53517 cartesianDistance=48.21294 angle=0.000 pulseDistance=0.51000
; 
; feature travel
PRIO_OFF
G0 X24.4947 Y-7.52602 ; cartesianDistance=0.47888 (Travel)
; 
; feature fill
PRIO_ON
G1 X-22.12635 Y-24.4947 E2603.05964 ; EInc=97.28057 cartesianDistance=49.61309 angle=0.000 pulseDistance=0.51000
; 
; feature travel
PRIO_OFF
G0 X-23.44207 Y-24.4947 ; cartesianDistance=1.31571 (Travel)
; 
; feature fill
PRIO_ON
G1 X24.4947 Y-7.04714 E2703.0856 ; EInc=100.02596 cartesianDistance=51.01324 angle=0.000 pulseDistance=0.51000
; 
; feature travel
PRIO_OFF
G0 X24.4947 Y-6.56826 ; cartesianDistance=0.47888 (Travel)
; 
; feature fill
PRIO_ON
G1 X-24.4947 Y-24.39895 E2805.30801 ; EInc=102.22241 cartesianDistance=52.13343 angle=0.000 pulseDistance=0.51000
; 
; feature travel
PRIO_OFF
G0 X-24.4947 Y-23.92007 ; cartesianDistance=0.47888 (Travel)
; 
; feature fill
PRIO_ON
G1 X24.4947 Y-6.08938 E2907.53043 ; EInc=102.22241 cartesianDistance=52.13343 angle=0.000 pulseDistance=0.51000
; 
; feature travel
PRIO_OFF
G0 X24.4947 Y-5.6105 ; cartesianDistance=0.47888 (Travel)
; 
; feature fill
PRIO_ON
G1 X-24.4947 Y-23.44119 E3009.75284 ; EInc=102.22241 cartesianDistance=52.13343 angle=0.000 pulseDistance=0.51000
; 
; feature travel
PRIO_OFF
G0 X-24.4947 Y-22.96231 ; cartesianDistance=0.47888 (Travel)
; 
; feature fill
PRIO_ON
G1 X24.4947 Y-5.13162 E3111.97525 ; EInc=102.22241 cartesianDistance=52.13343 angle=0.000 pulseDistance=0.51000
; 
; feature travel
PRIO_OFF
G0 X24.4947 Y-4.65274 ; cartesianDistance=0.47888 (Travel)
; 
; feature fill
PRIO_ON
G1 X-24.4947 Y-22.48343 E3214.19767 ; EInc=102.22241 cartesianDistance=52.13343 angle=0.000 pulseDistance=0.51000
; 
; feature travel
PRIO_OFF
G0 X-24.4947 Y-22.00455 ; cartesianDistance=0.47888 (Travel)
; 
; feature fill
PRIO_ON
G1 X24.4947 Y-4.17386 E3316.42008 ; EInc=102.22241 cartesianDistance=52.13343 angle=0.000 pulseDistance=0.51000
; 
; feature travel
PRIO_OFF
G0 X24.4947 Y-3.69498 ; cartesianDistance=0.47888 (Travel)
; 
; feature fill
PRIO_ON
G1 X-24.4947 Y-21.52567 E3418.64249 ; EInc=102.22241 cartesianDistance=52.13343 angle=0.000 pulseDistance=0.51000
; 
; feature travel
PRIO_OFF
G0 X-24.4947 Y-21.04679 ; cartesianDistance=0.47888 (Travel)
; 
; feature fill
PRIO_ON
G1 X24.4947 Y-3.2161 E3520.8649 ; EInc=102.22241 cartesianDistance=52.13343 angle=0.000 pulseDistance=0.51000
; 
; feature travel
PRIO_OFF
G0 X24.4947 Y-2.73722 ; cartesianDistance=0.47888 (Travel)
; 
; feature fill
PRIO_ON
G1 X-24.4947 Y-20.56791 E3623.08732 ; EInc=102.22241 cartesianDistance=52.13343 angle=0.000 pulseDistance=0.51000
; 
; feature travel
PRIO_OFF
G0 X-24.4947 Y-20.08903 ; cartesianDistance=0.47888 (Travel)
; 
; feature fill
PRIO_ON
G1 X24.4947 Y-2.25834 E3725.30973 ; EInc=102.22241 cartesianDistance=52.13343 angle=0.000 pulseDistance=0.51000
; 
; feature travel
PRIO_OFF
G0 X24.4947 Y-1.77946 ; cartesianDistance=0.47888 (Travel)
; 
; feature fill
PRIO_ON
G1 X-24.4947 Y-19.61015 E3827.53214 ; EInc=102.22241 cartesianDistance=52.13343 angle=0.000 pulseDistance=0.51000
; 
; feature travel
PRIO_OFF
G0 X-24.4947 Y-19.13127 ; cartesianDistance=0.47888 (Travel)
; 
; feature fill
PRIO_ON
G1 X24.4947 Y-1.30058 E3929.75456 ; EInc=102.22241 cartesianDistance=52.13343 angle=0.000 pulseDistance=0.51000
; 
; feature travel
PRIO_OFF
G0 X24.4947 Y-0.8217 ; cartesianDistance=0.47888 (Travel)
; 
; feature fill
PRIO_ON
G1 X-24.4947 Y-18.65239 E4031.97697 ; EInc=102.22241 cartesianDistance=52.13343 angle=0.000 pulseDistance=0.51000
; 
; feature travel
PRIO_OFF
G0 X-24.4947 Y-18.17351 ; cartesianDistance=0.47888 (Travel)
; 
; feature fill
PRIO_ON
G1 X24.4947 Y-0.34282 E4134.19938 ; EInc=102.22241 cartesianDistance=52.13343 angle=0.000 pulseDistance=0.51000
; 
; feature travel
PRIO_OFF
G0 X24.4947 Y0.13606 ; cartesianDistance=0.47888 (Travel)
; 
; feature fill
PRIO_ON
G1 X-24.4947 Y-17.69463 E4236.42179 ; EInc=102.22241 cartesianDistance=52.13343 angle=0.000 pulseDistance=0.51000
; 
; feature travel
PRIO_OFF
G0 X-24.4947 Y-17.21575 ; cartesianDistance=0.47888 (Travel)
; 
; feature fill
PRIO_ON
G1 X24.4947 Y0.61494 E4338.64421 ; EInc=102.22241 cartesianDistance=52.13343 angle=0.000 pulseDistance=0.51000
; 
; feature travel
PRIO_OFF
G0 X24.4947 Y1.09382 ; cartesianDistance=0.47888 (Travel)
; 
; feature fill
PRIO_ON
G1 X-24.4947 Y-16.73687 E4440.86662 ; EInc=102.22241 cartesianDistance=52.13343 angle=0.000 pulseDistance=0.51000
; 
; feature travel
PRIO_OFF
G0 X-24.4947 Y-16.25799 ; cartesianDistance=0.47888 (Travel)
; 
; feature fill
PRIO_ON
G1 X24.4947 Y1.5727 E4543.08903 ; EInc=102.22241 cartesianDistance=52.13343 angle=0.000 pulseDistance=0.51000
; 
; feature travel
PRIO_OFF
G0 X24.4947 Y2.05158 ; cartesianDistance=0.47888 (Travel)
; 
; feature fill
PRIO_ON
G1 X-24.4947 Y-15.77911 E4645.31145 ; EInc=102.22241 cartesianDistance=52.13343 angle=0.000 pulseDistance=0.51000
; 
; feature travel
PRIO_OFF
G0 X-24.4947 Y-15.30023 ; cartesianDistance=0.47888 (Travel)
; 
; feature fill
PRIO_ON
G1 X24.4947 Y2.53046 E4747.53386 ; EInc=102.22241 cartesianDistance=52.13343 angle=0.000 pulseDistance=0.51000
; 
; feature travel
PRIO_OFF
G0 X24.4947 Y3.00934 ; cartesianDistance=0.47888 (Travel)
; 
; feature fill
PRIO_ON
G1 X-24.4947 Y-14.82135 E4849.75627 ; EInc=102.22241 cartesianDistance=52.13343 angle=0.000 pulseDistance=0.51000
; 
; feature travel
PRIO_OFF
G0 X-24.4947 Y-14.34247 ; cartesianDistance=0.47888 (Travel)
; 
; feature fill
PRIO_ON
G1 X24.4947 Y3.48822 E4951.97868 ; EInc=102.22241 cartesianDistance=52.13343 angle=0.000 pulseDistance=0.51000
; 
; feature travel
PRIO_OFF
G0 X24.4947 Y3.9671 ; cartesianDistance=0.47888 (Travel)
; 
; feature fill
PRIO_ON
G1 X-24.4947 Y-13.86359 E5054.2011 ; EInc=102.22241 cartesianDistance=52.13343 angle=0.000 pulseDistance=0.51000
; 
; feature travel
PRIO_OFF
G0 X-24.4947 Y-13.38471 ; cartesianDistance=0.47888 (Travel)
; 
; feature fill
PRIO_ON
G1 X24.4947 Y4.44598 E5156.42351 ; EInc=102.22241 cartesianDistance=52.13343 angle=0.000 pulseDistance=0.51000
; 
; feature travel
PRIO_OFF
G0 X24.4947 Y4.92486 ; cartesianDistance=0.47888 (Travel)
; 
; feature fill
PRIO_ON
G1 X-24.4947 Y-12.90583 E5258.64592 ; EInc=102.22241 cartesianDistance=52.13343 angle=0.000 pulseDistance=0.51000
; 
; feature travel
PRIO_OFF
G0 X-24.4947 Y-12.42695 ; cartesianDistance=0.47888 (Travel)
; 
; feature fill
PRIO_ON
G1 X24.4947 Y5.40374 E5360.86834 ; EInc=102.22241 cartesianDistance=52.13343 angle=0.000 pulseDistance=0.51000
; 
; feature travel
PRIO_OFF
G0 X24.4947 Y5.88262 ; cartesianDistance=0.47888 (Travel)
; 
; feature fill
PRIO_ON
G1 X-24.4947 Y-11.94807 E5463.09075 ; EInc=102.22241 cartesianDistance=52.13343 angle=0.000 pulseDistance=0.51000
; 
; feature travel
PRIO_OFF
G0 X-24.4947 Y-11.46919 ; cartesianDistance=0.47888 (Travel)
; 
; feature fill
PRIO_ON
G1 X24.4947 Y6.3615 E5565.31316 ; EInc=102.22241 cartesianDistance=52.13343 angle=0.000 pulseDistance=0.51000
; 
; feature travel
PRIO_OFF
G0 X24.4947 Y6.84038 ; cartesianDistance=0.47888 (Travel)
; 
; feature fill
PRIO_ON
G1 X-24.4947 Y-10.99031 E5667.53557 ; EInc=102.22241 cartesianDistance=52.13343 angle=0.000 pulseDistance=0.51000
; 
; feature travel
PRIO_OFF
G0 X-24.4947 Y-10.51143 ; cartesianDistance=0.47888 (Travel)
; 
; feature fill
PRIO_ON
G1 X24.4947 Y7.31926 E5769.75799 ; EInc=102.22241 cartesianDistance=52.13343 angle=0.000 pulseDistance=0.51000
; 
; feature travel
PRIO_OFF
G0 X24.4947 Y7.79814 ; cartesianDistance=0.47888 (Travel)
; 
; feature fill
PRIO_ON
G1 X-24.4947 Y-10.03255 E5871.9804 ; EInc=102.22241 cartesianDistance=52.13343 angle=0.000 pulseDistance=0.51000
; 
; feature travel
PRIO_OFF
G0 X-24.4947 Y-9.55367 ; cartesianDistance=0.47888 (Travel)
; 
; feature fill
PRIO_ON
G1 X24.4947 Y8.27702 E5974.20281 ; EInc=102.22241 cartesianDistance=52.13343 angle=0.000 pulseDistance=0.51000
; 
; feature travel
PRIO_OFF
G0 X24.4947 Y8.7559 ; cartesianDistance=0.47888 (Travel)
; 
; feature fill
PRIO_ON
G1 X-24.4947 Y-9.07479 E6076.42523 ; EInc=102.22241 cartesianDistance=52.13343 angle=0.000 pulseDistance=0.51000
; 
; feature travel
PRIO_OFF
G0 X-24.4947 Y-8.59591 ; cartesianDistance=0.47888 (Travel)
; 
; feature fill
PRIO_ON
G1 X24.4947 Y9.23478 E6178.64764 ; EInc=102.22241 cartesianDistance=52.13343 angle=0.000 pulseDistance=0.51000
; 
; feature travel
PRIO_OFF
G0 X24.4947 Y9.71366 ; cartesianDistance=0.47888 (Travel)
; 
; feature fill
PRIO_ON
G1 X-24.4947 Y-8.11703 E6280.87005 ; EInc=102.22241 cartesianDistance=52.13343 angle=0.000 pulseDistance=0.51000
; 
; feature travel
PRIO_OFF
G0 X-24.4947 Y-7.63815 ; cartesianDistance=0.47888 (Travel)
; 
; feature fill
PRIO_ON
G1 X24.4947 Y10.19254 E6383.09246 ; EInc=102.22241 cartesianDistance=52.13343 angle=0.000 pulseDistance=0.51000
; 
; feature travel
PRIO_OFF
G0 X24.4947 Y10.67142 ; cartesianDistance=0.47888 (Travel)
; 
; feature fill
PRIO_ON
G1 X-24.4947 Y-7.15927 E6485.31488 ; EInc=102.22241 cartesianDistance=52.13343 angle=0.000 pulseDistance=0.51000
; 
; feature travel
PRIO_OFF
G0 X-24.4947 Y-6.68039 ; cartesianDistance=0.47888 (Travel)
; 
; feature fill
PRIO_ON
G1 X24.4947 Y11.1503 E6587.53729 ; EInc=102.22241 cartesianDistance=52.13343 angle=0.000 pulseDistance=0.51000
; 
; feature travel
PRIO_OFF
G0 X24.4947 Y11.62918 ; cartesianDistance=0.47888 (Travel)
; 
; feature fill
PRIO_ON
G1 X-24.4947 Y-6.20151 E6689.7597 ; EInc=102.22241 cartesianDistance=52.13343 angle=0.000 pulseDistance=0.51000
; 
; feature travel
PRIO_OFF
G0 X-24.4947 Y-5.72263 ; cartesianDistance=0.47888 (Travel)
; 
; feature fill
PRIO_ON
G1 X24.4947 Y12.10806 E6791.98212 ; EInc=102.22241 cartesianDistance=52.13343 angle=0.000 pulseDistance=0.51000
; 
; feature travel
PRIO_OFF
G0 X24.4947 Y12.58694 ; cartesianDistance=0.47888 (Travel)
; 
; feature fill
PRIO_ON
G1 X-24.4947 Y-5.24375 E6894.20453 ; EInc=102.22241 cartesianDistance=52.13343 angle=0.000 pulseDistance=0.51000
; 
; feature travel
PRIO_OFF
G0 X-24.4947 Y-4.76487 ; cartesianDistance=0.47888 (Travel)
; 
; feature fill
PRIO_ON
G1 X24.4947 Y13.06582 E6996.42694 ; EInc=102.22241 cartesianDistance=52.13343 angle=0.000 pulseDistance=0.51000
; 
; feature travel
PRIO_OFF
G0 X24.4947 Y13.5447 ; cartesianDistance=0.47888 (Travel)
; 
; feature fill
PRIO_ON
G1 X-24.4947 Y-4.28599 E7098.64935 ; EInc=102.22241 cartesianDistance=52.13343 angle=0.000 pulseDistance=0.51000
; 
; feature travel
PRIO_OFF
G0 X-24.4947 Y-3.80711 ; cartesianDistance=0.47888 (Travel)
; 
; feature fill
PRIO_ON
G1 X24.4947 Y14.02358 E7200.87177 ; EInc=102.22241 cartesianDistance=52.13343 angle=0.000 pulseDistance=0.51000
; 
; feature travel
PRIO_OFF
G0 X24.4947 Y14.50246 ; cartesianDistance=0.47888 (Travel)
; 
; feature fill
PRIO_ON
G1 X-24.4947 Y-3.32823 E7303.09418 ; EInc=102.22241 cartesianDistance=52.13343 angle=0.000 pulseDistance=0.51000
; 
; feature travel
PRIO_OFF
G0 X-24.4947 Y-2.84935 ; cartesianDistance=0.47888 (Travel)
; 
; feature fill
PRIO_ON
G1 X24.4947 Y14.98134 E7405.31659 ; EInc=102.22241 cartesianDistance=52.13343 angle=0.000 pulseDistance=0.51000
; 
; feature travel
PRIO_OFF
G0 X24.4947 Y15.46022 ; cartesianDistance=0.47888 (Travel)
; 
; feature fill
PRIO_ON
G1 X-24.4947 Y-2.37047 E7507.53901 ; EInc=102.22241 cartesianDistance=52.13343 angle=0.000 pulseDistance=0.51000
; 
; feature travel
PRIO_OFF
G0 X-24.4947 Y-1.89159 ; cartesianDistance=0.47888 (Travel)
; 
; feature fill
PRIO_ON
G1 X24.4947 Y15.9391 E7609.76142 ; EInc=102.22241 cartesianDistance=52.13343 angle=0.000 pulseDistance=0.51000
; 
; feature travel
PRIO_OFF
G0 X24.4947 Y16.41798 ; cartesianDistance=0.47888 (Travel)
; 
; feature fill
PRIO_ON
G1 X-24.4947 Y-1.41271 E7711.98383 ; EInc=102.22241 cartesianDistance=52.13343 angle=0.000 pulseDistance=0.51000
; 
; feature travel
PRIO_OFF
G0 X-24.4947 Y-0.93383 ; cartesianDistance=0.47888 (Travel)
; 
; feature fill
PRIO_ON
G1 X24.4947 Y16.89686 E7814.20624 ; EInc=102.22241 cartesianDistance=52.13343 angle=0.000 pulseDistance=0.51000
; 
; feature travel
PRIO_OFF
G0 X24.4947 Y17.37574 ; cartesianDistance=0.47888 (Travel)
; 
; feature fill
PRIO_ON
G1 X-24.4947 Y-0.45495 E7916.42866 ; EInc=102.22241 cartesianDistance=52.13343 angle=0.000 pulseDistance=0.51000
; 
; feature travel
PRIO_OFF
G0 X-24.4947 Y0.02393 ; cartesianDistance=0.47888 (Travel)
; 
; feature fill
PRIO_ON
G1 X24.4947 Y17.85462 E8018.65107 ; EInc=102.22241 cartesianDistance=52.13343 angle=0.000 pulseDistance=0.51000
; 
; feature travel
PRIO_OFF
G0 X24.4947 Y18.3335 ; cartesianDistance=0.47888 (Travel)
; 
; feature fill
PRIO_ON
G1 X-24.4947 Y0.50281 E8120.87348 ; EInc=102.22241 cartesianDistance=52.13343 angle=0.000 pulseDistance=0.51000
; 
; feature travel
PRIO_OFF
G0 X-24.4947 Y0.98169 ; cartesianDistance=0.47888 (Travel)
; 
; feature fill
PRIO_ON
G1 X24.4947 Y18.81238 E8223.0959 ; EInc=102.22241 cartesianDistance=52.13343 angle=0.000 pulseDistance=0.51000
; 
; feature travel
PRIO_OFF
G0 X24.4947 Y19.29126 ; cartesianDistance=0.47888 (Travel)
; 
; feature fill
PRIO_ON
G1 X-24.4947 Y1.46057 E8325.31831 ; EInc=102.22241 cartesianDistance=52.13343 angle=0.000 pulseDistance=0.51000
; 
; feature travel
PRIO_OFF
G0 X-24.4947 Y1.93945 ; cartesianDistance=0.47888 (Travel)
; 
; feature fill
PRIO_ON
G1 X24.4947 Y19.77014 E8427.54072 ; EInc=102.22241 cartesianDistance=52.13343 angle=0.000 pulseDistance=0.51000
; 
; feature travel
PRIO_OFF
G0 X24.4947 Y20.24902 ; cartesianDistance=0.47888 (Travel)
; 
; feature fill
PRIO_ON
G1 X-24.4947 Y2.41833 E8529.76313 ; EInc=102.22241 cartesianDistance=52.13343 angle=0.000 pulseDistance=0.51000
; 
; feature travel
PRIO_OFF
G0 X-24.4947 Y2.89721 ; cartesianDistance=0.47888 (Travel)
; 
; feature fill
PRIO_ON
G1 X24.4947 Y20.7279 E8631.98555 ; EInc=102.22241 cartesianDistance=52.13343 angle=0.000 pulseDistance=0.51000
; 
; feature travel
PRIO_OFF
G0 X24.4947 Y21.20678 ; cartesianDistance=0.47888 (Travel)
; 
; feature fill
PRIO_ON
G1 X-24.4947 Y3.37609 E8734.20796 ; EInc=102.22241 cartesianDistance=52.13343 angle=0.000 pulseDistance=0.51000
; 
; feature travel
PRIO_OFF
G0 X-24.4947 Y3.85497 ; cartesianDistance=0.47888 (Travel)
; 
; feature fill
PRIO_ON
G1 X24.4947 Y21.68566 E8836.43037 ; EInc=102.22241 cartesianDistance=52.13343 angle=0.000 pulseDistance=0.51000
; 
; feature travel
PRIO_OFF
G0 X24.4947 Y22.16454 ; cartesianDistance=0.47888 (Travel)
; 
; feature fill
PRIO_ON
G1 X-24.4947 Y4.33385 E8938.65279 ; EInc=102.22241 cartesianDistance=52.13343 angle=0.000 pulseDistance=0.51000
; 
; feature travel
PRIO_OFF
G0 X-24.4947 Y4.81273 ; cartesianDistance=0.47888 (Travel)
; 
; feature fill
PRIO_ON
G1 X24.4947 Y22.64342 E9040.8752 ; EInc=102.22241 cartesianDistance=52.13343 angle=0.000 pulseDistance=0.51000
; 
; feature travel
PRIO_OFF
G0 X24.4947 Y23.1223 ; cartesianDistance=0.47888 (Travel)
; 
; feature fill
PRIO_ON
G1 X-24.4947 Y5.29161 E9143.09761 ; EInc=102.22241 cartesianDistance=52.13343 angle=0.000 pulseDistance=0.51000
; 
; feature travel
PRIO_OFF
G0 X-24.4947 Y5.77049 ; cartesianDistance=0.47888 (Travel)
; 
; feature fill
PRIO_ON
G1 X24.4947 Y23.60118 E9245.32003 ; EInc=102.22241 cartesianDistance=52.13343 angle=0.000 pulseDistance=0.51000
; 
; feature travel
PRIO_OFF
G0 X24.4947 Y24.08006 ; cartesianDistance=0.47888 (Travel)
; 
; feature fill
PRIO_ON
G1 X-24.4947 Y6.24937 E9347.54244 ; EInc=102.22241 cartesianDistance=52.13343 angle=0.000 pulseDistance=0.51000
; 
; feature travel
PRIO_OFF
G0 X-24.4947 Y6.72825 ; cartesianDistance=0.47888 (Travel)
; 
; feature fill
PRIO_ON
G1 X24.31821 Y24.4947 E9449.39659 ; EInc=101.85415 cartesianDistance=51.94562 angle=0.000 pulseDistance=0.51000
; 
; feature travel
PRIO_OFF
G0 X23.0025 Y24.4947 ; cartesianDistance=1.31571 (Travel)
; 
; feature fill
PRIO_ON
G1 X-24.4947 Y7.20713 E9548.50535 ; EInc=99.10876 cartesianDistance=50.54547 angle=0.000 pulseDistance=0.51000
; 
; feature travel
PRIO_OFF
G0 X-24.4947 Y7.68601 ; cartesianDistance=0.47888 (Travel)
; 
; feature fill
PRIO_ON
G1 X21.68679 Y24.4947 E9644.86872 ; EInc=96.36336 cartesianDistance=49.14532 angle=0.000 pulseDistance=0.51000
; 
; feature travel
PRIO_OFF
G0 X20.37108 Y24.4947 ; cartesianDistance=1.31571 (Travel)
; 
; feature fill
PRIO_ON
G1 X-24.4947 Y8.16489 E9738.48668 ; EInc=93.61797 cartesianDistance=47.74516 angle=0.000 pulseDistance=0.51000
; 
; feature travel
PRIO_OFF
G0 X-24.4947 Y8.64377 ; cartesianDistance=0.47888 (Travel)
; 
; feature fill
PRIO_ON
G1 X19.05537 Y24.4947 E9829.35926 ; EInc=90.87257 cartesianDistance=46.34501 angle=0.000 pulseDistance=0.51000
; 
; feature travel
PRIO_OFF
G0 X17.73965 Y24.4947 ; cartesianDistance=1.31571 (Travel)
; 
; feature fill
PRIO_ON
G1 X-24.4947 Y9.12265 E9917.48644 ; EInc=88.12718 cartesianDistance=44.94486 angle=0.000 pulseDistance=0.51000
; 
; feature travel
PRIO_OFF
G0 X-24.4947 Y9.60153 ; cartesianDistance=0.47888 (Travel)
; 
; feature fill
PRIO_ON
G1 X16.42394 Y24.4947 E10002.86822 ; EInc=85.38178 cartesianDistance=43.54471 angle=0.000 pulseDistance=0.51000
; 
; feature travel
PRIO_OFF
G0 X15.10823 Y24.4947 ; cartesianDistance=1.31571 (Travel)
; 
; feature fill
PRIO_ON
G1 X-24.4947 Y10.08041 E10085.50461 ; EInc=82.63639 cartesianDistance=42.14456 angle=0.000 pulseDistance=0.51000
; 
; feature travel
PRIO_OFF
G0 X-24.4947 Y10.55929 ; cartesianDistance=0.47888 (Travel)
; 
; feature fill
PRIO_ON
G1 X13.79252 Y24.4947 E10165.3956 ; EInc=79.89099 cartesianDistance=40.74441 angle=0.000 pulseDistance=0.51000
; 
; feature travel
PRIO_OFF
G0 X12.47681 Y24.4947 ; cartesianDistance=1.31571 (Travel)
; 
; feature fill
PRIO_ON
G1 X-24.4947 Y11.03817 E10242.5412 ; EInc=77.14560 cartesianDistance=39.34426 angle=0.000 pulseDistance=0.51000
; 
; feature travel
PRIO_OFF
G0 X-24.4947 Y11.51705 ; cartesianDistance=0.47888 (Travel)
; 
; feature fill
PRIO_ON
G1 X11.16109 Y24.4947 E10316.94141 ; EInc=74.40020 cartesianDistance=37.94410 angle=0.000 pulseDistance=0.51000
; 
; feature travel
PRIO_OFF
G0 X9.84538 Y24.4947 ; cartesianDistance=1.31571 (Travel)
; 
; feature fill
PRIO_ON
G1 X-24.4947 Y11.99593 E10388.59622 ; EInc=71.65481 cartesianDistance=36.54395 angle=0.000 pulseDistance=0.51000
; 
; feature travel
PRIO_OFF
G0 X-24.4947 Y12.47481 ; cartesianDistance=0.47888 (Travel)
; 
; feature fill
PRIO_ON
G1 X8.52967 Y24.4947 E10457.50563 ; EInc=68.90941 cartesianDistance=35.14380 angle=0.000 pulseDistance=0.51000
; 
; feature travel
PRIO_OFF
G0 X7.21396 Y24.4947 ; cartesianDistance=1.31571 (Travel)
; 
; feature fill
PRIO_ON
G1 X-24.4947 Y12.95369 E10523.66965 ; EInc=66.16402 cartesianDistance=33.74365 angle=0.000 pulseDistance=0.51000
; 
; feature travel
PRIO_OFF
G0 X-24.4947 Y13.43257 ; cartesianDistance=0.47888 (Travel)
; 
; feature fill
PRIO_ON
G1 X5.89825 Y24.4947 E10587.08828 ; EInc=63.41862 cartesianDistance=32.34350 angle=0.000 pulseDistance=0.51000
; 
; feature travel
PRIO_OFF
G0 X4.58253 Y24.4947 ; cartesianDistance=1.31571 (Travel)
; 
; feature fill
PRIO_ON
G1 X-24.4947 Y13.91145 E10647.7615 ; EInc=60.67323 cartesianDistance=30.94335 angle=0.000 pulseDistance=0.51000
; 
; feature travel
PRIO_OFF
G0 X-24.4947 Y14.39033 ; cartesianDistance=0.47888 (Travel)
; 
; feature fill
PRIO_ON
G1 X3.26682 Y24.4947 E10705.68934 ; EInc=57.92783 cartesianDistance=29.54320 angle=0.000 pulseDistance=0.51000
; 
; feature travel
PRIO_OFF
G0 X1.95111 Y24.4947 ; cartesianDistance=1.31571 (Travel)
; 
; feature fill
PRIO_ON
G1 X-24.4947 Y14.86921 E10760.87178 ; EInc=55.18244 cartesianDistance=28.14304 angle=0.000 pulseDistance=0.51000
; 
; feature travel
PRIO_OFF
G0 X-24.4947 Y15.34809 ; cartesianDistance=0.47888 (Travel)
; 
; feature fill
PRIO_ON
G1 X0.6354 Y24.4947 E10813.30882 ; EInc=52.43704 cartesianDistance=26.74289 angle=0.000 pulseDistance=0.51000
; 
; feature travel
PRIO_OFF
G0 X-0.68031 Y24.4947 ; cartesianDistance=1.31571 (Travel)
; 
; feature fill
PRIO_ON
G1 X-24.4947 Y15.82697 E10863.00047 ; EInc=49.69165 cartesianDistance=25.34274 angle=0.000 pulseDistance=0.51000
; 
; feature travel
PRIO_OFF
G0 X-24.4947 Y16.30585 ; cartesianDistance=0.47888 (Travel)
; 
; feature fill
PRIO_ON
G1 X-1.99603 Y24.4947 E10909.94673 ; EInc=46.94625 cartesianDistance=23.94259 angle=0.000 pulseDistance=0.51000
; 
; feature travel
PRIO_OFF
G0 X-3.31174 Y24.4947 ; cartesianDistance=1.31571 (Travel)
; 
; feature fill
PRIO_ON
G1 X-24.4947 Y16.78473 E10954.14759 ; EInc=44.20086 cartesianDistance=22.54244 angle=0.000 pulseDistance=0.51000
; 
; feature travel
PRIO_OFF
G0 X-24.4947 Y17.26361 ; cartesianDistance=0.47888 (Travel)
; 
; feature fill
PRIO_ON
G1 X-4.62745 Y24.4947 E10995.60305 ; EInc=41.45546 cartesianDistance=21.14229 angle=0.000 pulseDistance=0.51000
; 
; feature travel
PRIO_OFF
G0 X-5.94316 Y24.4947 ; cartesianDistance=1.31571 (Travel)
; 
; feature fill
PRIO_ON
G1 X-24.4947 Y17.74249 E11034.31312 ; EInc=38.71007 cartesianDistance=19.74214 angle=0.000 pulseDistance=0.51000
; 
; feature travel
PRIO_OFF
G0 X-24.4947 Y18.22137 ; cartesianDistance=0.47888 (Travel)
; 
; feature fill
PRIO_ON
G1 X-7.25887 Y24.4947 E11070.27779 ; EInc=35.96467 cartesianDistance=18.34198 angle=0.000 pulseDistance=0.51000
; 
; feature travel
PRIO_OFF
G0 X-8.57459 Y24.4947 ; cartesianDistance=1.31571 (Travel)
; 
; feature fill
PRIO_ON
G1 X-24.4947 Y18.70025 E11103.49707 ; EInc=33.21928 cartesianDistance=16.94183 angle=0.000 pulseDistance=0.51000
; 
; feature travel
PRIO_OFF
G0 X-24.4947 Y19.17913 ; cartesianDistance=0.47888 (Travel)
; 
; feature fill
PRIO_ON
G1 X-9.8903 Y24.4947 E11133.97096 ; EInc=30.47388 cartesianDistance=15.54168 angle=0.000 pulseDistance=0.51000
; 
; feature travel
PRIO_OFF
G0 X-11.20601 Y24.4947 ; cartesianDistance=1.31571 (Travel)
; 
; feature fill
PRIO_ON
G1 X-24.4947 Y19.65801 E11161.69945 ; EInc=27.72849 cartesianDistance=14.14153 angle=0.000 pulseDistance=0.51000
; 
; feature travel
PRIO_OFF
G0 X-24.4947 Y20.13689 ; cartesianDistance=0.47888 (Travel)
; 
; feature fill
PRIO_ON
G1 X-12.52172 Y24.4947 E11186.68254 ; EInc=24.98309 cartesianDistance=12.74138 angle=0.000 pulseDistance=0.51000
; 
; feature travel
PRIO_OFF
G0 X-13.83743 Y24.4947 ; cartesianDistance=1.31571 (Travel)
; 
; feature fill
PRIO_ON
G1 X-24.4947 Y20.61577 E11208.92024 ; EInc=22.23770 cartesianDistance=11.34123 angle=0.000 pulseDistance=0.51000
; 
; feature travel
PRIO_OFF
G0 X-24.4947 Y21.09465 ; cartesianDistance=0.47888 (Travel)
; 
; feature fill
PRIO_ON
G1 X-15.15314 Y24.4947 E11228.41254 ; EInc=19.49230 cartesianDistance=9.94108 angle=0.000 pulseDistance=0.51000
; 
; feature travel
PRIO_OFF
G0 X-16.46886 Y24.4947 ; cartesianDistance=1.31571 (Travel)
; 
; feature fill
PRIO_ON
G1 X-24.4947 Y21.57353 E11245.15945 ; EInc=16.74691 cartesianDistance=8.54092 angle=0.000 pulseDistance=0.51000
; 
; feature travel
PRIO_OFF
G0 X-24.4947 Y22.05241 ; cartesianDistance=0.47888 (Travel)
; 
; feature fill
PRIO_ON
G1 X-17.78457 Y24.4947 E11259.16097 ; EInc=14.00151 cartesianDistance=7.14077 angle=0.000 pulseDistance=0.51000
; 
; feature travel
PRIO_OFF
G0 X-19.10028 Y24.4947 ; cartesianDistance=1.31571 (Travel)
; 
; feature fill
PRIO_ON
G1 X-24.4947 Y22.53129 E11270.41709 ; EInc=11.25612 cartesianDistance=5.74062 angle=0.000 pulseDistance=0.51000
; 
; feature travel
PRIO_OFF
G0 X-24.4947 Y23.01017 ; cartesianDistance=0.47888 (Travel)
; 
; feature fill
PRIO_ON
G1 X-20.41599 Y24.4947 E11278.92781 ; EInc=8.51072 cartesianDistance=4.34047 angle=0.000 pulseDistance=0.51000
; 
; feature travel
PRIO_OFF
G0 X-21.7317 Y24.4947 ; cartesianDistance=1.31571 (Travel)
; 
; feature fill
PRIO_ON
G1 X-24.4947 Y23.48905 E11284.69314 ; EInc=5.76533 cartesianDistance=2.94032 angle=0.000 pulseDistance=0.51000
; 
; feature travel
PRIO_OFF
G0 X-24.4947 Y23.96793 ; cartesianDistance=0.47888 (Travel)
; 
; feature fill
PRIO_ON
G1 X-23.04742 Y24.4947 E11287.71308 ; EInc=3.01993 cartesianDistance=1.54017 angle=0.000 pulseDistance=0.51000
; 
; feature travel
PRIO_OFF
G0 X-24.36313 Y24.4947 ; cartesianDistance=1.31571 (Travel)
; 
; feature fill
PRIO_ON
G1 X-24.4947 Y24.44681 E11287.98762 ; EInc=0.27454 cartesianDistance=0.14002 angle=0.000 pulseDistance=0.51000
PRIO_OFF
LayersCompleted=1
M1
; 
;========================
; layer 1, Z = 0.4800
; 
; reset extrusion
STOPRE
PRESETON(E, 0)
DO PRIO_PULSE_DISTANCE=DROP_SCALE
DO PRIO_ON_PATH_OFFSET=0.5*PRIO_PULSE_DISTANCE
;outer: (25.2604,-25.2604) (25.2604,25.2604) (-25.2604,25.2604) (-25.2604,-25.2604) (-23.4604,-25.2604) holes: !
;overhangs:!
; 
; feature plane change
G0 X-24.4947 Y24.44681 Z0.48 ; cartesianDistance=0.00000 (Plane Change)
; 
; feature travel
G0 X-2.83357 Y24.8454 ; cartesianDistance=21.66479 (Travel)
; 
; feature outer perimeter
G1 F24000 FL[E] = OuterPerimeterFrequency * DROP_SCALE * 60
PRIO_ON
G1 X24.8454 Y24.8454 E65.12699 ; EInc=65.12699 cartesianDistance=27.67897 angle=90.000 pulseDistance=0.42500
G1 X24.8454 Y-24.8454 E182.04652 ; EInc=116.91953 cartesianDistance=49.69080 angle=90.000 pulseDistance=0.42500
G1 X-24.8454 Y-24.8454 E298.96605 ; EInc=116.91953 cartesianDistance=49.69080 angle=90.000 pulseDistance=0.42500
G1 X-24.8454 Y24.8454 E415.88558 ; EInc=116.91953 cartesianDistance=49.69080 angle=90.000 pulseDistance=0.42500
G1 X-2.83357 Y24.8454 E467.67812 ; EInc=51.79253 cartesianDistance=22.01183 angle=0.000 pulseDistance=0.42500
; 
; feature travel
PRIO_OFF
G0 X-2.83357 Y24.4944 ; cartesianDistance=0.35100 (Travel)
; 
; feature inner perimeter
G1 F24000 FL[E] = InnerPerimeterFrequency * DROP_SCALE * 60
PRIO_ON
G1 X-24.4944 Y24.4944 E507.79076 ; EInc=40.11264 cartesianDistance=21.66083 angle=90.000 pulseDistance=0.54000
G1 X-24.4944 Y-24.4944 E598.51076 ; EInc=90.72000 cartesianDistance=48.98880 angle=90.000 pulseDistance=0.54000
G1 X24.4944 Y-24.4944 E689.23076 ; EInc=90.72000 cartesianDistance=48.98880 angle=90.000 pulseDistance=0.54000
G1 X24.4944 Y24.4944 E779.95076 ; EInc=90.72000 cartesianDistance=48.98880 angle=90.000 pulseDistance=0.54000
G1 X-2.83357 Y24.4944 E830.55812 ; EInc=50.60736 cartesianDistance=27.32797 angle=180.000 pulseDistance=0.54000
; 
; feature travel
PRIO_OFF
G0 X-2.59817 Y24.4947 ; cartesianDistance=0.23541 (Travel)
; 
; feature fill
G1 F24000 FL[E] = FillFrequency * DROP_SCALE * 60
PRIO_ON
G1 X-24.4947 Y-22.46257 E932.14952 ; EInc=101.59140 cartesianDistance=51.81162 angle=0.000 pulseDistance=0.51000
; 
; feature travel
PRIO_OFF
G0 X-24.4947 Y-23.52736 ; cartesianDistance=1.06479 (Travel)
; 
; feature fill
PRIO_ON
G1 X-2.10165 Y24.4947 E1036.04458 ; EInc=103.89506 cartesianDistance=52.98648 angle=0.000 pulseDistance=0.51000
; 
; feature travel
PRIO_OFF
G0 X-1.60513 Y24.4947 ; cartesianDistance=0.49652 (Travel)
; 
; feature fill
PRIO_ON
G1 X-24.44926 Y-24.4947 E1142.03247 ; EInc=105.98789 cartesianDistance=54.05382 angle=0.000 pulseDistance=0.51000
; 
; feature travel
PRIO_OFF
G0 X-23.95274 Y-24.4947 ; cartesianDistance=0.49652 (Travel)
; 
; feature fill
PRIO_ON
G1 X-1.10861 Y24.4947 E1248.02036 ; EInc=105.98789 cartesianDistance=54.05382 angle=0.000 pulseDistance=0.51000
; 
; feature travel
PRIO_OFF
G0 X-0.61208 Y24.4947 ; cartesianDistance=0.49652 (Travel)
; 
; feature fill
PRIO_ON
G1 X-23.45622 Y-24.4947 E1354.00824 ; EInc=105.98789 cartesianDistance=54.05382 angle=0.000 pulseDistance=0.51000
; 
; feature travel
PRIO_OFF
G0 X-22.9597 Y-24.4947 ; cartesianDistance=0.49652 (Travel)
; 
; feature fill
PRIO_ON
G1 X-0.11556 Y24.4947 E1459.99613 ; EInc=105.98789 cartesianDistance=54.05382 angle=0.000 pulseDistance=0.51000
; 
; feature travel
PRIO_OFF
G0 X0.38096 Y24.4947 ; cartesianDistance=0.49652 (Travel)
; 
; feature fill
PRIO_ON
G1 X-22.46318 Y-24.4947 E1565.98402 ; EInc=105.98789 cartesianDistance=54.05382 angle=0.000 pulseDistance=0.51000
; 
; feature travel
PRIO_OFF
G0 X-21.96666 Y-24.4947 ; cartesianDistance=0.49652 (Travel)
; 
; feature fill
PRIO_ON
G1 X0.87748 Y24.4947 E1671.9719 ; EInc=105.98789 cartesianDistance=54.05382 angle=0.000 pulseDistance=0.51000
; 
; feature travel
PRIO_OFF
G0 X1.374 Y24.4947 ; cartesianDistance=0.49652 (Travel)
; 
; feature fill
PRIO_ON
G1 X-21.47014 Y-24.4947 E1777.95979 ; EInc=105.98789 cartesianDistance=54.05382 angle=0.000 pulseDistance=0.51000
; 
; feature travel
PRIO_OFF
G0 X-20.97362 Y-24.4947 ; cartesianDistance=0.49652 (Travel)
; 
; feature fill
PRIO_ON
G1 X1.87052 Y24.4947 E1883.94768 ; EInc=105.98789 cartesianDistance=54.05382 angle=0.000 pulseDistance=0.51000
; 
; feature travel
PRIO_OFF
G0 X2.36704 Y24.4947 ; cartesianDistance=0.49652 (Travel)
; 
; feature fill
PRIO_ON
G1 X-20.4771 Y-24.4947 E1989.93556 ; EInc=105.98789 cartesianDistance=54.05382 angle=0.000 pulseDistance=0.51000
; 
; feature travel
PRIO_OFF
G0 X-19.98058 Y-24.4947 ; cartesianDistance=0.49652 (Travel)
; 
; feature fill
PRIO_ON
G1 X2.86356 Y24.4947 E2095.92345 ; EInc=105.98789 cartesianDistance=54.05382 angle=0.000 pulseDistance=0.51000
; 
; feature travel
PRIO_OFF
G0 X3.36008 Y24.4947 ; cartesianDistance=0.49652 (Travel)
; 
; feature fill
PRIO_ON
G1 X-19.48406 Y-24.4947 E2201.91134 ; EInc=105.98789 cartesianDistance=54.05382 angle=0.000 pulseDistance=0.51000
; 
; feature travel
PRIO_OFF
G0 X-18.98754 Y-24.4947 ; cartesianDistance=0.49652 (Travel)
; 
; feature fill
PRIO_ON
G1 X3.8566 Y24.4947 E2307.89922 ; EInc=105.98789 cartesianDistance=54.05382 angle=0.000 pulseDistance=0.51000
; 
; feature travel
PRIO_OFF
G0 X4.35312 Y24.4947 ; cartesianDistance=0.49652 (Travel)
; 
; feature fill
PRIO_ON
G1 X-18.49102 Y-24.4947 E2413.88711 ; EInc=105.98789 cartesianDistance=54.05382 angle=0.000 pulseDistance=0.51000
; 
; feature travel
PRIO_OFF
G0 X-17.9945 Y-24.4947 ; cartesianDistance=0.49652 (Travel)
; 
; feature fill
PRIO_ON
G1 X4.84964 Y24.4947 E2519.875 ; EInc=105.98789 cartesianDistance=54.05382 angle=0.000 pulseDistance=0.51000
; 
; feature travel
PRIO_OFF
G0 X5.34616 Y24.4947 ; cartesianDistance=0.49652 (Travel)
; 
; feature fill
PRIO_ON
G1 X-17.49798 Y-24.4947 E2625.86288 ; EInc=105.98789 cartesianDistance=54.05382 angle=0.000 pulseDistance=0.51000
; 
; feature travel
PRIO_OFF
G0 X-17.00146 Y-24.4947 ; cartesianDistance=0.49652 (Travel)
; 
; feature fill
PRIO_ON
G1 X5.84268 Y24.4947 E2731.85077 ; EInc=105.98789 cartesianDistance=54.05382 angle=0.000 pulseDistance=0.51000
; 
; feature travel
PRIO_OFF
G0 X6.3392 Y24.4947 ; cartesianDistance=0.49652 (Travel)
; 
; feature fill
PRIO_ON
G1 X-16.50494 Y-24.4947 E2837.83866 ; EInc=105.98789 cartesianDistance=54.05382 angle=0.000 pulseDistance=0.51000
; 
; feature travel
PRIO_OFF
G0 X-16.00842 Y-24.4947 ; cartesianDistance=0.49652 (Travel)
; 
; feature fill
PRIO_ON
G1 X6.83572 Y24.4947 E2943.82654 ; EInc=105.98789 cartesianDistance=54.05382 angle=0.000 pulseDistance=0.51000
; 
; feature travel
PRIO_OFF
G0 X7.33224 Y24.4947 ; cartesianDistance=0.49652 (Travel)
; 
; feature fill
PRIO_ON
G1 X-15.5119 Y-24.4947 E3049.81443 ; EInc=105.98789 cartesianDistance=54.05382 angle=0.000 pulseDistance=0.51000
; 
; feature travel
PRIO_OFF
G0 X-15.01538 Y-24.4947 ; cartesianDistance=0.49652 (Travel)
; 
; feature fill
PRIO_ON
G1 X7.82876 Y24.4947 E3155.80232 ; EInc=105.98789 cartesianDistance=54.05382 angle=0.000 pulseDistance=0.51000
; 
; feature travel
PRIO_OFF
G0 X8.32528 Y24.4947 ; cartesianDistance=0.49652 (Travel)
; 
; feature fill
PRIO_ON
G1 X-14.51886 Y-24.4947 E3261.7902 ; EInc=105.98789 cartesianDistance=54.05382 angle=0.000 pulseDistance=0.51000
; 
; feature travel
PRIO_OFF
G0 X-14.02234 Y-24.4947 ; cartesianDistance=0.49652 (Travel)
; 
; feature fill
PRIO_ON
G1 X8.8218 Y24.4947 E3367.77809 ; EInc=105.98789 cartesianDistance=54.05382 angle=0.000 pulseDistance=0.51000
; 
; feature travel
PRIO_OFF
G0 X9.31832 Y24.4947 ; cartesianDistance=0.49652 (Travel)
; 
; feature fill
PRIO_ON
G1 X-13.52582 Y-24.4947 E3473.76598 ; EInc=105.98789 cartesianDistance=54.05382 angle=0.000 pulseDistance=0.51000
; 
; feature travel
PRIO_OFF
G0 X-13.0293 Y-24.4947 ; cartesianDistance=0.49652 (Travel)
; 
; feature fill
PRIO_ON
G1 X9.81484 Y24.4947 E3579.75386 ; EInc=105.98789 cartesianDistance=54.05382 angle=0.000 pulseDistance=0.51000
; 
; feature travel
PRIO_OFF
G0 X10.31136 Y24.4947 ; cartesianDistance=0.49652 (Travel)
; 
; feature fill
PRIO_ON
G1 X-12.53278 Y-24.4947 E3685.74175 ; EInc=105.98789 cartesianDistance=54.05382 angle=0.000 pulseDistance=0.51000
; 
; feature travel
PRIO_OFF
G0 X-12.03626 Y-24.4947 ; cartesianDistance=0.49652 (Travel)
; 
; feature fill
PRIO_ON
G1 X10.80788 Y24.4947 E3791.72964 ; EInc=105.98789 cartesianDistance=54.05382 angle=0.000 pulseDistance=0.51000
; 
; feature travel
PRIO_OFF
G0 X11.3044 Y24.4947 ; cartesianDistance=0.49652 (Travel)
; 
; feature fill
PRIO_ON
G1 X-11.53974 Y-24.4947 E3897.71752 ; EInc=105.98789 cartesianDistance=54.05382 angle=0.000 pulseDistance=0.51000
; 
; feature travel
PRIO_OFF
G0 X-11.04322 Y-24.4947 ; cartesianDistance=0.49652 (Travel)
; 
; feature fill
PRIO_ON
G1 X11.80092 Y24.4947 E4003.70541 ; EInc=105.98789 cartesianDistance=54.05382 angle=0.000 pulseDistance=0.51000
; 
; feature travel
PRIO_OFF
G0 X12.29744 Y24.4947 ; cartesianDistance=0.49652 (Travel)
; 
; feature fill
PRIO_ON
G1 X-10.5467 Y-24.4947 E4109.6933 ; EInc=105.98789 cartesianDistance=54.05382 angle=0.000 pulseDistance=0.51000
; 
; feature travel
PRIO_OFF
G0 X-10.05018 Y-24.4947 ; cartesianDistance=0.49652 (Travel)
; 
; feature fill
PRIO_ON
G1 X12.79396 Y24.4947 E4215.68118 ; EInc=105.98789 cartesianDistance=54.05382 angle=0.000 pulseDistance=0.51000
; 
; feature travel
PRIO_OFF
G0 X13.29048 Y24.4947 ; cartesianDistance=0.49652 (Travel)
; 
; feature fill
PRIO_ON
G1 X-9.55366 Y-24.4947 E4321.66907 ; EInc=105.98789 cartesianDistance=54.05382 angle=0.000 pulseDistance=0.51000
; 
; feature travel
PRIO_OFF
G0 X-9.05714 Y-24.4947 ; cartesianDistance=0.49652 (Travel)
; 
; feature fill
PRIO_ON
G1 X13.787 Y24.4947 E4427.65696 ; EInc=105.98789 cartesianDistance=54.05382 angle=0.000 pulseDistance=0.51000
; 
; feature travel
PRIO_OFF
G0 X14.28352 Y24.4947 ; cartesianDistance=0.49652 (Travel)
; 
; feature fill
PRIO_ON
G1 X-8.56062 Y-24.4947 E4533.64484 ; EInc=105.98789 cartesianDistance=54.05382 angle=0.000 pulseDistance=0.51000
; 
; feature travel
PRIO_OFF
G0 X-8.0641 Y-24.4947 ; cartesianDistance=0.49652 (Travel)
; 
; feature fill
PRIO_ON
G1 X14.78004 Y24.4947 E4639.63273 ; EInc=105.98789 cartesianDistance=54.05382 angle=0.000 pulseDistance=0.51000
; 
; feature travel
PRIO_OFF
G0 X15.27656 Y24.4947 ; cartesianDistance=0.49652 (Travel)
; 
; feature fill
PRIO_ON
G1 X-7.56758 Y-24.4947 E4745.62062 ; EInc=105.98789 cartesianDistance=54.05382 angle=0.000 pulseDistance=0.51000
; 
; feature travel
PRIO_OFF
G0 X-7.07106 Y-24.4947 ; cartesianDistance=0.49652 (Travel)
; 
; feature fill
PRIO_ON
G1 X15.77308 Y24.4947 E4851.6085 ; EInc=105.98789 cartesianDistance=54.05382 angle=0.000 pulseDistance=0.51000
; 
; feature travel
PRIO_OFF
G0 X16.2696 Y24.4947 ; cartesianDistance=0.49652 (Travel)
; 
; feature fill
PRIO_ON
G1 X-6.57454 Y-24.4947 E4957.59639 ; EInc=105.98789 cartesianDistance=54.05382 angle=0.000 pulseDistance=0.51000
; 
; feature travel
PRIO_OFF
G0 X-6.07802 Y-24.4947 ; cartesianDistance=0.49652 (Travel)
; 
; feature fill
PRIO_ON
G1 X16.76612 Y24.4947 E5063.58428 ; EInc=105.98789 cartesianDistance=54.05382 angle=0.000 pulseDistance=0.51000
; 
; feature travel
PRIO_OFF
G0 X17.26264 Y24.4947 ; cartesianDistance=0.49652 (Travel)
; 
; feature fill
PRIO_ON
G1 X-5.5815 Y-24.4947 E5169.57216 ; EInc=105.98789 cartesianDistance=54.05382 angle=0.000 pulseDistance=0.51000
; 
; feature travel
PRIO_OFF
G0 X-5.08497 Y-24.4947 ; cartesianDistance=0.49652 (Travel)
; 
; feature fill
PRIO_ON
G1 X17.75916 Y24.4947 E5275.56005 ; EInc=105.98789 cartesianDistance=54.05382 angle=0.000 pulseDistance=0.51000
; 
; feature travel
PRIO_OFF
G0 X18.25568 Y24.4947 ; cartesianDistance=0.49652 (Travel)
; 
; feature fill
PRIO_ON
G1 X-4.58845 Y-24.4947 E5381.54794 ; EInc=105.98789 cartesianDistance=54.05382 angle=0.000 pulseDistance=0.51000
; 
; feature travel
PRIO_OFF
G0 X-4.09193 Y-24.4947 ; cartesianDistance=0.49652 (Travel)
; 
; feature fill
PRIO_ON
G1 X18.7522 Y24.4947 E5487.53582 ; EInc=105.98789 cartesianDistance=54.05382 angle=0.000 pulseDistance=0.51000
; 
; feature travel
PRIO_OFF
G0 X19.24872 Y24.4947 ; cartesianDistance=0.49652 (Travel)
; 
; feature fill
PRIO_ON
G1 X-3.59541 Y-24.4947 E5593.52371 ; EInc=105.98789 cartesianDistance=54.05382 angle=0.000 pulseDistance=0.51000
; 
; feature travel
PRIO_OFF
G0 X-3.09889 Y-24.4947 ; cartesianDistance=0.49652 (Travel)
; 
; feature fill
PRIO_ON
G1 X19.74524 Y24.4947 E5699.5116 ; EInc=105.98789 cartesianDistance=54.05382 angle=0.000 pulseDistance=0.51000
; 
; feature travel
PRIO_OFF
G0 X20.24176 Y24.4947 ; cartesianDistance=0.49652 (Travel)
; 
; feature fill
PRIO_ON
G1 X-2.60237 Y-24.4947 E5805.49948 ; EInc=105.98789 cartesianDistance=54.05382 angle=0.000 pulseDistance=0.51000
; 
; feature travel
PRIO_OFF
G0 X-2.10585 Y-24.4947 ; cartesianDistance=0.49652 (Travel)
; 
; feature fill
PRIO_ON
G1 X20.73828 Y24.4947 E5911.48737 ; EInc=105.98789 cartesianDistance=54.05382 angle=0.000 pulseDistance=0.51000
; 
; feature travel
PRIO_OFF
G0 X21.2348 Y24.4947 ; cartesianDistance=0.49652 (Travel)
; 
; feature fill
PRIO_ON
G1 X-1.60933 Y-24.4947 E6017.47526 ; EInc=105.98789 cartesianDistance=54.05382 angle=0.000 pulseDistance=0.51000
; 
; feature travel
PRIO_OFF
G0 X-1.11281 Y-24.4947 ; cartesianDistance=0.49652 (Travel)
; 
; feature fill
PRIO_ON
G1 X21.73132 Y24.4947 E6123.46314 ; EInc=105.98789 cartesianDistance=54.05382 angle=0.000 pulseDistance=0.51000
; 
; feature travel
PRIO_OFF
G0 X22.22784 Y24.4947 ; cartesianDistance=0.49652 (Travel)
; 
; feature fill
PRIO_ON
G1 X-0.61629 Y-24.4947 E6229.45103 ; EInc=105.98789 cartesianDistance=54.05382 angle=0.000 pulseDistance=0.51000
; 
; feature travel
PRIO_OFF
G0 X-0.11977 Y-24.4947 ; cartesianDistance=0.49652 (Travel)
; 
; feature fill
PRIO_ON
G1 X22.72436 Y24.4947 E6335.43892 ; EInc=105.98789 cartesianDistance=54.05382 angle=0.000 pulseDistance=0.51000
; 
; feature travel
PRIO_OFF
G0 X23.22088 Y24.4947 ; cartesianDistance=0.49652 (Travel)
; 
; feature fill
PRIO_ON
G1 X0.37675 Y-24.4947 E6441.42681 ; EInc=105.98789 cartesianDistance=54.05382 angle=0.000 pulseDistance=0.51000
; 
; feature travel
PRIO_OFF
G0 X0.87327 Y-24.4947 ; cartesianDistance=0.49652 (Travel)
; 
; feature fill
PRIO_ON
G1 X23.7174 Y24.4947 E6547.41469 ; EInc=105.98789 cartesianDistance=54.05382 angle=0.000 pulseDistance=0.51000
; 
; feature travel
PRIO_OFF
G0 X24.21392 Y24.4947 ; cartesianDistance=0.49652 (Travel)
; 
; feature fill
PRIO_ON
G1 X1.36979 Y-24.4947 E6653.40258 ; EInc=105.98789 cartesianDistance=54.05382 angle=0.000 pulseDistance=0.51000
; 
; feature travel
PRIO_OFF
G0 X1.86631 Y-24.4947 ; cartesianDistance=0.49652 (Travel)
; 
; feature fill
PRIO_ON
G1 X24.4947 Y24.03205 E6758.38952 ; EInc=104.98694 cartesianDistance=53.54334 angle=0.000 pulseDistance=0.51000
; 
; feature travel
PRIO_OFF
G0 X24.4947 Y22.96726 ; cartesianDistance=1.06479 (Travel)
; 
; feature fill
PRIO_ON
G1 X2.36283 Y-24.4947 E6861.07281 ; EInc=102.68329 cartesianDistance=52.36848 angle=0.000 pulseDistance=0.51000
; 
; feature travel
PRIO_OFF
G0 X2.85935 Y-24.4947 ; cartesianDistance=0.49652 (Travel)
; 
; feature fill
PRIO_ON
G1 X24.4947 Y21.90247 E6961.45243 ; EInc=100.37963 cartesianDistance=51.19361 angle=0.000 pulseDistance=0.51000
; 
; feature travel
PRIO_OFF
G0 X24.4947 Y20.83768 ; cartesianDistance=1.06479 (Travel)
; 
; feature fill
PRIO_ON
G1 X3.35587 Y-24.4947 E7059.5284 ; EInc=98.07597 cartesianDistance=50.01874 angle=0.000 pulseDistance=0.51000
; 
; feature travel
PRIO_OFF
G0 X3.85239 Y-24.4947 ; cartesianDistance=0.49652 (Travel)
; 
; feature fill
PRIO_ON
G1 X24.4947 Y19.77288 E7155.3007 ; EInc=95.77231 cartesianDistance=48.84388 angle=0.000 pulseDistance=0.51000
; 
; feature travel
PRIO_OFF
G0 X24.4947 Y18.70809 ; cartesianDistance=1.06479 (Travel)
; 
; feature fill
PRIO_ON
G1 X4.34891 Y-24.4947 E7248.76935 ; EInc=93.46865 cartesianDistance=47.66901 angle=0.000 pulseDistance=0.51000
; 
; feature travel
PRIO_OFF
G0 X4.84543 Y-24.4947 ; cartesianDistance=0.49652 (Travel)
; 
; feature fill
PRIO_ON
G1 X24.4947 Y17.6433 E7339.93433 ; EInc=91.16499 cartesianDistance=46.49414 angle=0.000 pulseDistance=0.51000
; 
; feature travel
PRIO_OFF
G0 X24.4947 Y16.57851 ; cartesianDistance=1.06479 (Travel)
; 
; feature fill
PRIO_ON
G1 X5.34195 Y-24.4947 E7428.79566 ; EInc=88.86133 cartesianDistance=45.31928 angle=0.000 pulseDistance=0.51000
; 
; feature travel
PRIO_OFF
G0 X5.83847 Y-24.4947 ; cartesianDistance=0.49652 (Travel)
; 
; feature fill
PRIO_ON
G1 X24.4947 Y15.51372 E7515.35333 ; EInc=86.55767 cartesianDistance=44.14441 angle=0.000 pulseDistance=0.51000
; 
; feature travel
PRIO_OFF
G0 X24.4947 Y14.44893 ; cartesianDistance=1.06479 (Travel)
; 
; feature fill
PRIO_ON
G1 X6.33499 Y-24.4947 E7599.60733 ; EInc=84.25401 cartesianDistance=42.96954 angle=0.000 pulseDistance=0.51000
; 
; feature travel
PRIO_OFF
G0 X6.83151 Y-24.4947 ; cartesianDistance=0.49652 (Travel)
; 
; feature fill
PRIO_ON
G1 X24.4947 Y13.38414 E7681.55768 ; EInc=81.95035 cartesianDistance=41.79468 angle=0.000 pulseDistance=0.51000
; 
; feature travel
PRIO_OFF
G0 X24.4947 Y12.31935 ; cartesianDistance=1.06479 (Travel)
; 
; feature fill
PRIO_ON
G1 X7.32803 Y-24.4947 E7761.20436 ; EInc=79.64669 cartesianDistance=40.61981 angle=0.000 pulseDistance=0.51000
; 
; feature travel
PRIO_OFF
G0 X7.82455 Y-24.4947 ; cartesianDistance=0.49652 (Travel)
; 
; feature fill
PRIO_ON
G1 X24.4947 Y11.25456 E7838.54739 ; EInc=77.34303 cartesianDistance=39.44494 angle=0.000 pulseDistance=0.51000
; 
; feature travel
PRIO_OFF
G0 X24.4947 Y10.18977 ; cartesianDistance=1.06479 (Travel)
; 
; feature fill
PRIO_ON
G1 X8.32107 Y-24.4947 E7913.58675 ; EInc=75.03937 cartesianDistance=38.27008 angle=0.000 pulseDistance=0.51000
; 
; feature travel
PRIO_OFF
G0 X8.81759 Y-24.4947 ; cartesianDistance=0.49652 (Travel)
; 
; feature fill
PRIO_ON
G1 X24.4947 Y9.12498 E7986.32246 ; EInc=72.73571 cartesianDistance=37.09521 angle=0.000 pulseDistance=0.51000
; 
; feature travel
PRIO_OFF
G0 X24.4947 Y8.06019 ; cartesianDistance=1.06479 (Travel)
; 
; feature fill
PRIO_ON
G1 X9.31411 Y-24.4947 E8056.75451 ; EInc=70.43205 cartesianDistance=35.92034 angle=0.000 pulseDistance=0.51000
; 
; feature travel
PRIO_OFF
G0 X9.81063 Y-24.4947 ; cartesianDistance=0.49652 (Travel)
; 
; feature fill
PRIO_ON
G1 X24.4947 Y6.9954 E8124.88289 ; EInc=68.12839 cartesianDistance=34.74548 angle=0.000 pulseDistance=0.51000
; 
; feature travel
PRIO_OFF
G0 X24.4947 Y5.93061 ; cartesianDistance=1.06479 (Travel)
; 
; feature fill
PRIO_ON
G1 X10.30715 Y-24.4947 E8190.70762 ; EInc=65.82473 cartesianDistance=33.57061 angle=0.000 pulseDistance=0.51000
; 
; feature travel
PRIO_OFF
G0 X10.80367 Y-24.4947 ; cartesianDistance=0.49652 (Travel)
; 
; feature fill
PRIO_ON
G1 X24.4947 Y4.86581 E8254.22869 ; EInc=63.52107 cartesianDistance=32.39574 angle=0.000 pulseDistance=0.51000
; 
; feature travel
PRIO_OFF
G0 X24.4947 Y3.80102 ; cartesianDistance=1.06479 (Travel)
; 
; feature fill
PRIO_ON
G1 X11.30019 Y-24.4947 E8315.44609 ; EInc=61.21741 cartesianDistance=31.22088 angle=0.000 pulseDistance=0.51000
; 
; feature travel
PRIO_OFF
G0 X11.79671 Y-24.4947 ; cartesianDistance=0.49652 (Travel)
; 
; feature fill
PRIO_ON
G1 X24.4947 Y2.73623 E8374.35984 ; EInc=58.91375 cartesianDistance=30.04601 angle=0.000 pulseDistance=0.51000
; 
; feature travel
PRIO_OFF
G0 X24.4947 Y1.67144 ; cartesianDistance=1.06479 (Travel)
; 
; feature fill
PRIO_ON
G1 X12.29323 Y-24.4947 E8430.96993 ; EInc=56.61009 cartesianDistance=28.87114 angle=0.000 pulseDistance=0.51000
; 
; feature travel
PRIO_OFF
G0 X12.78975 Y-24.4947 ; cartesianDistance=0.49652 (Travel)
; 
; feature fill
PRIO_ON
G1 X24.4947 Y0.60665 E8485.27635 ; EInc=54.30643 cartesianDistance=27.69628 angle=0.000 pulseDistance=0.51000
; 
; feature travel
PRIO_OFF
G0 X24.4947 Y-0.45814 ; cartesianDistance=1.06479 (Travel)
; 
; feature fill
PRIO_ON
G1 X13.28627 Y-24.4947 E8537.27912 ; EInc=52.00277 cartesianDistance=26.52141 angle=0.000 pulseDistance=0.51000
; 
; feature travel
PRIO_OFF
G0 X13.78279 Y-24.4947 ; cartesianDistance=0.49652 (Travel)
; 
; feature fill
PRIO_ON
G1 X24.4947 Y-1.52293 E8586.97823 ; EInc=49.69911 cartesianDistance=25.34654 angle=0.000 pulseDistance=0.51000
; 
; feature travel
PRIO_OFF
G0 X24.4947 Y-2.58772 ; cartesianDistance=1.06479 (Travel)
; 
; feature fill
PRIO_ON
G1 X14.27931 Y-24.4947 E8634.37367 ; EInc=47.39545 cartesianDistance=24.17168 angle=0.000 pulseDistance=0.51000
; 
; feature travel
PRIO_OFF
G0 X14.77583 Y-24.4947 ; cartesianDistance=0.49652 (Travel)
; 
; feature fill
PRIO_ON
G1 X24.4947 Y-3.65251 E8679.46546 ; EInc=45.09179 cartesianDistance=22.99681 angle=0.000 pulseDistance=0.51000
; 
; feature travel
PRIO_OFF
G0 X24.4947 Y-4.7173 ; cartesianDistance=1.06479 (Travel)
; 
; feature fill
PRIO_ON
G1 X15.27235 Y-24.4947 E8722.25359 ; EInc=42.78813 cartesianDistance=21.82194 angle=0.000 pulseDistance=0.51000
; 
; feature travel
PRIO_OFF
G0 X15.76887 Y-24.4947 ; cartesianDistance=0.49652 (Travel)
; 
; feature fill
PRIO_ON
G1 X24.4947 Y-5.78209 E8762.73805 ; EInc=40.48447 cartesianDistance=20.64708 angle=0.000 pulseDistance=0.51000
; 
; feature travel
PRIO_OFF
G0 X24.4947 Y-6.84688 ; cartesianDistance=1.06479 (Travel)
; 
; feature fill
PRIO_ON
G1 X16.26539 Y-24.4947 E8800.91886 ; EInc=38.18081 cartesianDistance=19.47221 angle=0.000 pulseDistance=0.51000
; 
; feature travel
PRIO_OFF
G0 X16.76191 Y-24.4947 ; cartesianDistance=0.49652 (Travel)
; 
; feature fill
PRIO_ON
G1 X24.4947 Y-7.91167 E8836.79601 ; EInc=35.87715 cartesianDistance=18.29735 angle=0.000 pulseDistance=0.51000
; 
; feature travel
PRIO_OFF
G0 X24.4947 Y-8.97646 ; cartesianDistance=1.06479 (Travel)
; 
; feature fill
PRIO_ON
G1 X17.25843 Y-24.4947 E8870.3695 ; EInc=33.57349 cartesianDistance=17.12248 angle=0.000 pulseDistance=0.51000
; 
; feature travel
PRIO_OFF
G0 X17.75495 Y-24.4947 ; cartesianDistance=0.49652 (Travel)
; 
; feature fill
PRIO_ON
G1 X24.4947 Y-10.04126 E8901.63932 ; EInc=31.26983 cartesianDistance=15.94761 angle=0.000 pulseDistance=0.51000
; 
; feature travel
PRIO_OFF
G0 X24.4947 Y-11.10605 ; cartesianDistance=1.06479 (Travel)
; 
; feature fill
PRIO_ON
G1 X18.25147 Y-24.4947 E8930.60549 ; EInc=28.96617 cartesianDistance=14.77275 angle=0.000 pulseDistance=0.51000
; 
; feature travel
PRIO_OFF
G0 X18.74799 Y-24.4947 ; cartesianDistance=0.49652 (Travel)
; 
; feature fill
PRIO_ON
G1 X24.4947 Y-12.17084 E8957.268 ; EInc=26.66251 cartesianDistance=13.59788 angle=0.000 pulseDistance=0.51000
; 
; feature travel
PRIO_OFF
G0 X24.4947 Y-13.23563 ; cartesianDistance=1.06479 (Travel)
; 
; feature fill
PRIO_ON
G1 X19.24451 Y-24.4947 E8981.62685 ; EInc=24.35885 cartesianDistance=12.42301 angle=0.000 pulseDistance=0.51000
; 
; feature travel
PRIO_OFF
G0 X19.74103 Y-24.4947 ; cartesianDistance=0.49652 (Travel)
; 
; feature fill
PRIO_ON
G1 X24.4947 Y-14.30042 E9003.68203 ; EInc=22.05519 cartesianDistance=11.24815 angle=0.000 pulseDistance=0.51000
; 
; feature travel
PRIO_OFF
G0 X24.4947 Y-15.36521 ; cartesianDistance=1.06479 (Travel)
; 
; feature fill
PRIO_ON
G1 X20.23755 Y-24.4947 E9023.43356 ; EInc=19.75153 cartesianDistance=10.07328 angle=0.000 pulseDistance=0.51000
; 
; feature travel
PRIO_OFF
G0 X20.73407 Y-24.4947 ; cartesianDistance=0.49652 (Travel)
; 
; feature fill
PRIO_ON
G1 X24.4947 Y-16.43 E9040.88143 ; EInc=17.44787 cartesianDistance=8.89841 angle=0.000 pulseDistance=0.51000
; 
; feature travel
PRIO_OFF
G0 X24.4947 Y-17.49479 ; cartesianDistance=1.06479 (Travel)
; 
; feature fill
PRIO_ON
G1 X21.23059 Y-24.4947 E9056.02564 ; EInc=15.14421 cartesianDistance=7.72355 angle=0.000 pulseDistance=0.51000
; 
; feature travel
PRIO_OFF
G0 X21.72711 Y-24.4947 ; cartesianDistance=0.49652 (Travel)
; 
; feature fill
PRIO_ON
G1 X24.4947 Y-18.55958 E9068.86619 ; EInc=12.84055 cartesianDistance=6.54868 angle=0.000 pulseDistance=0.51000
; 
; feature travel
PRIO_OFF
G0 X24.4947 Y-19.62437 ; cartesianDistance=1.06479 (Travel)
; 
; feature fill
PRIO_ON
G1 X22.22363 Y-24.4947 E9079.40307 ; EInc=10.53689 cartesianDistance=5.37381 angle=0.000 pulseDistance=0.51000
; 
; feature travel
PRIO_OFF
G0 X22.72015 Y-24.4947 ; cartesianDistance=0.49652 (Travel)
; 
; feature fill
PRIO_ON
G1 X24.4947 Y-20.68916 E9087.6363 ; EInc=8.23323 cartesianDistance=4.19895 angle=0.000 pulseDistance=0.51000
; 
; feature travel
PRIO_OFF
G0 X24.4947 Y-21.75395 ; cartesianDistance=1.06479 (Travel)
; 
; feature fill
PRIO_ON
G1 X23.21667 Y-24.4947 E9093.56587 ; EInc=5.92957 cartesianDistance=3.02408 angle=0.000 pulseDistance=0.51000
; 
; feature travel
PRIO_OFF
G0 X23.71319 Y-24.4947 ; cartesianDistance=0.49652 (Travel)
; 
; feature fill
PRIO_ON
G1 X24.4947 Y-22.81874 E9097.19178 ; EInc=3.62591 cartesianDistance=1.84921 angle=0.000 pulseDistance=0.51000
; 
; feature travel
PRIO_OFF
G0 X24.4947 Y-23.88353 ; cartesianDistance=1.06479 (Travel)
; 
; feature fill
PRIO_ON
G1 X24.20971 Y-24.4947 E9098.51403 ; EInc=1.32225 cartesianDistance=0.67435 angle=0.000 pulseDistance=0.51000
; 
; feature travel
PRIO_OFF
G0 X-24.4947 Y-21.39778 ; cartesianDistance=48.80277 (Travel)
; 
; feature fill
PRIO_ON
G1 X-3.09469 Y24.4947 E9197.80177 ; EInc=99.28774 cartesianDistance=50.63675 angle=0.000 pulseDistance=0.51000
; 
; feature travel
PRIO_OFF
G0 X-3.59121 Y24.4947 ; cartesianDistance=0.49652 (Travel)
; 
; feature fill
PRIO_ON
G1 X-24.4947 Y-20.33299 E9294.78585 ; EInc=96.98408 cartesianDistance=49.46188 angle=0.000 pulseDistance=0.51000
; 
; feature travel
PRIO_OFF
G0 X-24.4947 Y-19.2682 ; cartesianDistance=1.06479 (Travel)
; 
; feature fill
PRIO_ON
G1 X-4.08773 Y24.4947 E9389.46627 ; EInc=94.68042 cartesianDistance=48.28702 angle=0.000 pulseDistance=0.51000
; 
; feature travel
PRIO_OFF
G0 X-4.58425 Y24.4947 ; cartesianDistance=0.49652 (Travel)
; 
; feature fill
PRIO_ON
G1 X-24.4947 Y-18.20341 E9481.84304 ; EInc=92.37676 cartesianDistance=47.11215 angle=0.000 pulseDistance=0.51000
; 
; feature travel
PRIO_OFF
G0 X-24.4947 Y-17.13862 ; cartesianDistance=1.06479 (Travel)
; 
; feature fill
PRIO_ON
G1 X-5.08077 Y24.4947 E9571.91614 ; EInc=90.07310 cartesianDistance=45.93728 angle=0.000 pulseDistance=0.51000
; 
; feature travel
PRIO_OFF
G0 X-5.57729 Y24.4947 ; cartesianDistance=0.49652 (Travel)
; 
; feature fill
PRIO_ON
G1 X-24.4947 Y-16.07383 E9659.68558 ; EInc=87.76944 cartesianDistance=44.76242 angle=0.000 pulseDistance=0.51000
; 
; feature travel
PRIO_OFF
G0 X-24.4947 Y-15.00904 ; cartesianDistance=1.06479 (Travel)
; 
; feature fill
PRIO_ON
G1 X-6.07381 Y24.4947 E9745.15137 ; EInc=85.46578 cartesianDistance=43.58755 angle=0.000 pulseDistance=0.51000
; 
; feature travel
PRIO_OFF
G0 X-6.57033 Y24.4947 ; cartesianDistance=0.49652 (Travel)
; 
; feature fill
PRIO_ON
G1 X-24.4947 Y-13.94424 E9828.31349 ; EInc=83.16212 cartesianDistance=42.41268 angle=0.000 pulseDistance=0.51000
; 
; feature travel
PRIO_OFF
G0 X-24.4947 Y-12.87945 ; cartesianDistance=1.06479 (Travel)
; 
; feature fill
PRIO_ON
G1 X-7.06685 Y24.4947 E9909.17195 ; EInc=80.85846 cartesianDistance=41.23782 angle=0.000 pulseDistance=0.51000
; 
; feature travel
PRIO_OFF
G0 X-7.56337 Y24.4947 ; cartesianDistance=0.49652 (Travel)
; 
; feature fill
PRIO_ON
G1 X-24.4947 Y-11.81466 E9987.72676 ; EInc=78.55480 cartesianDistance=40.06295 angle=0.000 pulseDistance=0.51000
; 
; feature travel
PRIO_OFF
G0 X-24.4947 Y-10.74987 ; cartesianDistance=1.06479 (Travel)
; 
; feature fill
PRIO_ON
G1 X-8.05989 Y24.4947 E10063.9779 ; EInc=76.25114 cartesianDistance=38.88808 angle=0.000 pulseDistance=0.51000
; 
; feature travel
PRIO_OFF
G0 X-8.55641 Y24.4947 ; cartesianDistance=0.49652 (Travel)
; 
; feature fill
PRIO_ON
G1 X-24.4947 Y-9.68508 E10137.92538 ; EInc=73.94748 cartesianDistance=37.71322 angle=0.000 pulseDistance=0.51000
; 
; feature travel
PRIO_OFF
G0 X-24.4947 Y-8.62029 ; cartesianDistance=1.06479 (Travel)
; 
; feature fill
PRIO_ON
G1 X-9.05293 Y24.4947 E10209.56921 ; EInc=71.64382 cartesianDistance=36.53835 angle=0.000 pulseDistance=0.51000
; 
; feature travel
PRIO_OFF
G0 X-9.54945 Y24.4947 ; cartesianDistance=0.49652 (Travel)
; 
; feature fill
PRIO_ON
G1 X-24.4947 Y-7.5555 E10278.90937 ; EInc=69.34016 cartesianDistance=35.36348 angle=0.000 pulseDistance=0.51000
; 
; feature travel
PRIO_OFF
G0 X-24.4947 Y-6.49071 ; cartesianDistance=1.06479 (Travel)
; 
; feature fill
PRIO_ON
G1 X-10.04597 Y24.4947 E10345.94587 ; EInc=67.03650 cartesianDistance=34.18862 angle=0.000 pulseDistance=0.51000
; 
; feature travel
PRIO_OFF
G0 X-10.54249 Y24.4947 ; cartesianDistance=0.49652 (Travel)
; 
; feature fill
PRIO_ON
G1 X-24.4947 Y-5.42592 E10410.67872 ; EInc=64.73284 cartesianDistance=33.01375 angle=0.000 pulseDistance=0.51000
; 
; feature travel
PRIO_OFF
G0 X-24.4947 Y-4.36113 ; cartesianDistance=1.06479 (Travel)
; 
; feature fill
PRIO_ON
G1 X-11.03901 Y24.4947 E10473.1079 ; EInc=62.42918 cartesianDistance=31.83888 angle=0.000 pulseDistance=0.51000
; 
; feature travel
PRIO_OFF
G0 X-11.53553 Y24.4947 ; cartesianDistance=0.49652 (Travel)
; 
; feature fill
PRIO_ON
G1 X-24.4947 Y-3.29634 E10533.23343 ; EInc=60.12552 cartesianDistance=30.66402 angle=0.000 pulseDistance=0.51000
; 
; feature travel
PRIO_OFF
G0 X-24.4947 Y-2.23155 ; cartesianDistance=1.06479 (Travel)
; 
; feature fill
PRIO_ON
G1 X-12.03205 Y24.4947 E10591.05529 ; EInc=57.82186 cartesianDistance=29.48915 angle=0.000 pulseDistance=0.51000
; 
; feature travel
PRIO_OFF
G0 X-12.52857 Y24.4947 ; cartesianDistance=0.49652 (Travel)
; 
; feature fill
PRIO_ON
G1 X-24.4947 Y-1.16676 E10646.57349 ; EInc=55.51820 cartesianDistance=28.31428 angle=0.000 pulseDistance=0.51000
; 
; feature travel
PRIO_OFF
G0 X-24.4947 Y-0.10197 ; cartesianDistance=1.06479 (Travel)
; 
; feature fill
PRIO_ON
G1 X-13.02509 Y24.4947 E10699.78804 ; EInc=53.21454 cartesianDistance=27.13942 angle=0.000 pulseDistance=0.51000
; 
; feature travel
PRIO_OFF
G0 X-13.52161 Y24.4947 ; cartesianDistance=0.49652 (Travel)
; 
; feature fill
PRIO_ON
G1 X-24.4947 Y0.96283 E10750.69892 ; EInc=50.91088 cartesianDistance=25.96455 angle=0.000 pulseDistance=0.51000
; 
; feature travel
PRIO_OFF
G0 X-24.4947 Y2.02762 ; cartesianDistance=1.06479 (Travel)
; 
; feature fill
PRIO_ON
G1 X-14.01813 Y24.4947 E10799.30615 ; EInc=48.60722 cartesianDistance=24.78968 angle=0.000 pulseDistance=0.51000
; 
; feature travel
PRIO_OFF
G0 X-14.51465 Y24.4947 ; cartesianDistance=0.49652 (Travel)
; 
; feature fill
PRIO_ON
G1 X-24.4947 Y3.09241 E10845.60971 ; EInc=46.30356 cartesianDistance=23.61482 angle=0.000 pulseDistance=0.51000
; 
; feature travel
PRIO_OFF
G0 X-24.4947 Y4.1572 ; cartesianDistance=1.06479 (Travel)
; 
; feature fill
PRIO_ON
G1 X-15.01117 Y24.4947 E10889.60962 ; EInc=43.99990 cartesianDistance=22.43995 angle=0.000 pulseDistance=0.51000
; 
; feature travel
PRIO_OFF
G0 X-15.50769 Y24.4947 ; cartesianDistance=0.49652 (Travel)
; 
; feature fill
PRIO_ON
G1 X-24.4947 Y5.22199 E10931.30586 ; EInc=41.69624 cartesianDistance=21.26508 angle=0.000 pulseDistance=0.51000
; 
; feature travel
PRIO_OFF
G0 X-24.4947 Y6.28678 ; cartesianDistance=1.06479 (Travel)
; 
; feature fill
PRIO_ON
G1 X-16.00421 Y24.4947 E10970.69845 ; EInc=39.39258 cartesianDistance=20.09022 angle=0.000 pulseDistance=0.51000
; 
; feature travel
PRIO_OFF
G0 X-16.50073 Y24.4947 ; cartesianDistance=0.49652 (Travel)
; 
; feature fill
PRIO_ON
G1 X-24.4947 Y7.35157 E11007.78737 ; EInc=37.08892 cartesianDistance=18.91535 angle=0.000 pulseDistance=0.51000
; 
; feature travel
PRIO_OFF
G0 X-24.4947 Y8.41636 ; cartesianDistance=1.06479 (Travel)
; 
; feature fill
PRIO_ON
G1 X-16.99725 Y24.4947 E11042.57264 ; EInc=34.78526 cartesianDistance=17.74049 angle=0.000 pulseDistance=0.51000
; 
; feature travel
PRIO_OFF
G0 X-17.49377 Y24.4947 ; cartesianDistance=0.49652 (Travel)
; 
; feature fill
PRIO_ON
G1 X-24.4947 Y9.48115 E11075.05424 ; EInc=32.48160 cartesianDistance=16.56562 angle=0.000 pulseDistance=0.51000
; 
; feature travel
PRIO_OFF
G0 X-24.4947 Y10.54594 ; cartesianDistance=1.06479 (Travel)
; 
; feature fill
PRIO_ON
G1 X-17.99029 Y24.4947 E11105.23218 ; EInc=30.17794 cartesianDistance=15.39075 angle=0.000 pulseDistance=0.51000
; 
; feature travel
PRIO_OFF
G0 X-18.48681 Y24.4947 ; cartesianDistance=0.49652 (Travel)
; 
; feature fill
PRIO_ON
G1 X-24.4947 Y11.61073 E11133.10647 ; EInc=27.87429 cartesianDistance=14.21589 angle=0.000 pulseDistance=0.51000
; 
; feature travel
PRIO_OFF
G0 X-24.4947 Y12.67552 ; cartesianDistance=1.06479 (Travel)
; 
; feature fill
PRIO_ON
G1 X-18.98333 Y24.4947 E11158.6771 ; EInc=25.57063 cartesianDistance=13.04102 angle=0.000 pulseDistance=0.51000
; 
; feature travel
PRIO_OFF
G0 X-19.47985 Y24.4947 ; cartesianDistance=0.49652 (Travel)
; 
; feature fill
PRIO_ON
G1 X-24.4947 Y13.74031 E11181.94406 ; EInc=23.26697 cartesianDistance=11.86615 angle=0.000 pulseDistance=0.51000
; 
; feature travel
PRIO_OFF
G0 X-24.4947 Y14.8051 ; cartesianDistance=1.06479 (Travel)
; 
; feature fill
PRIO_ON
G1 X-19.97637 Y24.4947 E11202.90737 ; EInc=20.96331 cartesianDistance=10.69129 angle=0.000 pulseDistance=0.51000
; 
; feature travel
PRIO_OFF
G0 X-20.47289 Y24.4947 ; cartesianDistance=0.49652 (Travel)
; 
; feature fill
PRIO_ON
G1 X-24.4947 Y15.8699 E11221.56701 ; EInc=18.65965 cartesianDistance=9.51642 angle=0.000 pulseDistance=0.51000
; 
; feature travel
PRIO_OFF
G0 X-24.4947 Y16.93469 ; cartesianDistance=1.06479 (Travel)
; 
; feature fill
PRIO_ON
G1 X-20.96941 Y24.4947 E11237.923 ; EInc=16.35599 cartesianDistance=8.34155 angle=0.000 pulseDistance=0.51000
; 
; feature travel
PRIO_OFF
G0 X-21.46593 Y24.4947 ; cartesianDistance=0.49652 (Travel)
; 
; feature fill
PRIO_ON
G1 X-24.4947 Y17.99948 E11251.97532 ; EInc=14.05233 cartesianDistance=7.16669 angle=0.000 pulseDistance=0.51000
; 
; feature travel
PRIO_OFF
G0 X-24.4947 Y19.06427 ; cartesianDistance=1.06479 (Travel)
; 
; feature fill
PRIO_ON
G1 X-21.96245 Y24.4947 E11263.72399 ; EInc=11.74867 cartesianDistance=5.99182 angle=0.000 pulseDistance=0.51000
; 
; feature travel
PRIO_OFF
G0 X-22.45897 Y24.4947 ; cartesianDistance=0.49652 (Travel)
; 
; feature fill
PRIO_ON
G1 X-24.4947 Y20.12906 E11273.16899 ; EInc=9.44501 cartesianDistance=4.81695 angle=0.000 pulseDistance=0.51000
; 
; feature travel
PRIO_OFF
G0 X-24.4947 Y21.19385 ; cartesianDistance=1.06479 (Travel)
; 
; feature fill
PRIO_ON
G1 X-22.95549 Y24.4947 E11280.31034 ; EInc=7.14135 cartesianDistance=3.64209 angle=0.000 pulseDistance=0.51000
; 
; feature travel
PRIO_OFF
G0 X-23.45201 Y24.4947 ; cartesianDistance=0.49652 (Travel)
; 
; feature fill
PRIO_ON
G1 X-24.4947 Y22.25864 E11285.14802 ; EInc=4.83769 cartesianDistance=2.46722 angle=0.000 pulseDistance=0.51000
; 
; feature travel
PRIO_OFF
G0 X-24.4947 Y23.32343 ; cartesianDistance=1.06479 (Travel)
; 
; feature fill
PRIO_ON
G1 X-23.94853 Y24.4947 E11287.68205 ; EInc=2.53403 cartesianDistance=1.29235 angle=0.000 pulseDistance=0.51000
; 
; feature travel
PRIO_OFF
G0 X-24.44505 Y24.4947 ; cartesianDistance=0.49652 (Travel)
; 
; feature fill
PRIO_ON
G1 X-24.4947 Y24.38822 E11287.91242 ; EInc=0.23037 cartesianDistance=0.11749 angle=0.000 pulseDistance=0.51000
PRIO_OFF
LayersCompleted=2
M1
; 
;========================
; layer 2, Z = 0.7200
; 
; reset extrusion
STOPRE
PRESETON(E, 0)
DO PRIO_PULSE_DISTANCE=DROP_SCALE
DO PRIO_ON_PATH_OFFSET=0.5*PRIO_PULSE_DISTANCE
;outer: (25.2604,-25.2604) (25.2604,25.2604) (-25.2604,25.2604) (-25.2604,-25.2604) (-22.2604,-25.2604) holes: !
;overhangs:!
; 
; feature plane change
G0 X-24.4947 Y24.38822 Z0.72 ; cartesianDistance=0.00000 (Plane Change)
; 
; feature travel
G0 X24.8454 Y18.28834 ; cartesianDistance=49.71573 (Travel)
; 
; feature outer perimeter
G1 F24000 FL[E] = OuterPerimeterFrequency * DROP_SCALE * 60
PRIO_ON
G1 X24.8454 Y24.8454 E15.42838 ; EInc=15.42838 cartesianDistance=6.55706 angle=90.000 pulseDistance=0.42500
G1 X-24.8454 Y24.8454 E132.34791 ; EInc=116.91953 cartesianDistance=49.69080 angle=90.000 pulseDistance=0.42500
G1 X-24.8454 Y-24.8454 E249.26744 ; EInc=116.91953 cartesianDistance=49.69080 angle=90.000 pulseDistance=0.42500
G1 X24.8454 Y-24.8454 E366.18697 ; EInc=116.91953 cartesianDistance=49.69080 angle=90.000 pulseDistance=0.42500
G1 X24.8454 Y18.28834 E467.67812 ; EInc=101.49115 cartesianDistance=43.13374 angle=180.000 pulseDistance=0.42500
; 
; feature travel
PRIO_OFF
G0 X24.4944 Y18.28834 ; cartesianDistance=0.35100 (Travel)
; 
; feature inner perimeter
G1 F24000 FL[E] = InnerPerimeterFrequency * DROP_SCALE * 60
PRIO_ON
G1 X24.4944 Y-24.4944 E546.90541 ; EInc=79.22729 cartesianDistance=42.78274 angle=90.000 pulseDistance=0.54000
G1 X-24.4944 Y-24.4944 E637.62541 ; EInc=90.72000 cartesianDistance=48.98880 angle=90.000 pulseDistance=0.54000
G1 X-24.4944 Y24.4944 E728.34541 ; EInc=90.72000 cartesianDistance=48.98880 angle=90.000 pulseDistance=0.54000
G1 X24.4944 Y24.4944 E819.06541 ; EInc=90.72000 cartesianDistance=48.98880 angle=90.000 pulseDistance=0.54000
G1 X24.4944 Y18.28834 E830.55812 ; EInc=11.49271 cartesianDistance=6.20606 angle=180.000 pulseDistance=0.54000
; 
; feature travel
PRIO_OFF
G0 X24.4947 Y18.66072 ; cartesianDistance=0.37238 (Travel)
; 
; feature fill
G1 F24000 FL[E] = FillFrequency * DROP_SCALE * 60
PRIO_ON
G1 X22.3713 Y24.4947 E842.73144 ; EInc=12.17332 cartesianDistance=6.20839 angle=0.000 pulseDistance=0.51000
; 
; feature travel
PRIO_OFF
G0 X22.85018 Y24.4947 ; cartesianDistance=0.47888 (Travel)
; 
; feature fill
PRIO_ON
G1 X24.4947 Y19.97643 E852.15936 ; EInc=9.42793 cartesianDistance=4.80824 angle=0.000 pulseDistance=0.51000
; 
; feature travel
PRIO_OFF
G0 X24.4947 Y21.29214 ; cartesianDistance=1.31571 (Travel)
; 
; feature fill
PRIO_ON
G1 X23.32906 Y24.4947 E858.8419 ; EInc=6.68253 cartesianDistance=3.40809 angle=0.000 pulseDistance=0.51000
; 
; feature travel
PRIO_OFF
G0 X23.80794 Y24.4947 ; cartesianDistance=0.47888 (Travel)
; 
; feature fill
PRIO_ON
G1 X24.4947 Y22.60785 E862.77903 ; EInc=3.93714 cartesianDistance=2.00794 angle=0.000 pulseDistance=0.51000
; 
; feature travel
PRIO_OFF
G0 X24.4947 Y23.92357 ; cartesianDistance=1.31571 (Travel)
; 
; feature fill
PRIO_ON
G1 X24.28682 Y24.4947 E863.97077 ; EInc=1.19174 cartesianDistance=0.60779 angle=0.000 pulseDistance=0.51000
; 
; feature travel
PRIO_OFF
G0 X21.89242 Y24.4947 ; cartesianDistance=2.39440 (Travel)
; 
; feature fill
PRIO_ON
G1 X24.4947 Y17.34501 E878.88949 ; EInc=14.91872 cartesianDistance=7.60855 angle=0.000 pulseDistance=0.51000
; 
; feature travel
PRIO_OFF
G0 X24.4947 Y16.02929 ; cartesianDistance=1.31571 (Travel)
; 
; feature fill
PRIO_ON
G1 X21.41354 Y24.4947 E896.5536 ; EInc=17.66411 cartesianDistance=9.00870 angle=0.000 pulseDistance=0.51000
; 
; feature travel
PRIO_OFF
G0 X20.93466 Y24.4947 ; cartesianDistance=0.47888 (Travel)
; 
; feature fill
PRIO_ON
G1 X24.4947 Y14.71358 E916.96311 ; EInc=20.40951 cartesianDistance=10.40885 angle=0.000 pulseDistance=0.51000
; 
; feature travel
PRIO_OFF
G0 X24.4947 Y13.39787 ; cartesianDistance=1.31571 (Travel)
; 
; feature fill
PRIO_ON
G1 X20.45578 Y24.4947 E940.11801 ; EInc=23.15490 cartesianDistance=11.80900 angle=0.000 pulseDistance=0.51000
; 
; feature travel
PRIO_OFF
G0 X19.9769 Y24.4947 ; cartesianDistance=0.47888 (Travel)
; 
; feature fill
PRIO_ON
G1 X24.4947 Y12.08216 E966.0183 ; EInc=25.90030 cartesianDistance=13.20915 angle=0.000 pulseDistance=0.51000
; 
; feature travel
PRIO_OFF
G0 X24.4947 Y10.76645 ; cartesianDistance=1.31571 (Travel)
; 
; feature fill
PRIO_ON
G1 X19.49802 Y24.4947 E994.66399 ; EInc=28.64569 cartesianDistance=14.60930 angle=0.000 pulseDistance=0.51000
; 
; feature travel
PRIO_OFF
G0 X19.01914 Y24.4947 ; cartesianDistance=0.47888 (Travel)
; 
; feature fill
PRIO_ON
G1 X24.4947 Y9.45073 E1026.05508 ; EInc=31.39109 cartesianDistance=16.00945 angle=0.000 pulseDistance=0.51000
; 
; feature travel
PRIO_OFF
G0 X24.4947 Y8.13502 ; cartesianDistance=1.31571 (Travel)
; 
; feature fill
PRIO_ON
G1 X18.54026 Y24.4947 E1060.19156 ; EInc=34.13648 cartesianDistance=17.40961 angle=0.000 pulseDistance=0.51000
; 
; feature travel
PRIO_OFF
G0 X18.06138 Y24.4947 ; cartesianDistance=0.47888 (Travel)
; 
; feature fill
PRIO_ON
G1 X24.4947 Y6.81931 E1097.07344 ; EInc=36.88188 cartesianDistance=18.80976 angle=0.000 pulseDistance=0.51000
; 
; feature travel
PRIO_OFF
G0 X24.4947 Y5.5036 ; cartesianDistance=1.31571 (Travel)
; 
; feature fill
PRIO_ON
G1 X17.5825 Y24.4947 E1136.70071 ; EInc=39.62727 cartesianDistance=20.20991 angle=0.000 pulseDistance=0.51000
; 
; feature travel
PRIO_OFF
G0 X17.10362 Y24.4947 ; cartesianDistance=0.47888 (Travel)
; 
; feature fill
PRIO_ON
G1 X24.4947 Y4.18789 E1179.07337 ; EInc=42.37267 cartesianDistance=21.61006 angle=0.000 pulseDistance=0.51000
; 
; feature travel
PRIO_OFF
G0 X24.4947 Y2.87217 ; cartesianDistance=1.31571 (Travel)
; 
; feature fill
PRIO_ON
G1 X16.62474 Y24.4947 E1224.19143 ; EInc=45.11806 cartesianDistance=23.01021 angle=0.000 pulseDistance=0.51000
; 
; feature travel
PRIO_OFF
G0 X16.14586 Y24.4947 ; cartesianDistance=0.47888 (Travel)
; 
; feature fill
PRIO_ON
G1 X24.4947 Y1.55646 E1272.05489 ; EInc=47.86346 cartesianDistance=24.41036 angle=0.000 pulseDistance=0.51000
; 
; feature travel
PRIO_OFF
G0 X24.4947 Y0.24075 ; cartesianDistance=1.31571 (Travel)
; 
; feature fill
PRIO_ON
G1 X15.66698 Y24.4947 E1322.66374 ; EInc=50.60885 cartesianDistance=25.81051 angle=0.000 pulseDistance=0.51000
; 
; feature travel
PRIO_OFF
G0 X15.1881 Y24.4947 ; cartesianDistance=0.47888 (Travel)
; 
; feature fill
PRIO_ON
G1 X24.4947 Y-1.07496 E1376.01799 ; EInc=53.35425 cartesianDistance=27.21067 angle=0.000 pulseDistance=0.51000
; 
; feature travel
PRIO_OFF
G0 X24.4947 Y-2.39067 ; cartesianDistance=1.31571 (Travel)
; 
; feature fill
PRIO_ON
G1 X14.70922 Y24.4947 E1432.11763 ; EInc=56.09964 cartesianDistance=28.61082 angle=0.000 pulseDistance=0.51000
; 
; feature travel
PRIO_OFF
G0 X14.23034 Y24.4947 ; cartesianDistance=0.47888 (Travel)
; 
; feature fill
PRIO_ON
G1 X24.4947 Y-3.70639 E1490.96266 ; EInc=58.84504 cartesianDistance=30.01097 angle=0.000 pulseDistance=0.51000
; 
; feature travel
PRIO_OFF
G0 X24.4947 Y-5.0221 ; cartesianDistance=1.31571 (Travel)
; 
; feature fill
PRIO_ON
G1 X13.75146 Y24.4947 E1552.5531 ; EInc=61.59043 cartesianDistance=31.41112 angle=0.000 pulseDistance=0.51000
; 
; feature travel
PRIO_OFF
G0 X13.27258 Y24.4947 ; cartesianDistance=0.47888 (Travel)
; 
; feature fill
PRIO_ON
G1 X24.4947 Y-6.33781 E1616.88892 ; EInc=64.33583 cartesianDistance=32.81127 angle=0.000 pulseDistance=0.51000
; 
; feature travel
PRIO_OFF
G0 X24.4947 Y-7.65352 ; cartesianDistance=1.31571 (Travel)
; 
; feature fill
PRIO_ON
G1 X12.7937 Y24.4947 E1683.97014 ; EInc=67.08122 cartesianDistance=34.21142 angle=0.000 pulseDistance=0.51000
; 
; feature travel
PRIO_OFF
G0 X12.31482 Y24.4947 ; cartesianDistance=0.47888 (Travel)
; 
; feature fill
PRIO_ON
G1 X24.4947 Y-8.96923 E1753.79676 ; EInc=69.82662 cartesianDistance=35.61157 angle=0.000 pulseDistance=0.51000
; 
; feature travel
PRIO_OFF
G0 X24.4947 Y-10.28495 ; cartesianDistance=1.31571 (Travel)
; 
; feature fill
PRIO_ON
G1 X11.83594 Y24.4947 E1826.36877 ; EInc=72.57201 cartesianDistance=37.01173 angle=0.000 pulseDistance=0.51000
; 
; feature travel
PRIO_OFF
G0 X11.35706 Y24.4947 ; cartesianDistance=0.47888 (Travel)
; 
; feature fill
PRIO_ON
G1 X24.4947 Y-11.60066 E1901.68617 ; EInc=75.31741 cartesianDistance=38.41188 angle=0.000 pulseDistance=0.51000
; 
; feature travel
PRIO_OFF
G0 X24.4947 Y-12.91637 ; cartesianDistance=1.31571 (Travel)
; 
; feature fill
PRIO_ON
G1 X10.87818 Y24.4947 E1979.74898 ; EInc=78.06280 cartesianDistance=39.81203 angle=0.000 pulseDistance=0.51000
; 
; feature travel
PRIO_OFF
G0 X10.3993 Y24.4947 ; cartesianDistance=0.47888 (Travel)
; 
; feature fill
PRIO_ON
G1 X24.4947 Y-14.23208 E2060.55717 ; EInc=80.80820 cartesianDistance=41.21218 angle=0.000 pulseDistance=0.51000
; 
; feature travel
PRIO_OFF
G0 X24.4947 Y-15.54779 ; cartesianDistance=1.31571 (Travel)
; 
; feature fill
PRIO_ON
G1 X9.92042 Y24.4947 E2144.11076 ; EInc=83.55359 cartesianDistance=42.61233 angle=0.000 pulseDistance=0.51000
; 
; feature travel
PRIO_OFF
G0 X9.44154 Y24.4947 ; cartesianDistance=0.47888 (Travel)
; 
; feature fill
PRIO_ON
G1 X24.4947 Y-16.86351 E2230.40975 ; EInc=86.29899 cartesianDistance=44.01248 angle=0.000 pulseDistance=0.51000
; 
; feature travel
PRIO_OFF
G0 X24.4947 Y-18.17922 ; cartesianDistance=1.31571 (Travel)
; 
; feature fill
PRIO_ON
G1 X8.96266 Y24.4947 E2319.45413 ; EInc=89.04438 cartesianDistance=45.41263 angle=0.000 pulseDistance=0.51000
; 
; feature travel
PRIO_OFF
G0 X8.48378 Y24.4947 ; cartesianDistance=0.47888 (Travel)
; 
; feature fill
PRIO_ON
G1 X24.4947 Y-19.49493 E2411.2439 ; EInc=91.78978 cartesianDistance=46.81279 angle=0.000 pulseDistance=0.51000
; 
; feature travel
PRIO_OFF
G0 X24.4947 Y-20.81064 ; cartesianDistance=1.31571 (Travel)
; 
; feature fill
PRIO_ON
G1 X8.0049 Y24.4947 E2505.77907 ; EInc=94.53517 cartesianDistance=48.21294 angle=0.000 pulseDistance=0.51000
; 
; feature travel
PRIO_OFF
G0 X7.52602 Y24.4947 ; cartesianDistance=0.47888 (Travel)
; 
; feature fill
PRIO_ON
G1 X24.4947 Y-22.12635 E2603.05964 ; EInc=97.28057 cartesianDistance=49.61309 angle=0.000 pulseDistance=0.51000
; 
; feature travel
PRIO_OFF
G0 X24.4947 Y-23.44207 ; cartesianDistance=1.31571 (Travel)
; 
; feature fill
PRIO_ON
G1 X7.04714 Y24.4947 E2703.0856 ; EInc=100.02596 cartesianDistance=51.01324 angle=0.000 pulseDistance=0.51000
; 
; feature travel
PRIO_OFF
G0 X6.56826 Y24.4947 ; cartesianDistance=0.47888 (Travel)
; 
; feature fill
PRIO_ON
G1 X24.39895 Y-24.4947 E2805.30801 ; EInc=102.22241 cartesianDistance=52.13343 angle=0.000 pulseDistance=0.51000
; 
; feature travel
PRIO_OFF
G0 X23.92007 Y-24.4947 ; cartesianDistance=0.47888 (Travel)
; 
; feature fill
PRIO_ON
G1 X6.08938 Y24.4947 E2907.53043 ; EInc=102.22241 cartesianDistance=52.13343 angle=0.000 pulseDistance=0.51000
; 
; feature travel
PRIO_OFF
G0 X5.6105 Y24.4947 ; cartesianDistance=0.47888 (Travel)
; 
; feature fill
PRIO_ON
G1 X23.44119 Y-24.4947 E3009.75284 ; EInc=102.22241 cartesianDistance=52.13343 angle=0.000 pulseDistance=0.51000
; 
; feature travel
PRIO_OFF
G0 X22.96231 Y-24.4947 ; cartesianDistance=0.47888 (Travel)
; 
; feature fill
PRIO_ON
G1 X5.13162 Y24.4947 E3111.97525 ; EInc=102.22241 cartesianDistance=52.13343 angle=0.000 pulseDistance=0.51000
; 
; feature travel
PRIO_OFF
G0 X4.65274 Y24.4947 ; cartesianDistance=0.47888 (Travel)
; 
; feature fill
PRIO_ON
G1 X22.48343 Y-24.4947 E3214.19767 ; EInc=102.22241 cartesianDistance=52.13343 angle=0.000 pulseDistance=0.51000
; 
; feature travel
PRIO_OFF
G0 X22.00455 Y-24.4947 ; cartesianDistance=0.47888 (Travel)
; 
; feature fill
PRIO_ON
G1 X4.17386 Y24.4947 E3316.42008 ; EInc=102.22241 cartesianDistance=52.13343 angle=0.000 pulseDistance=0.51000
; 
; feature travel
PRIO_OFF
G0 X3.69498 Y24.4947 ; cartesianDistance=0.47888 (Travel)
; 
; feature fill
PRIO_ON
G1 X21.52567 Y-24.4947 E3418.64249 ; EInc=102.22241 cartesianDistance=52.13343 angle=0.000 pulseDistance=0.51000
; 
; feature travel
PRIO_OFF
G0 X21.04679 Y-24.4947 ; cartesianDistance=0.47888 (Travel)
; 
; feature fill
PRIO_ON
G1 X3.2161 Y24.4947 E3520.8649 ; EInc=102.22241 cartesianDistance=52.13343 angle=0.000 pulseDistance=0.51000
; 
; feature travel
PRIO_OFF
G0 X2.73722 Y24.4947 ; cartesianDistance=0.47888 (Travel)
; 
; feature fill
PRIO_ON
G1 X20.56791 Y-24.4947 E3623.08732 ; EInc=102.22241 cartesianDistance=52.13343 angle=0.000 pulseDistance=0.51000
; 
; feature travel
PRIO_OFF
G0 X20.08903 Y-24.4947 ; cartesianDistance=0.47888 (Travel)
; 
; feature fill
PRIO_ON
G1 X2.25834 Y24.4947 E3725.30973 ; EInc=102.22241 cartesianDistance=52.13343 angle=0.000 pulseDistance=0.51000
; 
; feature travel
PRIO_OFF
G0 X1.77946 Y24.4947 ; cartesianDistance=0.47888 (Travel)
; 
; feature fill
PRIO_ON
G1 X19.61015 Y-24.4947 E3827.53214 ; EInc=102.22241 cartesianDistance=52.13343 angle=0.000 pulseDistance=0.51000
; 
; feature travel
PRIO_OFF
G0 X19.13127 Y-24.4947 ; cartesianDistance=0.47888 (Travel)
; 
; feature fill
PRIO_ON
G1 X1.30058 Y24.4947 E3929.75456 ; EInc=102.22241 cartesianDistance=52.13343 angle=0.000 pulseDistance=0.51000
; 
; feature travel
PRIO_OFF
G0 X0.8217 Y24.4947 ; cartesianDistance=0.47888 (Travel)
; 
; feature fill
PRIO_ON
G1 X18.65239 Y-24.4947 E4031.97697 ; EInc=102.22241 cartesianDistance=52.13343 angle=0.000 pulseDistance=0.51000
; 
; feature travel
PRIO_OFF
G0 X18.17351 Y-24.4947 ; cartesianDistance=0.47888 (Travel)
; 
; feature fill
PRIO_ON
G1 X0.34282 Y24.4947 E4134.19938 ; EInc=102.22241 cartesianDistance=52.13343 angle=0.000 pulseDistance=0.51000
; 
; feature travel
PRIO_OFF
G0 X-0.13606 Y24.4947 ; cartesianDistance=0.47888 (Travel)
; 
; feature fill
PRIO_ON
G1 X17.69463 Y-24.4947 E4236.42179 ; EInc=102.22241 cartesianDistance=52.13343 angle=0.000 pulseDistance=0.51000
; 
; feature travel
PRIO_OFF
G0 X17.21575 Y-24.4947 ; cartesianDistance=0.47888 (Travel)
; 
; feature fill
PRIO_ON
G1 X-0.61494 Y24.4947 E4338.64421 ; EInc=102.22241 cartesianDistance=52.13343 angle=0.000 pulseDistance=0.51000
; 
; feature travel
PRIO_OFF
G0 X-1.09382 Y24.4947 ; cartesianDistance=0.47888 (Travel)
; 
; feature fill
PRIO_ON
G1 X16.73687 Y-24.4947 E4440.86662 ; EInc=102.22241 cartesianDistance=52.13343 angle=0.000 pulseDistance=0.51000
; 
; feature travel
PRIO_OFF
G0 X16.25799 Y-24.4947 ; cartesianDistance=0.47888 (Travel)
; 
; feature fill
PRIO_ON
G1 X-1.5727 Y24.4947 E4543.08903 ; EInc=102.22241 cartesianDistance=52.13343 angle=0.000 pulseDistance=0.51000
; 
; feature travel
PRIO_OFF
G0 X-2.05158 Y24.4947 ; cartesianDistance=0.47888 (Travel)
; 
; feature fill
PRIO_ON
G1 X15.77911 Y-24.4947 E4645.31145 ; EInc=102.22241 cartesianDistance=52.13343 angle=0.000 pulseDistance=0.51000
; 
; feature travel
PRIO_OFF
G0 X15.30023 Y-24.4947 ; cartesianDistance=0.47888 (Travel)
; 
; feature fill
PRIO_ON
G1 X-2.53046 Y24.4947 E4747.53386 ; EInc=102.22241 cartesianDistance=52.13343 angle=0.000 pulseDistance=0.51000
; 
; feature travel
PRIO_OFF
G0 X-3.00934 Y24.4947 ; cartesianDistance=0.47888 (Travel)
; 
; feature fill
PRIO_ON
G1 X14.82135 Y-24.4947 E4849.75627 ; EInc=102.22241 cartesianDistance=52.13343 angle=0.000 pulseDistance=0.51000
; 
; feature travel
PRIO_OFF
G0 X14.34247 Y-24.4947 ; cartesianDistance=0.47888 (Travel)
; 
; feature fill
PRIO_ON
G1 X-3.48822 Y24.4947 E4951.97868 ; EInc=102.22241 cartesianDistance=52.13343 angle=0.000 pulseDistance=0.51000
; 
; feature travel
PRIO_OFF
G0 X-3.9671 Y24.4947 ; cartesianDistance=0.47888 (Travel)
; 
; feature fill
PRIO_ON
G1 X13.86359 Y-24.4947 E5054.2011 ; EInc=102.22241 cartesianDistance=52.13343 angle=0.000 pulseDistance=0.51000
; 
; feature travel
PRIO_OFF
G0 X13.38471 Y-24.4947 ; cartesianDistance=0.47888 (Travel)
; 
; feature fill
PRIO_ON
G1 X-4.44598 Y24.4947 E5156.42351 ; EInc=102.22241 cartesianDistance=52.13343 angle=0.000 pulseDistance=0.51000
; 
; feature travel
PRIO_OFF
G0 X-4.92486 Y24.4947 ; cartesianDistance=0.47888 (Travel)
; 
; feature fill
PRIO_ON
G1 X12.90583 Y-24.4947 E5258.64592 ; EInc=102.22241 cartesianDistance=52.13343 angle=0.000 pulseDistance=0.51000
; 
; feature travel
PRIO_OFF
G0 X12.42695 Y-24.4947 ; cartesianDistance=0.47888 (Travel)
; 
; feature fill
PRIO_ON
G1 X-5.40374 Y24.4947 E5360.86834 ; EInc=102.22241 cartesianDistance=52.13343 angle=0.000 pulseDistance=0.51000
; 
; feature travel
PRIO_OFF
G0 X-5.88262 Y24.4947 ; cartesianDistance=0.47888 (Travel)
; 
; feature fill
PRIO_ON
G1 X11.94807 Y-24.4947 E5463.09075 ; EInc=102.22241 cartesianDistance=52.13343 angle=0.000 pulseDistance=0.51000
; 
; feature travel
PRIO_OFF
G0 X11.46919 Y-24.4947 ; cartesianDistance=0.47888 (Travel)
; 
; feature fill
PRIO_ON
G1 X-6.3615 Y24.4947 E5565.31316 ; EInc=102.22241 cartesianDistance=52.13343 angle=0.000 pulseDistance=0.51000
; 
; feature travel
PRIO_OFF
G0 X-6.84038 Y24.4947 ; cartesianDistance=0.47888 (Travel)
; 
; feature fill
PRIO_ON
G1 X10.99031 Y-24.4947 E5667.53557 ; EInc=102.22241 cartesianDistance=52.13343 angle=0.000 pulseDistance=0.51000
; 
; feature travel
PRIO_OFF
G0 X10.51143 Y-24.4947 ; cartesianDistance=0.47888 (Travel)
; 
; feature fill
PRIO_ON
G1 X-7.31926 Y24.4947 E5769.75799 ; EInc=102.22241 cartesianDistance=52.13343 angle=0.000 pulseDistance=0.51000
; 
; feature travel
PRIO_OFF
G0 X-7.79814 Y24.4947 ; cartesianDistance=0.47888 (Travel)
; 
; feature fill
PRIO_ON
G1 X10.03255 Y-24.4947 E5871.9804 ; EInc=102.22241 cartesianDistance=52.13343 angle=0.000 pulseDistance=0.51000
; 
; feature travel
PRIO_OFF
G0 X9.55367 Y-24.4947 ; cartesianDistance=0.47888 (Travel)
; 
; feature fill
PRIO_ON
G1 X-8.27702 Y24.4947 E5974.20281 ; EInc=102.22241 cartesianDistance=52.13343 angle=0.000 pulseDistance=0.51000
; 
; feature travel
PRIO_OFF
G0 X-8.7559 Y24.4947 ; cartesianDistance=0.47888 (Travel)
; 
; feature fill
PRIO_ON
G1 X9.07479 Y-24.4947 E6076.42523 ; EInc=102.22241 cartesianDistance=52.13343 angle=0.000 pulseDistance=0.51000
; 
; feature travel
PRIO_OFF
G0 X8.59591 Y-24.4947 ; cartesianDistance=0.47888 (Travel)
; 
; feature fill
PRIO_ON
G1 X-9.23478 Y24.4947 E6178.64764 ; EInc=102.22241 cartesianDistance=52.13343 angle=0.000 pulseDistance=0.51000
; 
; feature travel
PRIO_OFF
G0 X-9.71366 Y24.4947 ; cartesianDistance=0.47888 (Travel)
; 
; feature fill
PRIO_ON
G1 X8.11703 Y-24.4947 E6280.87005 ; EInc=102.22241 cartesianDistance=52.13343 angle=0.000 pulseDistance=0.51000
; 
; feature travel
PRIO_OFF
G0 X7.63815 Y-24.4947 ; cartesianDistance=0.47888 (Travel)
; 
; feature fill
PRIO_ON
G1 X-10.19254 Y24.4947 E6383.09246 ; EInc=102.22241 cartesianDistance=52.13343 angle=0.000 pulseDistance=0.51000
; 
; feature travel
PRIO_OFF
G0 X-10.67142 Y24.4947 ; cartesianDistance=0.47888 (Travel)
; 
; feature fill
PRIO_ON
G1 X7.15927 Y-24.4947 E6485.31488 ; EInc=102.22241 cartesianDistance=52.13343 angle=0.000 pulseDistance=0.51000
; 
; feature travel
PRIO_OFF
G0 X6.68039 Y-24.4947 ; cartesianDistance=0.47888 (Travel)
; 
; feature fill
PRIO_ON
G1 X-11.1503 Y24.4947 E6587.53729 ; EInc=102.22241 cartesianDistance=52.13343 angle=0.000 pulseDistance=0.51000
; 
; feature travel
PRIO_OFF
G0 X-11.62918 Y24.4947 ; cartesianDistance=0.47888 (Travel)
; 
; feature fill
PRIO_ON
G1 X6.20151 Y-24.4947 E6689.7597 ; EInc=102.22241 cartesianDistance=52.13343 angle=0.000 pulseDistance=0.51000
; 
; feature travel
PRIO_OFF
G0 X5.72263 Y-24.4947 ; cartesianDistance=0.47888 (Travel)
; 
; feature fill
PRIO_ON
G1 X-12.10806 Y24.4947 E6791.98212 ; EInc=102.22241 cartesianDistance=52.13343 angle=0.000 pulseDistance=0.51000
; 
; feature travel
PRIO_OFF
G0 X-12.58694 Y24.4947 ; cartesianDistance=0.47888 (Travel)
; 
; feature fill
PRIO_ON
G1 X5.24375 Y-24.4947 E6894.20453 ; EInc=102.22241 cartesianDistance=52.13343 angle=0.000 pulseDistance=0.51000
; 
; feature travel
PRIO_OFF
G0 X4.76487 Y-24.4947 ; cartesianDistance=0.47888 (Travel)
; 
; feature fill
PRIO_ON
G1 X-13.06582 Y24.4947 E6996.42694 ; EInc=102.22241 cartesianDistance=52.13343 angle=0.000 pulseDistance=0.51000
; 
; feature travel
PRIO_OFF
G0 X-13.5447 Y24.4947 ; cartesianDistance=0.47888 (Travel)
; 
; feature fill
PRIO_ON
G1 X4.28599 Y-24.4947 E7098.64935 ; EInc=102.22241 cartesianDistance=52.13343 angle=0.000 pulseDistance=0.51000
; 
; feature travel
PRIO_OFF
G0 X3.80711 Y-24.4947 ; cartesianDistance=0.47888 (Travel)
; 
; feature fill
PRIO_ON
G1 X-14.02358 Y24.4947 E7200.87177 ; EInc=102.22241 cartesianDistance=52.13343 angle=0.000 pulseDistance=0.51000
; 
; feature travel
PRIO_OFF
G0 X-14.50246 Y24.4947 ; cartesianDistance=0.47888 (Travel)
; 
; feature fill
PRIO_ON
G1 X3.32823 Y-24.4947 E7303.09418 ; EInc=102.22241 cartesianDistance=52.13343 angle=0.000 pulseDistance=0.51000
; 
; feature travel
PRIO_OFF
G0 X2.84935 Y-24.4947 ; cartesianDistance=0.47888 (Travel)
; 
; feature fill
PRIO_ON
G1 X-14.98134 Y24.4947 E7405.31659 ; EInc=102.22241 cartesianDistance=52.13343 angle=0.000 pulseDistance=0.51000
; 
; feature travel
PRIO_OFF
G0 X-15.46022 Y24.4947 ; cartesianDistance=0.47888 (Travel)
; 
; feature fill
PRIO_ON
G1 X2.37047 Y-24.4947 E7507.53901 ; EInc=102.22241 cartesianDistance=52.13343 angle=0.000 pulseDistance=0.51000
; 
; feature travel
PRIO_OFF
G0 X1.89159 Y-24.4947 ; cartesianDistance=0.47888 (Travel)
; 
; feature fill
PRIO_ON
G1 X-15.9391 Y24.4947 E7609.76142 ; EInc=102.22241 cartesianDistance=52.13343 angle=0.000 pulseDistance=0.51000
; 
; feature travel
PRIO_OFF
G0 X-16.41798 Y24.4947 ; cartesianDistance=0.47888 (Travel)
; 
; feature fill
PRIO_ON
G1 X1.41271 Y-24.4947 E7711.98383 ; EInc=102.22241 cartesianDistance=52.13343 angle=0.000 pulseDistance=0.51000
; 
; feature travel
PRIO_OFF
G0 X0.93383 Y-24.4947 ; cartesianDistance=0.47888 (Travel)
; 
; feature fill
PRIO_ON
G1 X-16.89686 Y24.4947 E7814.20624 ; EInc=102.22241 cartesianDistance=52.13343 angle=0.000 pulseDistance=0.51000
; 
; feature travel
PRIO_OFF
G0 X-17.37574 Y24.4947 ; cartesianDistance=0.47888 (Travel)
; 
; feature fill
PRIO_ON
G1 X0.45495 Y-24.4947 E7916.42866 ; EInc=102.22241 cartesianDistance=52.13343 angle=0.000 pulseDistance=0.51000
; 
; feature travel
PRIO_OFF
G0 X-0.02393 Y-24.4947 ; cartesianDistance=0.47888 (Travel)
; 
; feature fill
PRIO_ON
G1 X-17.85462 Y24.4947 E8018.65107 ; EInc=102.22241 cartesianDistance=52.13343 angle=0.000 pulseDistance=0.51000
; 
; feature travel
PRIO_OFF
G0 X-18.3335 Y24.4947 ; cartesianDistance=0.47888 (Travel)
; 
; feature fill
PRIO_ON
G1 X-0.50281 Y-24.4947 E8120.87348 ; EInc=102.22241 cartesianDistance=52.13343 angle=0.000 pulseDistance=0.51000
; 
; feature travel
PRIO_OFF
G0 X-0.98169 Y-24.4947 ; cartesianDistance=0.47888 (Travel)
; 
; feature fill
PRIO_ON
G1 X-18.81238 Y24.4947 E8223.0959 ; EInc=102.22241 cartesianDistance=52.13343 angle=0.000 pulseDistance=0.51000
; 
; feature travel
PRIO_OFF
G0 X-19.29126 Y24.4947 ; cartesianDistance=0.47888 (Travel)
; 
; feature fill
PRIO_ON
G1 X-1.46057 Y-24.4947 E8325.31831 ; EInc=102.22241 cartesianDistance=52.13343 angle=0.000 pulseDistance=0.51000
; 
; feature travel
PRIO_OFF
G0 X-1.93945 Y-24.4947 ; cartesianDistance=0.47888 (Travel)
; 
; feature fill
PRIO_ON
G1 X-19.77014 Y24.4947 E8427.54072 ; EInc=102.22241 cartesianDistance=52.13343 angle=0.000 pulseDistance=0.51000
; 
; feature travel
PRIO_OFF
G0 X-20.24902 Y24.4947 ; cartesianDistance=0.47888 (Travel)
; 
; feature fill
PRIO_ON
G1 X-2.41833 Y-24.4947 E8529.76313 ; EInc=102.22241 cartesianDistance=52.13343 angle=0.000 pulseDistance=0.51000
; 
; feature travel
PRIO_OFF
G0 X-2.89721 Y-24.4947 ; cartesianDistance=0.47888 (Travel)
; 
; feature fill
PRIO_ON
G1 X-20.7279 Y24.4947 E8631.98555 ; EInc=102.22241 cartesianDistance=52.13343 angle=0.000 pulseDistance=0.51000
; 
; feature travel
PRIO_OFF
G0 X-21.20678 Y24.4947 ; cartesianDistance=0.47888 (Travel)
; 
; feature fill
PRIO_ON
G1 X-3.37609 Y-24.4947 E8734.20796 ; EInc=102.22241 cartesianDistance=52.13343 angle=0.000 pulseDistance=0.51000
; 
; feature travel
PRIO_OFF
G0 X-3.85497 Y-24.4947 ; cartesianDistance=0.47888 (Travel)
; 
; feature fill
PRIO_ON
G1 X-21.68566 Y24.4947 E8836.43037 ; EInc=102.22241 cartesianDistance=52.13343 angle=0.000 pulseDistance=0.51000
; 
; feature travel
PRIO_OFF
G0 X-22.16454 Y24.4947 ; cartesianDistance=0.47888 (Travel)
; 
; feature fill
PRIO_ON
G1 X-4.33385 Y-24.4947 E8938.65279 ; EInc=102.22241 cartesianDistance=52.13343 angle=0.000 pulseDistance=0.51000
; 
; feature travel
PRIO_OFF
G0 X-4.81273 Y-24.4947 ; cartesianDistance=0.47888 (Travel)
; 
; feature fill
PRIO_ON
G1 X-22.64342 Y24.4947 E9040.8752 ; EInc=102.22241 cartesianDistance=52.13343 angle=0.000 pulseDistance=0.51000
; 
; feature travel
PRIO_OFF
G0 X-23.1223 Y24.4947 ; cartesianDistance=0.47888 (Travel)
; 
; feature fill
PRIO_ON
G1 X-5.29161 Y-24.4947 E9143.09761 ; EInc=102.22241 cartesianDistance=52.13343 angle=0.000 pulseDistance=0.51000
; 
; feature travel
PRIO_OFF
G0 X-5.77049 Y-24.4947 ; cartesianDistance=0.47888 (Travel)
; 
; feature fill
PRIO_ON
G1 X-23.60118 Y24.4947 E9245.32003 ; EInc=102.22241 cartesianDistance=52.13343 angle=0.000 pulseDistance=0.51000
; 
; feature travel
PRIO_OFF
G0 X-24.08006 Y24.4947 ; cartesianDistance=0.47888 (Travel)
; 
; feature fill
PRIO_ON
G1 X-6.24937 Y-24.4947 E9347.54244 ; EInc=102.22241 cartesianDistance=52.13343 angle=0.000 pulseDistance=0.51000
; 
; feature travel
PRIO_OFF
G0 X-6.72825 Y-24.4947 ; cartesianDistance=0.47888 (Travel)
; 
; feature fill
PRIO_ON
G1 X-24.4947 Y24.31821 E9449.39659 ; EInc=101.85415 cartesianDistance=51.94562 angle=0.000 pulseDistance=0.51000
; 
; feature travel
PRIO_OFF
G0 X-24.4947 Y23.0025 ; cartesianDistance=1.31571 (Travel)
; 
; feature fill
PRIO_ON
G1 X-7.20713 Y-24.4947 E9548.50535 ; EInc=99.10876 cartesianDistance=50.54547 angle=0.000 pulseDistance=0.51000
; 
; feature travel
PRIO_OFF
G0 X-7.68601 Y-24.4947 ; cartesianDistance=0.47888 (Travel)
; 
; feature fill
PRIO_ON
G1 X-24.4947 Y21.68679 E9644.86872 ; EInc=96.36336 cartesianDistance=49.14532 angle=0.000 pulseDistance=0.51000
; 
; feature travel
PRIO_OFF
G0 X-24.4947 Y20.37108 ; cartesianDistance=1.31571 (Travel)
; 
; feature fill
PRIO_ON
G1 X-8.16489 Y-24.4947 E9738.48668 ; EInc=93.61797 cartesianDistance=47.74516 angle=0.000 pulseDistance=0.51000
; 
; feature travel
PRIO_OFF
G0 X-8.64377 Y-24.4947 ; cartesianDistance=0.47888 (Travel)
; 
; feature fill
PRIO_ON
G1 X-24.4947 Y19.05537 E9829.35926 ; EInc=90.87257 cartesianDistance=46.34501 angle=0.000 pulseDistance=0.51000
; 
; feature travel
PRIO_OFF
G0 X-24.4947 Y17.73965 ; cartesianDistance=1.31571 (Travel)
; 
; feature fill
PRIO_ON
G1 X-9.12265 Y-24.4947 E9917.48644 ; EInc=88.12718 cartesianDistance=44.94486 angle=0.000 pulseDistance=0.51000
; 
; feature travel
PRIO_OFF
G0 X-9.60153 Y-24.4947 ; cartesianDistance=0.47888 (Travel)
; 
; feature fill
PRIO_ON
G1 X-24.4947 Y16.42394 E10002.86822 ; EInc=85.38178 cartesianDistance=43.54471 angle=0.000 pulseDistance=0.51000
; 
; feature travel
PRIO_OFF
G0 X-24.4947 Y15.10823 ; cartesianDistance=1.31571 (Travel)
; 
; feature fill
PRIO_ON
G1 X-10.08041 Y-24.4947 E10085.50461 ; EInc=82.63639 cartesianDistance=42.14456 angle=0.000 pulseDistance=0.51000
; 
; feature travel
PRIO_OFF
G0 X-10.55929 Y-24.4947 ; cartesianDistance=0.47888 (Travel)
; 
; feature fill
PRIO_ON
G1 X-24.4947 Y13.79252 E10165.3956 ; EInc=79.89099 cartesianDistance=40.74441 angle=0.000 pulseDistance=0.51000
; 
; feature travel
PRIO_OFF
G0 X-24.4947 Y12.47681 ; cartesianDistance=1.31571 (Travel)
; 
; feature fill
PRIO_ON
G1 X-11.03817 Y-24.4947 E10242.5412 ; EInc=77.14560 cartesianDistance=39.34426 angle=0.000 pulseDistance=0.51000
; 
; feature travel
PRIO_OFF
G0 X-11.51705 Y-24.4947 ; cartesianDistance=0.47888 (Travel)
; 
; feature fill
PRIO_ON
G1 X-24.4947 Y11.16109 E10316.94141 ; EInc=74.40020 cartesianDistance=37.94410 angle=0.000 pulseDistance=0.51000
; 
; feature travel
PRIO_OFF
G0 X-24.4947 Y9.84538 ; cartesianDistance=1.31571 (Travel)
; 
; feature fill
PRIO_ON
G1 X-11.99593 Y-24.4947 E10388.59622 ; EInc=71.65481 cartesianDistance=36.54395 angle=0.000 pulseDistance=0.51000
; 
; feature travel
PRIO_OFF
G0 X-12.47481 Y-24.4947 ; cartesianDistance=0.47888 (Travel)
; 
; feature fill
PRIO_ON
G1 X-24.4947 Y8.52967 E10457.50563 ; EInc=68.90941 cartesianDistance=35.14380 angle=0.000 pulseDistance=0.51000
; 
; feature travel
PRIO_OFF
G0 X-24.4947 Y7.21396 ; cartesianDistance=1.31571 (Travel)
; 
; feature fill
PRIO_ON
G1 X-12.95369 Y-24.4947 E10523.66965 ; EInc=66.16402 cartesianDistance=33.74365 angle=0.000 pulseDistance=0.51000
; 
; feature travel
PRIO_OFF
G0 X-13.43257 Y-24.4947 ; cartesianDistance=0.47888 (Travel)
; 
; feature fill
PRIO_ON
G1 X-24.4947 Y5.89825 E10587.08828 ; EInc=63.41862 cartesianDistance=32.34350 angle=0.000 pulseDistance=0.51000
; 
; feature travel
PRIO_OFF
G0 X-24.4947 Y4.58253 ; cartesianDistance=1.31571 (Travel)
; 
; feature fill
PRIO_ON
G1 X-13.91145 Y-24.4947 E10647.7615 ; EInc=60.67323 cartesianDistance=30.94335 angle=0.000 pulseDistance=0.51000
; 
; feature travel
PRIO_OFF
G0 X-14.39033 Y-24.4947 ; cartesianDistance=0.47888 (Travel)
; 
; feature fill
PRIO_ON
G1 X-24.4947 Y3.26682 E10705.68934 ; EInc=57.92783 cartesianDistance=29.54320 angle=0.000 pulseDistance=0.51000
; 
; feature travel
PRIO_OFF
G0 X-24.4947 Y1.95111 ; cartesianDistance=1.31571 (Travel)
; 
; feature fill
PRIO_ON
G1 X-14.86921 Y-24.4947 E10760.87178 ; EInc=55.18244 cartesianDistance=28.14304 angle=0.000 pulseDistance=0.51000
; 
; feature travel
PRIO_OFF
G0 X-15.34809 Y-24.4947 ; cartesianDistance=0.47888 (Travel)
; 
; feature fill
PRIO_ON
G1 X-24.4947 Y0.6354 E10813.30882 ; EInc=52.43704 cartesianDistance=26.74289 angle=0.000 pulseDistance=0.51000
; 
; feature travel
PRIO_OFF
G0 X-24.4947 Y-0.68031 ; cartesianDistance=1.31571 (Travel)
; 
; feature fill
PRIO_ON
G1 X-15.82697 Y-24.4947 E10863.00047 ; EInc=49.69165 cartesianDistance=25.34274 angle=0.000 pulseDistance=0.51000
; 
; feature travel
PRIO_OFF
G0 X-16.30585 Y-24.4947 ; cartesianDistance=0.47888 (Travel)
; 
; feature fill
PRIO_ON
G1 X-24.4947 Y-1.99603 E10909.94673 ; EInc=46.94625 cartesianDistance=23.94259 angle=0.000 pulseDistance=0.51000
; 
; feature travel
PRIO_OFF
G0 X-24.4947 Y-3.31174 ; cartesianDistance=1.31571 (Travel)
; 
; feature fill
PRIO_ON
G1 X-16.78473 Y-24.4947 E10954.14759 ; EInc=44.20086 cartesianDistance=22.54244 angle=0.000 pulseDistance=0.51000
; 
; feature travel
PRIO_OFF
G0 X-17.26361 Y-24.4947 ; cartesianDistance=0.47888 (Travel)
; 
; feature fill
PRIO_ON
