;---BEGIN HEADER
; Generated by DropletSlicer
; Version: 3.4.4
; Date: Sunday, July 28, 2024
; Time: 11:18:01 PM
G64 ;continuous path mode
G71 ;millimeters
G56 ;origin at center
OVR=100
OVRRAP=20
DO PRIO_ON_PATH_OFFSET=0.5*PRIO_PULSE_DISTANCE
RECOMMENDED_RECIPE="4008 Aluminum Wire"
CheckRecommendedRecipe
BUILDPROCESSORINTERFACEVERSION=1177
CheckBPVersion
OuterPerimeterFrequency=300
InnerPerimeterFrequency=400
ThinFeatureFrequency=300
UnsupportedStepoutFrequency=300
SupportedStepoutFrequency=300
FillFrequency=400
SupportWallFrequency=100
SupportPillarFrequency=100
;BUILDPROCESSORINTERFACEVERSION=1177
PART_MASS_CONSUMPTION=0
SUPPORT_MASS_CONSUMPTION=0
G0 X0 Y0 ; cartesianDistance=0.00000 (reset z)
MSG("Print Started")
;---END HEADER
;---BEGIN PRINT STATISTICS
;TOTAL WIRE FEED ESTIMATE:
;    Total Drops: 120,078.68
;      Total Mass: 17.41 g
;    Part Drops: 120,078.68
;      Part Mass: 17.41 g
;    Support Drops: 0.00
;      Support Mass: 0.00 g
;    Part Density: 100.0%
;---END PRINT STATISTICS
;XY Extents: [-12.215 -12.215] [12.215 12.215]
;NaiveEstimatedPrintTime=414.3596259693569
;SupportedStepoutFrequency=300
EstimatedPrintTime=477.5570983886719
;ZCount = 1
;ExtraChevronOffset = 10
NumberOfLayers=42
LayersCompleted=0
;Mass values below are in kilograms
TOTAL_MASS=0.017411409
PART_MASS=0.017411409
SUPPORT_MASS=0.000000000
CheckMass
DO PRIO_PULSE_DISTANCE=DROP_SCALE
DO PRIO_ON_PATH_OFFSET=0.5*PRIO_PULSE_DISTANCE
PARAM_SETUP
;ChunkSize=5
; 
;========================
; layer 0, Z = 0.2400
; 
; reset extrusion
STOPRE
PRESETON(E, 0)
DO PRIO_PULSE_DISTANCE=DROP_SCALE
DO PRIO_ON_PATH_OFFSET=0.5*PRIO_PULSE_DISTANCE
FEATURE_TYPE=0
;outer: (12.6302,-12.6302) (12.6302,12.6302) (-12.6302,12.6302) (-12.6302,-12.6302) (-12.3302,-12.6302) holes: !
;overhangs:!
; 
; feature plane change
G0 X0 Y0 Z0.24 ; cartesianDistance=0.00000 (Plane Change)
; 
; feature travel
G0 X-12.2152 Y10.47231 ; cartesianDistance=16.08976 (Travel)
; 
; feature outer perimeter
G1 F24000 FL[E] = OuterPerimeterFrequency * DROP_SCALE * 60
DO PRIO_PULSE_DISTANCE=DROP_SCALE
DO PRIO_ON_PATH_OFFSET=0.5*PRIO_PULSE_DISTANCE
PRIO_ON
G1 X-12.2152 Y-12.2152 E53.38237 ; EInc=53.38237 cartesianDistance=22.68751 angle=90.000 pulseDistance=0.42500
G1 X12.2152 Y-12.2152 E110.86566 ; EInc=57.48329 cartesianDistance=24.43040 angle=90.000 pulseDistance=0.42500
G1 X12.2152 Y12.2152 E168.34895 ; EInc=57.48329 cartesianDistance=24.43040 angle=90.000 pulseDistance=0.42500
G1 X-12.2152 Y12.2152 E225.83225 ; EInc=57.48329 cartesianDistance=24.43040 angle=90.000 pulseDistance=0.42500
G1 X-12.2152 Y10.47231 E229.93318 ; EInc=4.10093 cartesianDistance=1.74289 angle=180.000 pulseDistance=0.42500
; 
; feature travel
PRIO_OFF
G0 X-11.8642 Y10.47231 ; cartesianDistance=0.35100 (Travel)
; 
; feature inner perimeter
G1 F24000 FL[E] = InnerPerimeterFrequency * DROP_SCALE * 60
PRIO_ON
G1 X-11.8642 Y11.8642 E232.51076 ; EInc=2.57758 cartesianDistance=1.39189 angle=90.000 pulseDistance=0.54000
G1 X11.8642 Y11.8642 E276.45224 ; EInc=43.94148 cartesianDistance=23.72840 angle=90.000 pulseDistance=0.54000
G1 X11.8642 Y-11.8642 E320.39372 ; EInc=43.94148 cartesianDistance=23.72840 angle=90.000 pulseDistance=0.54000
G1 X-11.8642 Y-11.8642 E364.3352 ; EInc=43.94148 cartesianDistance=23.72840 angle=90.000 pulseDistance=0.54000
G1 X-11.8642 Y10.47231 E405.6991 ; EInc=41.36390 cartesianDistance=22.33651 angle=180.000 pulseDistance=0.54000
; 
; feature travel
PRIO_OFF
G0 X-11.8645 Y10.37997 ; cartesianDistance=0.09233 (Travel)
; 
; feature fill
G1 F24000 FL[E] = FillFrequency * DROP_SCALE * 60
PRIO_ON
G1 X-7.78579 Y11.8645 E414.20983 ; EInc=8.51072 cartesianDistance=4.34047 angle=0.000 pulseDistance=0.51000
; 
; feature travel
PRIO_OFF
G0 X-6.47008 Y11.8645 ; cartesianDistance=1.31571 (Travel)
; 
; feature fill
PRIO_ON
G1 X-11.8645 Y9.90109 E425.46595 ; EInc=11.25612 cartesianDistance=5.74062 angle=0.000 pulseDistance=0.51000
; 
; feature travel
PRIO_OFF
G0 X-11.8645 Y9.42221 ; cartesianDistance=0.47888 (Travel)
; 
; feature fill
PRIO_ON
G1 X-5.15437 Y11.8645 E439.46746 ; EInc=14.00151 cartesianDistance=7.14077 angle=0.000 pulseDistance=0.51000
; 
; feature travel
PRIO_OFF
G0 X-3.83866 Y11.8645 ; cartesianDistance=1.31571 (Travel)
; 
; feature fill
PRIO_ON
G1 X-11.8645 Y8.94333 E456.21437 ; EInc=16.74691 cartesianDistance=8.54092 angle=0.000 pulseDistance=0.51000
; 
; feature travel
PRIO_OFF
G0 X-11.8645 Y8.46445 ; cartesianDistance=0.47888 (Travel)
; 
; feature fill
PRIO_ON
G1 X-2.52294 Y11.8645 E475.70667 ; EInc=19.49230 cartesianDistance=9.94108 angle=0.000 pulseDistance=0.51000
; 
; feature travel
PRIO_OFF
G0 X-1.20723 Y11.8645 ; cartesianDistance=1.31571 (Travel)
; 
; feature fill
PRIO_ON
G1 X-11.8645 Y7.98557 E497.94437 ; EInc=22.23770 cartesianDistance=11.34123 angle=0.000 pulseDistance=0.51000
; 
; feature travel
PRIO_OFF
G0 X-11.8645 Y7.50669 ; cartesianDistance=0.47888 (Travel)
; 
; feature fill
PRIO_ON
G1 X0.10848 Y11.8645 E522.92747 ; EInc=24.98309 cartesianDistance=12.74138 angle=0.000 pulseDistance=0.51000
; 
; feature travel
PRIO_OFF
G0 X1.42419 Y11.8645 ; cartesianDistance=1.31571 (Travel)
; 
; feature fill
PRIO_ON
G1 X-11.8645 Y7.02781 E550.65596 ; EInc=27.72849 cartesianDistance=14.14153 angle=0.000 pulseDistance=0.51000
; 
; feature travel
PRIO_OFF
G0 X-11.8645 Y6.54893 ; cartesianDistance=0.47888 (Travel)
; 
; feature fill
PRIO_ON
G1 X2.7399 Y11.8645 E581.12984 ; EInc=30.47388 cartesianDistance=15.54168 angle=0.000 pulseDistance=0.51000
; 
; feature travel
PRIO_OFF
G0 X4.05561 Y11.8645 ; cartesianDistance=1.31571 (Travel)
; 
; feature fill
PRIO_ON
G1 X-11.8645 Y6.07005 E614.34912 ; EInc=33.21928 cartesianDistance=16.94183 angle=0.000 pulseDistance=0.51000
; 
; feature travel
PRIO_OFF
G0 X-11.8645 Y5.59117 ; cartesianDistance=0.47888 (Travel)
; 
; feature fill
PRIO_ON
G1 X5.37133 Y11.8645 E650.3138 ; EInc=35.96467 cartesianDistance=18.34198 angle=0.000 pulseDistance=0.51000
; 
; feature travel
PRIO_OFF
G0 X6.68704 Y11.8645 ; cartesianDistance=1.31571 (Travel)
; 
; feature fill
PRIO_ON
G1 X-11.8645 Y5.11229 E689.02387 ; EInc=38.71007 cartesianDistance=19.74214 angle=0.000 pulseDistance=0.51000
; 
; feature travel
PRIO_OFF
G0 X-11.8645 Y4.63341 ; cartesianDistance=0.47888 (Travel)
; 
; feature fill
PRIO_ON
G1 X8.00275 Y11.8645 E730.47933 ; EInc=41.45546 cartesianDistance=21.14229 angle=0.000 pulseDistance=0.51000
; 
; feature travel
PRIO_OFF
G0 X9.31846 Y11.8645 ; cartesianDistance=1.31571 (Travel)
; 
; feature fill
PRIO_ON
G1 X-11.8645 Y4.15453 E774.68019 ; EInc=44.20086 cartesianDistance=22.54244 angle=0.000 pulseDistance=0.51000
; 
; feature travel
PRIO_OFF
G0 X-11.8645 Y3.67565 ; cartesianDistance=0.47888 (Travel)
; 
; feature fill
PRIO_ON
G1 X10.63417 Y11.8645 E821.62644 ; EInc=46.94625 cartesianDistance=23.94259 angle=0.000 pulseDistance=0.51000
; 
; feature travel
PRIO_OFF
G0 X11.8645 Y11.83342 ; cartesianDistance=1.23072 (Travel)
; 
; feature fill
PRIO_ON
G1 X-11.8645 Y3.19677 E871.13992 ; EInc=49.51348 cartesianDistance=25.25187 angle=0.000 pulseDistance=0.51000
; 
; feature travel
PRIO_OFF
G0 X-11.8645 Y2.71789 ; cartesianDistance=0.47888 (Travel)
; 
; feature fill
PRIO_ON
G1 X11.8645 Y11.35454 E920.6534 ; EInc=49.51348 cartesianDistance=25.25187 angle=0.000 pulseDistance=0.51000
; 
; feature travel
PRIO_OFF
G0 X11.8645 Y10.87566 ; cartesianDistance=0.47888 (Travel)
; 
; feature fill
PRIO_ON
G1 X-11.8645 Y2.23901 E970.16688 ; EInc=49.51348 cartesianDistance=25.25187 angle=0.000 pulseDistance=0.51000
; 
; feature travel
PRIO_OFF
G0 X-11.8645 Y1.76013 ; cartesianDistance=0.47888 (Travel)
; 
; feature fill
PRIO_ON
G1 X11.8645 Y10.39678 E1019.68036 ; EInc=49.51348 cartesianDistance=25.25187 angle=0.000 pulseDistance=0.51000
; 
; feature travel
PRIO_OFF
G0 X11.8645 Y9.9179 ; cartesianDistance=0.47888 (Travel)
; 
; feature fill
PRIO_ON
G1 X-11.8645 Y1.28125 E1069.19384 ; EInc=49.51348 cartesianDistance=25.25187 angle=0.000 pulseDistance=0.51000
; 
; feature travel
PRIO_OFF
G0 X-11.8645 Y0.80237 ; cartesianDistance=0.47888 (Travel)
; 
; feature fill
PRIO_ON
G1 X11.8645 Y9.43902 E1118.70732 ; EInc=49.51348 cartesianDistance=25.25187 angle=0.000 pulseDistance=0.51000
; 
; feature travel
PRIO_OFF
G0 X11.8645 Y8.96014 ; cartesianDistance=0.47888 (Travel)
; 
; feature fill
PRIO_ON
G1 X-11.8645 Y0.32349 E1168.2208 ; EInc=49.51348 cartesianDistance=25.25187 angle=0.000 pulseDistance=0.51000
; 
; feature travel
PRIO_OFF
G0 X-11.8645 Y-0.15539 ; cartesianDistance=0.47888 (Travel)
; 
; feature fill
PRIO_ON
G1 X11.8645 Y8.48126 E1217.73428 ; EInc=49.51348 cartesianDistance=25.25187 angle=0.000 pulseDistance=0.51000
; 
; feature travel
PRIO_OFF
G0 X11.8645 Y8.00238 ; cartesianDistance=0.47888 (Travel)
; 
; feature fill
PRIO_ON
G1 X-11.8645 Y-0.63427 E1267.24776 ; EInc=49.51348 cartesianDistance=25.25187 angle=0.000 pulseDistance=0.51000
; 
; feature travel
PRIO_OFF
G0 X-11.8645 Y-1.11315 ; cartesianDistance=0.47888 (Travel)
; 
; feature fill
PRIO_ON
G1 X11.8645 Y7.5235 E1316.76123 ; EInc=49.51348 cartesianDistance=25.25187 angle=0.000 pulseDistance=0.51000
; 
; feature travel
PRIO_OFF
G0 X11.8645 Y7.04462 ; cartesianDistance=0.47888 (Travel)
; 
; feature fill
PRIO_ON
G1 X-11.8645 Y-1.59203 E1366.27471 ; EInc=49.51348 cartesianDistance=25.25187 angle=0.000 pulseDistance=0.51000
; 
; feature travel
PRIO_OFF
G0 X-11.8645 Y-2.07091 ; cartesianDistance=0.47888 (Travel)
; 
; feature fill
PRIO_ON
G1 X11.8645 Y6.56574 E1415.78819 ; EInc=49.51348 cartesianDistance=25.25187 angle=0.000 pulseDistance=0.51000
; 
; feature travel
PRIO_OFF
G0 X11.8645 Y6.08686 ; cartesianDistance=0.47888 (Travel)
; 
; feature fill
PRIO_ON
G1 X-11.8645 Y-2.54979 E1465.30167 ; EInc=49.51348 cartesianDistance=25.25187 angle=0.000 pulseDistance=0.51000
; 
; feature travel
PRIO_OFF
G0 X-11.8645 Y-3.02867 ; cartesianDistance=0.47888 (Travel)
; 
; feature fill
PRIO_ON
G1 X11.8645 Y5.60798 E1514.81515 ; EInc=49.51348 cartesianDistance=25.25187 angle=0.000 pulseDistance=0.51000
; 
; feature travel
PRIO_OFF
G0 X11.8645 Y5.1291 ; cartesianDistance=0.47888 (Travel)
; 
; feature fill
PRIO_ON
G1 X-11.8645 Y-3.50755 E1564.32863 ; EInc=49.51348 cartesianDistance=25.25187 angle=0.000 pulseDistance=0.51000
; 
; feature travel
PRIO_OFF
G0 X-11.8645 Y-3.98643 ; cartesianDistance=0.47888 (Travel)
; 
; feature fill
PRIO_ON
G1 X11.8645 Y4.65022 E1613.84211 ; EInc=49.51348 cartesianDistance=25.25187 angle=0.000 pulseDistance=0.51000
; 
; feature travel
PRIO_OFF
G0 X11.8645 Y4.17134 ; cartesianDistance=0.47888 (Travel)
; 
; feature fill
PRIO_ON
G1 X-11.8645 Y-4.46531 E1663.35559 ; EInc=49.51348 cartesianDistance=25.25187 angle=0.000 pulseDistance=0.51000
; 
; feature travel
PRIO_OFF
G0 X-11.8645 Y-4.94419 ; cartesianDistance=0.47888 (Travel)
; 
; feature fill
PRIO_ON
G1 X11.8645 Y3.69246 E1712.86907 ; EInc=49.51348 cartesianDistance=25.25187 angle=0.000 pulseDistance=0.51000
; 
; feature travel
PRIO_OFF
G0 X11.8645 Y3.21358 ; cartesianDistance=0.47888 (Travel)
; 
; feature fill
PRIO_ON
G1 X-11.8645 Y-5.42307 E1762.38255 ; EInc=49.51348 cartesianDistance=25.25187 angle=0.000 pulseDistance=0.51000
; 
; feature travel
PRIO_OFF
G0 X-11.8645 Y-5.90195 ; cartesianDistance=0.47888 (Travel)
; 
; feature fill
PRIO_ON
G1 X11.8645 Y2.7347 E1811.89603 ; EInc=49.51348 cartesianDistance=25.25187 angle=0.000 pulseDistance=0.51000
; 
; feature travel
PRIO_OFF
G0 X11.8645 Y2.25582 ; cartesianDistance=0.47888 (Travel)
; 
; feature fill
PRIO_ON
G1 X-11.8645 Y-6.38083 E1861.40951 ; EInc=49.51348 cartesianDistance=25.25187 angle=0.000 pulseDistance=0.51000
; 
; feature travel
PRIO_OFF
G0 X-11.8645 Y-6.85971 ; cartesianDistance=0.47888 (Travel)
; 
; feature fill
PRIO_ON
G1 X11.8645 Y1.77694 E1910.92298 ; EInc=49.51348 cartesianDistance=25.25187 angle=0.000 pulseDistance=0.51000
; 
; feature travel
PRIO_OFF
G0 X11.8645 Y1.29806 ; cartesianDistance=0.47888 (Travel)
; 
; feature fill
PRIO_ON
G1 X-11.8645 Y-7.33859 E1960.43646 ; EInc=49.51348 cartesianDistance=25.25187 angle=0.000 pulseDistance=0.51000
; 
; feature travel
PRIO_OFF
G0 X-11.8645 Y-7.81747 ; cartesianDistance=0.47888 (Travel)
; 
; feature fill
PRIO_ON
G1 X11.8645 Y0.81918 E2009.94994 ; EInc=49.51348 cartesianDistance=25.25187 angle=0.000 pulseDistance=0.51000
; 
; feature travel
PRIO_OFF
G0 X11.8645 Y0.3403 ; cartesianDistance=0.47888 (Travel)
; 
; feature fill
PRIO_ON
G1 X-11.8645 Y-8.29635 E2059.46342 ; EInc=49.51348 cartesianDistance=25.25187 angle=0.000 pulseDistance=0.51000
; 
; feature travel
PRIO_OFF
G0 X-11.8645 Y-8.77523 ; cartesianDistance=0.47888 (Travel)
; 
; feature fill
PRIO_ON
G1 X11.8645 Y-0.13858 E2108.9769 ; EInc=49.51348 cartesianDistance=25.25187 angle=0.000 pulseDistance=0.51000
; 
; feature travel
PRIO_OFF
G0 X11.8645 Y-0.61746 ; cartesianDistance=0.47888 (Travel)
; 
; feature fill
PRIO_ON
G1 X-11.8645 Y-9.25411 E2158.49038 ; EInc=49.51348 cartesianDistance=25.25187 angle=0.000 pulseDistance=0.51000
; 
; feature travel
PRIO_OFF
G0 X-11.8645 Y-9.73299 ; cartesianDistance=0.47888 (Travel)
; 
; feature fill
PRIO_ON
G1 X11.8645 Y-1.09634 E2208.00386 ; EInc=49.51348 cartesianDistance=25.25187 angle=0.000 pulseDistance=0.51000
; 
; feature travel
PRIO_OFF
G0 X11.8645 Y-1.57522 ; cartesianDistance=0.47888 (Travel)
; 
; feature fill
PRIO_ON
G1 X-11.8645 Y-10.21187 E2257.51734 ; EInc=49.51348 cartesianDistance=25.25187 angle=0.000 pulseDistance=0.51000
; 
; feature travel
PRIO_OFF
G0 X-11.8645 Y-10.69075 ; cartesianDistance=0.47888 (Travel)
; 
; feature fill
PRIO_ON
G1 X11.8645 Y-2.0541 E2307.03082 ; EInc=49.51348 cartesianDistance=25.25187 angle=0.000 pulseDistance=0.51000
; 
; feature travel
PRIO_OFF
G0 X11.8645 Y-2.53298 ; cartesianDistance=0.47888 (Travel)
; 
; feature fill
PRIO_ON
G1 X-11.8645 Y-11.16963 E2356.5443 ; EInc=49.51348 cartesianDistance=25.25187 angle=0.000 pulseDistance=0.51000
; 
; feature travel
PRIO_OFF
G0 X-11.8645 Y-11.64851 ; cartesianDistance=0.47888 (Travel)
; 
; feature fill
PRIO_ON
G1 X11.8645 Y-3.01186 E2406.05778 ; EInc=49.51348 cartesianDistance=25.25187 angle=0.000 pulseDistance=0.51000
; 
; feature travel
PRIO_OFF
G0 X11.8645 Y-3.49074 ; cartesianDistance=0.47888 (Travel)
; 
; feature fill
PRIO_ON
G1 X-11.14222 Y-11.8645 E2454.06413 ; EInc=48.00636 cartesianDistance=24.48324 angle=0.000 pulseDistance=0.51000
; 
; feature travel
PRIO_OFF
G0 X-9.82651 Y-11.8645 ; cartesianDistance=1.31571 (Travel)
; 
; feature fill
PRIO_ON
G1 X11.8645 Y-3.96962 E2499.32509 ; EInc=45.26096 cartesianDistance=23.08309 angle=0.000 pulseDistance=0.51000
; 
; feature travel
PRIO_OFF
G0 X11.8645 Y-4.4485 ; cartesianDistance=0.47888 (Travel)
; 
; feature fill
PRIO_ON
G1 X-8.5108 Y-11.8645 E2541.84066 ; EInc=42.51557 cartesianDistance=21.68294 angle=0.000 pulseDistance=0.51000
; 
; feature travel
PRIO_OFF
G0 X-7.19509 Y-11.8645 ; cartesianDistance=1.31571 (Travel)
; 
; feature fill
PRIO_ON
G1 X11.8645 Y-4.92738 E2581.61083 ; EInc=39.77017 cartesianDistance=20.28279 angle=0.000 pulseDistance=0.51000
; 
; feature travel
PRIO_OFF
G0 X11.8645 Y-5.40626 ; cartesianDistance=0.47888 (Travel)
; 
; feature fill
PRIO_ON
G1 X-5.87937 Y-11.8645 E2618.63561 ; EInc=37.02478 cartesianDistance=18.88264 angle=0.000 pulseDistance=0.51000
; 
; feature travel
PRIO_OFF
G0 X-4.56366 Y-11.8645 ; cartesianDistance=1.31571 (Travel)
; 
; feature fill
PRIO_ON
G1 X11.8645 Y-5.88514 E2652.91499 ; EInc=34.27938 cartesianDistance=17.48248 angle=0.000 pulseDistance=0.51000
; 
; feature travel
PRIO_OFF
G0 X11.8645 Y-6.36402 ; cartesianDistance=0.47888 (Travel)
; 
; feature fill
PRIO_ON
G1 X-3.24795 Y-11.8645 E2684.44897 ; EInc=31.53399 cartesianDistance=16.08233 angle=0.000 pulseDistance=0.51000
; 
; feature travel
PRIO_OFF
G0 X-1.93224 Y-11.8645 ; cartesianDistance=1.31571 (Travel)
; 
; feature fill
PRIO_ON
G1 X11.8645 Y-6.8429 E2713.23757 ; EInc=28.78859 cartesianDistance=14.68218 angle=0.000 pulseDistance=0.51000
; 
; feature travel
PRIO_OFF
G0 X11.8645 Y-7.32178 ; cartesianDistance=0.47888 (Travel)
; 
; feature fill
PRIO_ON
G1 X-0.61653 Y-11.8645 E2739.28076 ; EInc=26.04320 cartesianDistance=13.28203 angle=0.000 pulseDistance=0.51000
; 
; feature travel
PRIO_OFF
G0 X0.69919 Y-11.8645 ; cartesianDistance=1.31571 (Travel)
; 
; feature fill
PRIO_ON
G1 X11.8645 Y-7.80066 E2762.57856 ; EInc=23.29780 cartesianDistance=11.88188 angle=0.000 pulseDistance=0.51000
; 
; feature travel
PRIO_OFF
G0 X11.8645 Y-8.27954 ; cartesianDistance=0.47888 (Travel)
; 
; feature fill
PRIO_ON
G1 X2.0149 Y-11.8645 E2783.13097 ; EInc=20.55241 cartesianDistance=10.48173 angle=0.000 pulseDistance=0.51000
; 
; feature travel
PRIO_OFF
G0 X3.33061 Y-11.8645 ; cartesianDistance=1.31571 (Travel)
; 
; feature fill
PRIO_ON
G1 X11.8645 Y-8.75842 E2800.93798 ; EInc=17.80701 cartesianDistance=9.08158 angle=0.000 pulseDistance=0.51000
; 
; feature travel
PRIO_OFF
G0 X11.8645 Y-9.2373 ; cartesianDistance=0.47888 (Travel)
; 
; feature fill
PRIO_ON
G1 X4.64632 Y-11.8645 E2815.9996 ; EInc=15.06162 cartesianDistance=7.68142 angle=0.000 pulseDistance=0.51000
; 
; feature travel
PRIO_OFF
G0 X5.96203 Y-11.8645 ; cartesianDistance=1.31571 (Travel)
; 
; feature fill
PRIO_ON
G1 X11.8645 Y-9.71618 E2828.31582 ; EInc=12.31622 cartesianDistance=6.28127 angle=0.000 pulseDistance=0.51000
; 
; feature travel
PRIO_OFF
G0 X11.8645 Y-10.19506 ; cartesianDistance=0.47888 (Travel)
; 
; feature fill
PRIO_ON
G1 X7.27775 Y-11.8645 E2837.88664 ; EInc=9.57083 cartesianDistance=4.88112 angle=0.000 pulseDistance=0.51000
; 
; feature travel
PRIO_OFF
G0 X8.59346 Y-11.8645 ; cartesianDistance=1.31571 (Travel)
; 
; feature fill
PRIO_ON
G1 X11.8645 Y-10.67394 E2844.71208 ; EInc=6.82543 cartesianDistance=3.48097 angle=0.000 pulseDistance=0.51000
; 
; feature travel
PRIO_OFF
G0 X11.8645 Y-11.15282 ; cartesianDistance=0.47888 (Travel)
; 
; feature fill
PRIO_ON
G1 X9.90917 Y-11.8645 E2848.79211 ; EInc=4.08004 cartesianDistance=2.08082 angle=0.000 pulseDistance=0.51000
; 
; feature travel
PRIO_OFF
G0 X11.22488 Y-11.8645 ; cartesianDistance=1.31571 (Travel)
; 
; feature fill
PRIO_ON
G1 X11.8645 Y-11.6317 E2850.12675 ; EInc=1.33464 cartesianDistance=0.68067 angle=0.000 pulseDistance=0.51000
; 
; feature travel
PRIO_OFF
G0 X-9.1015 Y11.8645 ; cartesianDistance=31.49039 (Travel)
; 
; feature fill
PRIO_ON
G1 X-11.8645 Y10.85885 E2855.89208 ; EInc=5.76533 cartesianDistance=2.94032 angle=0.000 pulseDistance=0.51000
; 
; feature travel
PRIO_OFF
G0 X-11.8645 Y11.33773 ; cartesianDistance=0.47888 (Travel)
; 
; feature fill
PRIO_ON
G1 X-10.41722 Y11.8645 E2858.91202 ; EInc=3.01993 cartesianDistance=1.54017 angle=0.000 pulseDistance=0.51000
; 
; feature travel
PRIO_OFF
G0 X-11.73293 Y11.8645 ; cartesianDistance=1.31571 (Travel)
; 
; feature fill
PRIO_ON
G1 X-11.8645 Y11.81661 E2859.18656 ; EInc=0.27454 cartesianDistance=0.14002 angle=0.000 pulseDistance=0.51000
PRIO_OFF
LayersCompleted=1
M1
; 
;========================
; layer 1, Z = 0.4800
; 
; reset extrusion
STOPRE
PRESETON(E, 0)
DO PRIO_PULSE_DISTANCE=DROP_SCALE
DO PRIO_ON_PATH_OFFSET=0.5*PRIO_PULSE_DISTANCE
;outer: (12.6302,-12.6302) (12.6302,12.6302) (-12.6302,12.6302) (-12.6302,-12.6302) (-11.7302,-12.6302) holes: !
;overhangs:!
; 
; feature plane change
G0 X-11.8645 Y11.81661 Z0.48 ; cartesianDistance=0.00000 (Plane Change)
; 
; feature travel
G0 X12.2152 Y-1.03006 ; cartesianDistance=27.29229 (Travel)
; 
; feature outer perimeter
G1 F24000 FL[E] = OuterPerimeterFrequency * DROP_SCALE * 60
PRIO_ON
G1 X12.2152 Y-12.2152 E26.31797 ; EInc=26.31797 cartesianDistance=11.18514 angle=90.000 pulseDistance=0.42500
G1 X-12.2152 Y-12.2152 E83.80127 ; EInc=57.48329 cartesianDistance=24.43040 angle=90.000 pulseDistance=0.42500
G1 X-12.2152 Y12.2152 E141.28456 ; EInc=57.48329 cartesianDistance=24.43040 angle=90.000 pulseDistance=0.42500
G1 X12.2152 Y12.2152 E198.76786 ; EInc=57.48329 cartesianDistance=24.43040 angle=90.000 pulseDistance=0.42500
G1 X12.2152 Y-1.03006 E229.93318 ; EInc=31.16532 cartesianDistance=13.24526 angle=180.000 pulseDistance=0.42500
; 
; feature travel
PRIO_OFF
G0 X11.8642 Y-1.03006 ; cartesianDistance=0.35100 (Travel)
; 
; feature inner perimeter
G1 F24000 FL[E] = InnerPerimeterFrequency * DROP_SCALE * 60
PRIO_ON
G1 X11.8642 Y11.8642 E253.81144 ; EInc=23.87826 cartesianDistance=12.89426 angle=90.000 pulseDistance=0.54000
G1 X-11.8642 Y11.8642 E297.75292 ; EInc=43.94148 cartesianDistance=23.72840 angle=90.000 pulseDistance=0.54000
G1 X-11.8642 Y-11.8642 E341.6944 ; EInc=43.94148 cartesianDistance=23.72840 angle=90.000 pulseDistance=0.54000
G1 X11.8642 Y-11.8642 E385.63588 ; EInc=43.94148 cartesianDistance=23.72840 angle=90.000 pulseDistance=0.54000
G1 X11.8642 Y-1.03006 E405.6991 ; EInc=20.06322 cartesianDistance=10.83414 angle=180.000 pulseDistance=0.54000
; 
; feature travel
PRIO_OFF
G0 X11.8645 Y-1.24242 ; cartesianDistance=0.21236 (Travel)
; 
; feature fill
G1 F24000 FL[E] = FillFrequency * DROP_SCALE * 60
PRIO_ON
G1 X6.91134 Y-11.8645 E428.67983 ; EInc=22.98073 cartesianDistance=11.72017 angle=0.000 pulseDistance=0.51000
; 
; feature travel
PRIO_OFF
G0 X7.40786 Y-11.8645 ; cartesianDistance=0.49652 (Travel)
; 
; feature fill
PRIO_ON
G1 X11.8645 Y-2.30721 E449.3569 ; EInc=20.67707 cartesianDistance=10.54531 angle=0.000 pulseDistance=0.51000
; 
; feature travel
PRIO_OFF
G0 X11.8645 Y-3.372 ; cartesianDistance=1.06479 (Travel)
; 
; feature fill
PRIO_ON
G1 X7.90438 Y-11.8645 E467.73031 ; EInc=18.37341 cartesianDistance=9.37044 angle=0.000 pulseDistance=0.51000
; 
; feature travel
PRIO_OFF
G0 X8.4009 Y-11.8645 ; cartesianDistance=0.49652 (Travel)
; 
; feature fill
PRIO_ON
G1 X11.8645 Y-4.43679 E483.80006 ; EInc=16.06975 cartesianDistance=8.19557 angle=0.000 pulseDistance=0.51000
; 
; feature travel
PRIO_OFF
G0 X11.8645 Y-5.50158 ; cartesianDistance=1.06479 (Travel)
; 
; feature fill
PRIO_ON
G1 X8.89742 Y-11.8645 E497.56615 ; EInc=13.76609 cartesianDistance=7.02071 angle=0.000 pulseDistance=0.51000
; 
; feature travel
PRIO_OFF
G0 X9.39394 Y-11.8645 ; cartesianDistance=0.49652 (Travel)
; 
; feature fill
PRIO_ON
G1 X11.8645 Y-6.56637 E509.02858 ; EInc=11.46243 cartesianDistance=5.84584 angle=0.000 pulseDistance=0.51000
; 
; feature travel
PRIO_OFF
G0 X11.8645 Y-7.63116 ; cartesianDistance=1.06479 (Travel)
; 
; feature fill
PRIO_ON
G1 X9.89046 Y-11.8645 E518.18735 ; EInc=9.15877 cartesianDistance=4.67097 angle=0.000 pulseDistance=0.51000
; 
; feature travel
PRIO_OFF
G0 X10.38698 Y-11.8645 ; cartesianDistance=0.49652 (Travel)
; 
; feature fill
PRIO_ON
G1 X11.8645 Y-8.69595 E525.04246 ; EInc=6.85511 cartesianDistance=3.49611 angle=0.000 pulseDistance=0.51000
; 
; feature travel
PRIO_OFF
G0 X11.8645 Y-9.76074 ; cartesianDistance=1.06479 (Travel)
; 
; feature fill
PRIO_ON
G1 X10.8835 Y-11.8645 E529.59391 ; EInc=4.55145 cartesianDistance=2.32124 angle=0.000 pulseDistance=0.51000
; 
; feature travel
PRIO_OFF
G0 X11.38002 Y-11.8645 ; cartesianDistance=0.49652 (Travel)
; 
; feature fill
PRIO_ON
G1 X11.8645 Y-10.82553 E531.84169 ; EInc=2.24779 cartesianDistance=1.14637 angle=0.000 pulseDistance=0.51000
; 
; feature travel
PRIO_OFF
G0 X6.41482 Y-11.8645 ; cartesianDistance=5.54783 (Travel)
; 
; feature fill
PRIO_ON
G1 X11.8645 Y-0.17763 E557.12608 ; EInc=25.28439 cartesianDistance=12.89504 angle=0.000 pulseDistance=0.51000
; 
; feature travel
PRIO_OFF
G0 X11.8645 Y0.88716 ; cartesianDistance=1.06479 (Travel)
; 
; feature fill
PRIO_ON
G1 X5.9183 Y-11.8645 E584.71413 ; EInc=27.58805 cartesianDistance=14.06990 angle=0.000 pulseDistance=0.51000
; 
; feature travel
PRIO_OFF
G0 X5.42178 Y-11.8645 ; cartesianDistance=0.49652 (Travel)
; 
; feature fill
PRIO_ON
G1 X11.8645 Y1.95196 E614.60584 ; EInc=29.89171 cartesianDistance=15.24477 angle=0.000 pulseDistance=0.51000
; 
; feature travel
PRIO_OFF
G0 X11.8645 Y3.01675 ; cartesianDistance=1.06479 (Travel)
; 
; feature fill
PRIO_ON
G1 X4.92526 Y-11.8645 E646.80121 ; EInc=32.19537 cartesianDistance=16.41964 angle=0.000 pulseDistance=0.51000
; 
; feature travel
PRIO_OFF
G0 X4.42874 Y-11.8645 ; cartesianDistance=0.49652 (Travel)
; 
; feature fill
PRIO_ON
G1 X11.8645 Y4.08154 E681.30024 ; EInc=34.49903 cartesianDistance=17.59450 angle=0.000 pulseDistance=0.51000
; 
; feature travel
PRIO_OFF
G0 X11.8645 Y5.14633 ; cartesianDistance=1.06479 (Travel)
; 
; feature fill
PRIO_ON
G1 X3.93222 Y-11.8645 E718.10293 ; EInc=36.80269 cartesianDistance=18.76937 angle=0.000 pulseDistance=0.51000
; 
; feature travel
PRIO_OFF
G0 X3.4357 Y-11.8645 ; cartesianDistance=0.49652 (Travel)
; 
; feature fill
PRIO_ON
G1 X11.8645 Y6.21112 E757.20927 ; EInc=39.10635 cartesianDistance=19.94424 angle=0.000 pulseDistance=0.51000
; 
; feature travel
PRIO_OFF
G0 X11.8645 Y7.27591 ; cartesianDistance=1.06479 (Travel)
; 
; feature fill
PRIO_ON
G1 X2.93918 Y-11.8645 E798.61928 ; EInc=41.41001 cartesianDistance=21.11910 angle=0.000 pulseDistance=0.51000
; 
; feature travel
PRIO_OFF
G0 X2.44266 Y-11.8645 ; cartesianDistance=0.49652 (Travel)
; 
; feature fill
PRIO_ON
G1 X11.8645 Y8.3407 E842.33295 ; EInc=43.71367 cartesianDistance=22.29397 angle=0.000 pulseDistance=0.51000
; 
; feature travel
PRIO_OFF
G0 X11.8645 Y9.40549 ; cartesianDistance=1.06479 (Travel)
; 
; feature fill
PRIO_ON
G1 X1.94614 Y-11.8645 E888.35028 ; EInc=46.01733 cartesianDistance=23.46884 angle=0.000 pulseDistance=0.51000
; 
; feature travel
PRIO_OFF
G0 X1.44962 Y-11.8645 ; cartesianDistance=0.49652 (Travel)
; 
; feature fill
PRIO_ON
G1 X11.8645 Y10.47028 E936.67127 ; EInc=48.32099 cartesianDistance=24.64370 angle=0.000 pulseDistance=0.51000
; 
; feature travel
PRIO_OFF
G0 X11.8645 Y11.53507 ; cartesianDistance=1.06479 (Travel)
; 
; feature fill
PRIO_ON
G1 X0.9531 Y-11.8645 E987.29592 ; EInc=50.62465 cartesianDistance=25.81857 angle=0.000 pulseDistance=0.51000
; 
; feature travel
PRIO_OFF
G0 X0.45658 Y-11.8645 ; cartesianDistance=0.49652 (Travel)
; 
; feature fill
PRIO_ON
G1 X11.52159 Y11.8645 E1038.63328 ; EInc=51.33736 cartesianDistance=26.18205 angle=0.000 pulseDistance=0.51000
; 
; feature travel
PRIO_OFF
G0 X11.02507 Y11.8645 ; cartesianDistance=0.49652 (Travel)
; 
; feature fill
PRIO_ON
G1 X-0.03994 Y-11.8645 E1089.97064 ; EInc=51.33736 cartesianDistance=26.18205 angle=0.000 pulseDistance=0.51000
; 
; feature travel
PRIO_OFF
G0 X-0.53646 Y-11.8645 ; cartesianDistance=0.49652 (Travel)
; 
; feature fill
PRIO_ON
G1 X10.52855 Y11.8645 E1141.308 ; EInc=51.33736 cartesianDistance=26.18205 angle=0.000 pulseDistance=0.51000
; 
; feature travel
PRIO_OFF
G0 X10.03203 Y11.8645 ; cartesianDistance=0.49652 (Travel)
; 
; feature fill
PRIO_ON
G1 X-1.03298 Y-11.8645 E1192.64536 ; EInc=51.33736 cartesianDistance=26.18205 angle=0.000 pulseDistance=0.51000
; 
; feature travel
PRIO_OFF
G0 X-1.5295 Y-11.8645 ; cartesianDistance=0.49652 (Travel)
; 
; feature fill
PRIO_ON
G1 X9.53551 Y11.8645 E1243.98273 ; EInc=51.33736 cartesianDistance=26.18205 angle=0.000 pulseDistance=0.51000
; 
; feature travel
PRIO_OFF
G0 X9.03899 Y11.8645 ; cartesianDistance=0.49652 (Travel)
; 
; feature fill
PRIO_ON
G1 X-2.02602 Y-11.8645 E1295.32009 ; EInc=51.33736 cartesianDistance=26.18205 angle=0.000 pulseDistance=0.51000
; 
; feature travel
PRIO_OFF
G0 X-2.52254 Y-11.8645 ; cartesianDistance=0.49652 (Travel)
; 
; feature fill
PRIO_ON
G1 X8.54247 Y11.8645 E1346.65745 ; EInc=51.33736 cartesianDistance=26.18205 angle=0.000 pulseDistance=0.51000
; 
; feature travel
PRIO_OFF
G0 X8.04595 Y11.8645 ; cartesianDistance=0.49652 (Travel)
; 
; feature fill
PRIO_ON
G1 X-3.01906 Y-11.8645 E1397.99481 ; EInc=51.33736 cartesianDistance=26.18205 angle=0.000 pulseDistance=0.51000
; 
; feature travel
PRIO_OFF
G0 X-3.51558 Y-11.8645 ; cartesianDistance=0.49652 (Travel)
; 
; feature fill
PRIO_ON
G1 X7.54943 Y11.8645 E1449.33217 ; EInc=51.33736 cartesianDistance=26.18205 angle=0.000 pulseDistance=0.51000
; 
; feature travel
PRIO_OFF
G0 X7.05291 Y11.8645 ; cartesianDistance=0.49652 (Travel)
; 
; feature fill
PRIO_ON
G1 X-4.0121 Y-11.8645 E1500.66954 ; EInc=51.33736 cartesianDistance=26.18205 angle=0.000 pulseDistance=0.51000
; 
; feature travel
PRIO_OFF
G0 X-4.50862 Y-11.8645 ; cartesianDistance=0.49652 (Travel)
; 
; feature fill
PRIO_ON
G1 X6.55639 Y11.8645 E1552.0069 ; EInc=51.33736 cartesianDistance=26.18205 angle=0.000 pulseDistance=0.51000
; 
; feature travel
PRIO_OFF
G0 X6.05987 Y11.8645 ; cartesianDistance=0.49652 (Travel)
; 
; feature fill
PRIO_ON
G1 X-5.00514 Y-11.8645 E1603.34426 ; EInc=51.33736 cartesianDistance=26.18205 angle=0.000 pulseDistance=0.51000
; 
; feature travel
PRIO_OFF
G0 X-5.50166 Y-11.8645 ; cartesianDistance=0.49652 (Travel)
; 
; feature fill
PRIO_ON
G1 X5.56335 Y11.8645 E1654.68162 ; EInc=51.33736 cartesianDistance=26.18205 angle=0.000 pulseDistance=0.51000
; 
; feature travel
PRIO_OFF
G0 X5.06683 Y11.8645 ; cartesianDistance=0.49652 (Travel)
; 
; feature fill
PRIO_ON
G1 X-5.99818 Y-11.8645 E1706.01898 ; EInc=51.33736 cartesianDistance=26.18205 angle=0.000 pulseDistance=0.51000
; 
; feature travel
PRIO_OFF
G0 X-6.4947 Y-11.8645 ; cartesianDistance=0.49652 (Travel)
; 
; feature fill
PRIO_ON
G1 X4.57031 Y11.8645 E1757.35635 ; EInc=51.33736 cartesianDistance=26.18205 angle=0.000 pulseDistance=0.51000
; 
; feature travel
PRIO_OFF
G0 X4.07379 Y11.8645 ; cartesianDistance=0.49652 (Travel)
; 
; feature fill
PRIO_ON
G1 X-6.99122 Y-11.8645 E1808.69371 ; EInc=51.33736 cartesianDistance=26.18205 angle=0.000 pulseDistance=0.51000
; 
; feature travel
PRIO_OFF
G0 X-7.48774 Y-11.8645 ; cartesianDistance=0.49652 (Travel)
; 
; feature fill
PRIO_ON
G1 X3.57727 Y11.8645 E1860.03107 ; EInc=51.33736 cartesianDistance=26.18205 angle=0.000 pulseDistance=0.51000
; 
; feature travel
PRIO_OFF
G0 X3.08075 Y11.8645 ; cartesianDistance=0.49652 (Travel)
; 
; feature fill
PRIO_ON
G1 X-7.98426 Y-11.8645 E1911.36843 ; EInc=51.33736 cartesianDistance=26.18205 angle=0.000 pulseDistance=0.51000
; 
; feature travel
PRIO_OFF
G0 X-8.48078 Y-11.8645 ; cartesianDistance=0.49652 (Travel)
; 
; feature fill
PRIO_ON
G1 X2.58423 Y11.8645 E1962.70579 ; EInc=51.33736 cartesianDistance=26.18205 angle=0.000 pulseDistance=0.51000
; 
; feature travel
PRIO_OFF
G0 X2.08771 Y11.8645 ; cartesianDistance=0.49652 (Travel)
; 
; feature fill
PRIO_ON
G1 X-8.9773 Y-11.8645 E2014.04316 ; EInc=51.33736 cartesianDistance=26.18205 angle=0.000 pulseDistance=0.51000
; 
; feature travel
PRIO_OFF
G0 X-9.47382 Y-11.8645 ; cartesianDistance=0.49652 (Travel)
; 
; feature fill
PRIO_ON
G1 X1.59119 Y11.8645 E2065.38052 ; EInc=51.33736 cartesianDistance=26.18205 angle=0.000 pulseDistance=0.51000
; 
; feature travel
PRIO_OFF
G0 X1.09467 Y11.8645 ; cartesianDistance=0.49652 (Travel)
; 
; feature fill
PRIO_ON
G1 X-9.97034 Y-11.8645 E2116.71788 ; EInc=51.33736 cartesianDistance=26.18205 angle=0.000 pulseDistance=0.51000
; 
; feature travel
PRIO_OFF
G0 X-10.46686 Y-11.8645 ; cartesianDistance=0.49652 (Travel)
; 
; feature fill
PRIO_ON
G1 X0.59815 Y11.8645 E2168.05524 ; EInc=51.33736 cartesianDistance=26.18205 angle=0.000 pulseDistance=0.51000
; 
; feature travel
PRIO_OFF
G0 X0.10163 Y11.8645 ; cartesianDistance=0.49652 (Travel)
; 
; feature fill
PRIO_ON
G1 X-10.96338 Y-11.8645 E2219.3926 ; EInc=51.33736 cartesianDistance=26.18205 angle=0.000 pulseDistance=0.51000
; 
; feature travel
PRIO_OFF
G0 X-11.4599 Y-11.8645 ; cartesianDistance=0.49652 (Travel)
; 
; feature fill
PRIO_ON
G1 X-0.39489 Y11.8645 E2270.72997 ; EInc=51.33736 cartesianDistance=26.18205 angle=0.000 pulseDistance=0.51000
; 
; feature travel
PRIO_OFF
G0 X-0.89141 Y11.8645 ; cartesianDistance=0.49652 (Travel)
; 
; feature fill
PRIO_ON
G1 X-11.8645 Y-11.66737 E2321.64085 ; EInc=50.91088 cartesianDistance=25.96455 angle=0.000 pulseDistance=0.51000
; 
; feature travel
PRIO_OFF
G0 X-11.8645 Y-10.60258 ; cartesianDistance=1.06479 (Travel)
; 
; feature fill
PRIO_ON
G1 X-1.38793 Y11.8645 E2370.24807 ; EInc=48.60722 cartesianDistance=24.78968 angle=0.000 pulseDistance=0.51000
; 
; feature travel
PRIO_OFF
G0 X-1.88445 Y11.8645 ; cartesianDistance=0.49652 (Travel)
; 
; feature fill
PRIO_ON
G1 X-11.8645 Y-9.53779 E2416.55164 ; EInc=46.30356 cartesianDistance=23.61482 angle=0.000 pulseDistance=0.51000
; 
; feature travel
PRIO_OFF
G0 X-11.8645 Y-8.473 ; cartesianDistance=1.06479 (Travel)
; 
; feature fill
PRIO_ON
G1 X-2.38097 Y11.8645 E2460.55154 ; EInc=43.99990 cartesianDistance=22.43995 angle=0.000 pulseDistance=0.51000
; 
; feature travel
PRIO_OFF
G0 X-2.87749 Y11.8645 ; cartesianDistance=0.49652 (Travel)
; 
; feature fill
PRIO_ON
G1 X-11.8645 Y-7.40821 E2502.24779 ; EInc=41.69624 cartesianDistance=21.26508 angle=0.000 pulseDistance=0.51000
; 
; feature travel
PRIO_OFF
G0 X-11.8645 Y-6.34342 ; cartesianDistance=1.06479 (Travel)
; 
; feature fill
PRIO_ON
G1 X-3.37401 Y11.8645 E2541.64037 ; EInc=39.39258 cartesianDistance=20.09022 angle=0.000 pulseDistance=0.51000
; 
; feature travel
PRIO_OFF
G0 X-3.87053 Y11.8645 ; cartesianDistance=0.49652 (Travel)
; 
; feature fill
PRIO_ON
G1 X-11.8645 Y-5.27863 E2578.7293 ; EInc=37.08892 cartesianDistance=18.91535 angle=0.000 pulseDistance=0.51000
; 
; feature travel
PRIO_OFF
G0 X-11.8645 Y-4.21384 ; cartesianDistance=1.06479 (Travel)
; 
; feature fill
PRIO_ON
G1 X-4.36705 Y11.8645 E2613.51456 ; EInc=34.78526 cartesianDistance=17.74049 angle=0.000 pulseDistance=0.51000
; 
; feature travel
PRIO_OFF
G0 X-4.86357 Y11.8645 ; cartesianDistance=0.49652 (Travel)
; 
; feature fill
PRIO_ON
G1 X-11.8645 Y-3.14905 E2645.99617 ; EInc=32.48160 cartesianDistance=16.56562 angle=0.000 pulseDistance=0.51000
; 
; feature travel
PRIO_OFF
G0 X-11.8645 Y-2.08426 ; cartesianDistance=1.06479 (Travel)
; 
; feature fill
PRIO_ON
G1 X-5.36009 Y11.8645 E2676.17411 ; EInc=30.17794 cartesianDistance=15.39075 angle=0.000 pulseDistance=0.51000
; 
; feature travel
PRIO_OFF
G0 X-5.85661 Y11.8645 ; cartesianDistance=0.49652 (Travel)
; 
; feature fill
PRIO_ON
G1 X-11.8645 Y-1.01947 E2704.0484 ; EInc=27.87429 cartesianDistance=14.21589 angle=0.000 pulseDistance=0.51000
; 
; feature travel
PRIO_OFF
G0 X-11.8645 Y0.04532 ; cartesianDistance=1.06479 (Travel)
; 
; feature fill
PRIO_ON
G1 X-6.35313 Y11.8645 E2729.61902 ; EInc=25.57063 cartesianDistance=13.04102 angle=0.000 pulseDistance=0.51000
; 
; feature travel
PRIO_OFF
G0 X-6.84965 Y11.8645 ; cartesianDistance=0.49652 (Travel)
; 
; feature fill
PRIO_ON
G1 X-11.8645 Y1.11011 E2752.88599 ; EInc=23.26697 cartesianDistance=11.86615 angle=0.000 pulseDistance=0.51000
; 
; feature travel
PRIO_OFF
G0 X-11.8645 Y2.1749 ; cartesianDistance=1.06479 (Travel)
; 
; feature fill
PRIO_ON
G1 X-7.34617 Y11.8645 E2773.84929 ; EInc=20.96331 cartesianDistance=10.69129 angle=0.000 pulseDistance=0.51000
; 
; feature travel
PRIO_OFF
G0 X-7.84269 Y11.8645 ; cartesianDistance=0.49652 (Travel)
; 
; feature fill
PRIO_ON
G1 X-11.8645 Y3.2397 E2792.50894 ; EInc=18.65965 cartesianDistance=9.51642 angle=0.000 pulseDistance=0.51000
; 
; feature travel
PRIO_OFF
G0 X-11.8645 Y4.30449 ; cartesianDistance=1.06479 (Travel)
; 
; feature fill
PRIO_ON
G1 X-8.33921 Y11.8645 E2808.86492 ; EInc=16.35599 cartesianDistance=8.34155 angle=0.000 pulseDistance=0.51000
; 
; feature travel
PRIO_OFF
G0 X-8.83573 Y11.8645 ; cartesianDistance=0.49652 (Travel)
; 
; feature fill
PRIO_ON
G1 X-11.8645 Y5.36928 E2822.91725 ; EInc=14.05233 cartesianDistance=7.16669 angle=0.000 pulseDistance=0.51000
; 
; feature travel
PRIO_OFF
G0 X-11.8645 Y6.43407 ; cartesianDistance=1.06479 (Travel)
; 
; feature fill
PRIO_ON
G1 X-9.33225 Y11.8645 E2834.66591 ; EInc=11.74867 cartesianDistance=5.99182 angle=0.000 pulseDistance=0.51000
; 
; feature travel
PRIO_OFF
G0 X-9.82877 Y11.8645 ; cartesianDistance=0.49652 (Travel)
; 
; feature fill
PRIO_ON
G1 X-11.8645 Y7.49886 E2844.11092 ; EInc=9.44501 cartesianDistance=4.81695 angle=0.000 pulseDistance=0.51000
; 
; feature travel
PRIO_OFF
G0 X-11.8645 Y8.56365 ; cartesianDistance=1.06479 (Travel)
; 
; feature fill
PRIO_ON
G1 X-10.32529 Y11.8645 E2851.25227 ; EInc=7.14135 cartesianDistance=3.64209 angle=0.000 pulseDistance=0.51000
; 
; feature travel
PRIO_OFF
G0 X-10.82181 Y11.8645 ; cartesianDistance=0.49652 (Travel)
; 
; feature fill
PRIO_ON
G1 X-11.8645 Y9.62844 E2856.08995 ; EInc=4.83769 cartesianDistance=2.46722 angle=0.000 pulseDistance=0.51000
; 
; feature travel
PRIO_OFF
G0 X-11.8645 Y10.69323 ; cartesianDistance=1.06479 (Travel)
; 
; feature fill
PRIO_ON
G1 X-11.31833 Y11.8645 E2858.62398 ; EInc=2.53403 cartesianDistance=1.29235 angle=0.000 pulseDistance=0.51000
; 
; feature travel
PRIO_OFF
G0 X-11.81485 Y11.8645 ; cartesianDistance=0.49652 (Travel)
; 
; feature fill
PRIO_ON
G1 X-11.8645 Y11.75802 E2858.85434 ; EInc=0.23037 cartesianDistance=0.11749 angle=0.000 pulseDistance=0.51000
PRIO_OFF
LayersCompleted=2
M1
; 
;========================
; layer 2, Z = 0.7200
; 
; reset extrusion
STOPRE
PRESETON(E, 0)
DO PRIO_PULSE_DISTANCE=DROP_SCALE
DO PRIO_ON_PATH_OFFSET=0.5*PRIO_PULSE_DISTANCE
;outer: (12.6302,-12.6302) (12.6302,12.6302) (-12.6302,12.6302) (-12.6302,-12.6302) (-11.1302,-12.6302) holes: !
;overhangs:!
; 
; feature plane change
G0 X-11.8645 Y11.75802 Z0.72 ; cartesianDistance=0.00000 (Plane Change)
; 
; feature travel
G0 X-4.73166 Y12.2152 ; cartesianDistance=7.14748 (Travel)
; 
; feature outer perimeter
G1 F24000 FL[E] = OuterPerimeterFrequency * DROP_SCALE * 60
PRIO_ON
G1 X-12.2152 Y12.2152 E17.60833 ; EInc=17.60833 cartesianDistance=7.48354 angle=90.000 pulseDistance=0.42500
G1 X-12.2152 Y-12.2152 E75.09162 ; EInc=57.48329 cartesianDistance=24.43040 angle=90.000 pulseDistance=0.42500
G1 X12.2152 Y-12.2152 E132.57492 ; EInc=57.48329 cartesianDistance=24.43040 angle=90.000 pulseDistance=0.42500
G1 X12.2152 Y12.2152 E190.05821 ; EInc=57.48329 cartesianDistance=24.43040 angle=90.000 pulseDistance=0.42500
G1 X-4.73166 Y12.2152 E229.93318 ; EInc=39.87496 cartesianDistance=16.94686 angle=180.000 pulseDistance=0.42500
; 
; feature travel
PRIO_OFF
G0 X-4.73166 Y11.8642 ; cartesianDistance=0.35100 (Travel)
; 
; feature inner perimeter
G1 F24000 FL[E] = InnerPerimeterFrequency * DROP_SCALE * 60
PRIO_ON
G1 X11.8642 Y11.8642 E260.66625 ; EInc=30.73307 cartesianDistance=16.59586 angle=90.000 pulseDistance=0.54000
G1 X11.8642 Y-11.8642 E304.60773 ; EInc=43.94148 cartesianDistance=23.72840 angle=90.000 pulseDistance=0.54000
G1 X-11.8642 Y-11.8642 E348.54921 ; EInc=43.94148 cartesianDistance=23.72840 angle=90.000 pulseDistance=0.54000
G1 X-11.8642 Y11.8642 E392.49069 ; EInc=43.94148 cartesianDistance=23.72840 angle=90.000 pulseDistance=0.54000
G1 X-4.73166 Y11.8642 E405.6991 ; EInc=13.20841 cartesianDistance=7.13254 angle=180.000 pulseDistance=0.54000
; 
; feature travel
PRIO_OFF
G0 X-4.65022 Y11.8645 ; cartesianDistance=0.08144 (Travel)
; 
; feature fill
G1 F24000 FL[E] = FillFrequency * DROP_SCALE * 60
PRIO_ON
G1 X3.98643 Y-11.8645 E455.21258 ; EInc=49.51348 cartesianDistance=25.25187 angle=0.000 pulseDistance=0.51000
; 
; feature travel
PRIO_OFF
G0 X3.50755 Y-11.8645 ; cartesianDistance=0.47888 (Travel)
; 
; feature fill
PRIO_ON
G1 X-5.1291 Y11.8645 E504.72606 ; EInc=49.51348 cartesianDistance=25.25187 angle=0.000 pulseDistance=0.51000
; 
; feature travel
PRIO_OFF
G0 X-5.60798 Y11.8645 ; cartesianDistance=0.47888 (Travel)
; 
; feature fill
PRIO_ON
G1 X3.02867 Y-11.8645 E554.23954 ; EInc=49.51348 cartesianDistance=25.25187 angle=0.000 pulseDistance=0.51000
; 
; feature travel
PRIO_OFF
G0 X2.54979 Y-11.8645 ; cartesianDistance=0.47888 (Travel)
; 
; feature fill
PRIO_ON
G1 X-6.08686 Y11.8645 E603.75302 ; EInc=49.51348 cartesianDistance=25.25187 angle=0.000 pulseDistance=0.51000
; 
; feature travel
PRIO_OFF
G0 X-6.56574 Y11.8645 ; cartesianDistance=0.47888 (Travel)
; 
; feature fill
PRIO_ON
G1 X2.07091 Y-11.8645 E653.2665 ; EInc=49.51348 cartesianDistance=25.25187 angle=0.000 pulseDistance=0.51000
; 
; feature travel
PRIO_OFF
G0 X1.59203 Y-11.8645 ; cartesianDistance=0.47888 (Travel)
; 
; feature fill
PRIO_ON
G1 X-7.04462 Y11.8645 E702.77998 ; EInc=49.51348 cartesianDistance=25.25187 angle=0.000 pulseDistance=0.51000
; 
; feature travel
PRIO_OFF
G0 X-7.5235 Y11.8645 ; cartesianDistance=0.47888 (Travel)
; 
; feature fill
PRIO_ON
G1 X1.11315 Y-11.8645 E752.29346 ; EInc=49.51348 cartesianDistance=25.25187 angle=0.000 pulseDistance=0.51000
; 
; feature travel
PRIO_OFF
G0 X0.63427 Y-11.8645 ; cartesianDistance=0.47888 (Travel)
; 
; feature fill
PRIO_ON
G1 X-8.00238 Y11.8645 E801.80694 ; EInc=49.51348 cartesianDistance=25.25187 angle=0.000 pulseDistance=0.51000
; 
; feature travel
PRIO_OFF
G0 X-8.48126 Y11.8645 ; cartesianDistance=0.47888 (Travel)
; 
; feature fill
PRIO_ON
G1 X0.15539 Y-11.8645 E851.32041 ; EInc=49.51348 cartesianDistance=25.25187 angle=0.000 pulseDistance=0.51000
; 
; feature travel
PRIO_OFF
G0 X-0.32349 Y-11.8645 ; cartesianDistance=0.47888 (Travel)
; 
; feature fill
PRIO_ON
G1 X-8.96014 Y11.8645 E900.83389 ; EInc=49.51348 cartesianDistance=25.25187 angle=0.000 pulseDistance=0.51000
; 
; feature travel
PRIO_OFF
G0 X-9.43902 Y11.8645 ; cartesianDistance=0.47888 (Travel)
; 
; feature fill
PRIO_ON
G1 X-0.80237 Y-11.8645 E950.34737 ; EInc=49.51348 cartesianDistance=25.25187 angle=0.000 pulseDistance=0.51000
; 
; feature travel
PRIO_OFF
G0 X-1.28125 Y-11.8645 ; cartesianDistance=0.47888 (Travel)
; 
; feature fill
PRIO_ON
G1 X-9.9179 Y11.8645 E999.86085 ; EInc=49.51348 cartesianDistance=25.25187 angle=0.000 pulseDistance=0.51000
; 
; feature travel
PRIO_OFF
G0 X-10.39678 Y11.8645 ; cartesianDistance=0.47888 (Travel)
; 
; feature fill
PRIO_ON
G1 X-1.76013 Y-11.8645 E1049.37433 ; EInc=49.51348 cartesianDistance=25.25187 angle=0.000 pulseDistance=0.51000
; 
; feature travel
PRIO_OFF
G0 X-2.23901 Y-11.8645 ; cartesianDistance=0.47888 (Travel)
; 
; feature fill
PRIO_ON
G1 X-10.87566 Y11.8645 E1098.88781 ; EInc=49.51348 cartesianDistance=25.25187 angle=0.000 pulseDistance=0.51000
; 
; feature travel
PRIO_OFF
G0 X-11.35454 Y11.8645 ; cartesianDistance=0.47888 (Travel)
; 
; feature fill
PRIO_ON
G1 X-2.71789 Y-11.8645 E1148.40129 ; EInc=49.51348 cartesianDistance=25.25187 angle=0.000 pulseDistance=0.51000
; 
; feature travel
PRIO_OFF
G0 X-3.19677 Y-11.8645 ; cartesianDistance=0.47888 (Travel)
; 
; feature fill
PRIO_ON
G1 X-11.83342 Y11.8645 E1197.91477 ; EInc=49.51348 cartesianDistance=25.25187 angle=0.000 pulseDistance=0.51000
; 
; feature travel
PRIO_OFF
G0 X-11.8645 Y10.63417 ; cartesianDistance=1.23072 (Travel)
; 
; feature fill
PRIO_ON
G1 X-3.67565 Y-11.8645 E1244.86102 ; EInc=46.94625 cartesianDistance=23.94259 angle=0.000 pulseDistance=0.51000
; 
; feature travel
PRIO_OFF
G0 X-4.15453 Y-11.8645 ; cartesianDistance=0.47888 (Travel)
; 
; feature fill
PRIO_ON
G1 X-11.8645 Y9.31846 E1289.06188 ; EInc=44.20086 cartesianDistance=22.54244 angle=0.000 pulseDistance=0.51000
; 
; feature travel
PRIO_OFF
G0 X-11.8645 Y8.00275 ; cartesianDistance=1.31571 (Travel)
; 
; feature fill
PRIO_ON
G1 X-4.63341 Y-11.8645 E1330.51735 ; EInc=41.45546 cartesianDistance=21.14229 angle=0.000 pulseDistance=0.51000
; 
; feature travel
PRIO_OFF
G0 X-5.11229 Y-11.8645 ; cartesianDistance=0.47888 (Travel)
; 
; feature fill
PRIO_ON
G1 X-11.8645 Y6.68704 E1369.22742 ; EInc=38.71007 cartesianDistance=19.74214 angle=0.000 pulseDistance=0.51000
; 
; feature travel
PRIO_OFF
G0 X-11.8645 Y5.37133 ; cartesianDistance=1.31571 (Travel)
; 
; feature fill
PRIO_ON
G1 X-5.59117 Y-11.8645 E1405.19209 ; EInc=35.96467 cartesianDistance=18.34198 angle=0.000 pulseDistance=0.51000
; 
; feature travel
PRIO_OFF
G0 X-6.07005 Y-11.8645 ; cartesianDistance=0.47888 (Travel)
; 
; feature fill
PRIO_ON
G1 X-11.8645 Y4.05561 E1438.41137 ; EInc=33.21928 cartesianDistance=16.94183 angle=0.000 pulseDistance=0.51000
; 
; feature travel
PRIO_OFF
G0 X-11.8645 Y2.7399 ; cartesianDistance=1.31571 (Travel)
; 
; feature fill
PRIO_ON
G1 X-6.54893 Y-11.8645 E1468.88525 ; EInc=30.47388 cartesianDistance=15.54168 angle=0.000 pulseDistance=0.51000
; 
; feature travel
PRIO_OFF
G0 X-7.02781 Y-11.8645 ; cartesianDistance=0.47888 (Travel)
; 
; feature fill
PRIO_ON
G1 X-11.8645 Y1.42419 E1496.61374 ; EInc=27.72849 cartesianDistance=14.14153 angle=0.000 pulseDistance=0.51000
; 
; feature travel
PRIO_OFF
G0 X-11.8645 Y0.10848 ; cartesianDistance=1.31571 (Travel)
; 
; feature fill
PRIO_ON
G1 X-7.50669 Y-11.8645 E1521.59684 ; EInc=24.98309 cartesianDistance=12.74138 angle=0.000 pulseDistance=0.51000
; 
; feature travel
PRIO_OFF
G0 X-7.98557 Y-11.8645 ; cartesianDistance=0.47888 (Travel)
; 
; feature fill
PRIO_ON
G1 X-11.8645 Y-1.20723 E1543.83454 ; EInc=22.23770 cartesianDistance=11.34123 angle=0.000 pulseDistance=0.51000
; 
; feature travel
PRIO_OFF
G0 X-11.8645 Y-2.52294 ; cartesianDistance=1.31571 (Travel)
; 
; feature fill
PRIO_ON
G1 X-8.46445 Y-11.8645 E1563.32684 ; EInc=19.49230 cartesianDistance=9.94108 angle=0.000 pulseDistance=0.51000
; 
; feature travel
PRIO_OFF
G0 X-8.94333 Y-11.8645 ; cartesianDistance=0.47888 (Travel)
; 
; feature fill
PRIO_ON
G1 X-11.8645 Y-3.83866 E1580.07375 ; EInc=16.74691 cartesianDistance=8.54092 angle=0.000 pulseDistance=0.51000
; 
; feature travel
PRIO_OFF
G0 X-11.8645 Y-5.15437 ; cartesianDistance=1.31571 (Travel)
; 
; feature fill
PRIO_ON
G1 X-9.42221 Y-11.8645 E1594.07527 ; EInc=14.00151 cartesianDistance=7.14077 angle=0.000 pulseDistance=0.51000
; 
; feature travel
PRIO_OFF
G0 X-9.90109 Y-11.8645 ; cartesianDistance=0.47888 (Travel)
; 
; feature fill
PRIO_ON
G1 X-11.8645 Y-6.47008 E1605.33138 ; EInc=11.25612 cartesianDistance=5.74062 angle=0.000 pulseDistance=0.51000
; 
; feature travel
PRIO_OFF
G0 X-11.8645 Y-7.78579 ; cartesianDistance=1.31571 (Travel)
; 
; feature fill
PRIO_ON
G1 X-10.37997 Y-11.8645 E1613.84211 ; EInc=8.51072 cartesianDistance=4.34047 angle=0.000 pulseDistance=0.51000
; 
; feature travel
PRIO_OFF
G0 X-10.85885 Y-11.8645 ; cartesianDistance=0.47888 (Travel)
; 
; feature fill
PRIO_ON
G1 X-11.8645 Y-9.1015 E1619.60744 ; EInc=5.76533 cartesianDistance=2.94032 angle=0.000 pulseDistance=0.51000
; 
; feature travel
PRIO_OFF
G0 X-11.8645 Y-10.41722 ; cartesianDistance=1.31571 (Travel)
; 
; feature fill
PRIO_ON
G1 X-11.33773 Y-11.8645 E1622.62737 ; EInc=3.01993 cartesianDistance=1.54017 angle=0.000 pulseDistance=0.51000
; 
; feature travel
PRIO_OFF
G0 X-11.81661 Y-11.8645 ; cartesianDistance=0.47888 (Travel)
; 
; feature fill
PRIO_ON
G1 X-11.8645 Y-11.73293 E1622.90191 ; EInc=0.27454 cartesianDistance=0.14002 angle=0.000 pulseDistance=0.51000
; 
; feature travel
PRIO_OFF
G0 X4.46531 Y-11.8645 ; cartesianDistance=16.33034 (Travel)
; 
; feature fill
PRIO_ON
G1 X-4.17134 Y11.8645 E1672.41539 ; EInc=49.51348 cartesianDistance=25.25187 angle=0.000 pulseDistance=0.51000
; 
; feature travel
PRIO_OFF
G0 X-3.69246 Y11.8645 ; cartesianDistance=0.47888 (Travel)
; 
; feature fill
PRIO_ON
G1 X4.94419 Y-11.8645 E1721.92887 ; EInc=49.51348 cartesianDistance=25.25187 angle=0.000 pulseDistance=0.51000
; 
; feature travel
PRIO_OFF
G0 X5.42307 Y-11.8645 ; cartesianDistance=0.47888 (Travel)
; 
; feature fill
PRIO_ON
G1 X-3.21358 Y11.8645 E1771.44235 ; EInc=49.51348 cartesianDistance=25.25187 angle=0.000 pulseDistance=0.51000
; 
; feature travel
PRIO_OFF
G0 X-2.7347 Y11.8645 ; cartesianDistance=0.47888 (Travel)
; 
; feature fill
PRIO_ON
G1 X5.90195 Y-11.8645 E1820.95583 ; EInc=49.51348 cartesianDistance=25.25187 angle=0.000 pulseDistance=0.51000
; 
; feature travel
PRIO_OFF
G0 X6.38083 Y-11.8645 ; cartesianDistance=0.47888 (Travel)
; 
; feature fill
PRIO_ON
G1 X-2.25582 Y11.8645 E1870.46931 ; EInc=49.51348 cartesianDistance=25.25187 angle=0.000 pulseDistance=0.51000
; 
; feature travel
PRIO_OFF
G0 X-1.77694 Y11.8645 ; cartesianDistance=0.47888 (Travel)
; 
; feature fill
PRIO_ON
G1 X6.85971 Y-11.8645 E1919.98279 ; EInc=49.51348 cartesianDistance=25.25187 angle=0.000 pulseDistance=0.51000
; 
; feature travel
PRIO_OFF
G0 X7.33859 Y-11.8645 ; cartesianDistance=0.47888 (Travel)
; 
; feature fill
PRIO_ON
G1 X-1.29806 Y11.8645 E1969.49627 ; EInc=49.51348 cartesianDistance=25.25187 angle=0.000 pulseDistance=0.51000
; 
; feature travel
PRIO_OFF
G0 X-0.81918 Y11.8645 ; cartesianDistance=0.47888 (Travel)
; 
; feature fill
PRIO_ON
G1 X7.81747 Y-11.8645 E2019.00975 ; EInc=49.51348 cartesianDistance=25.25187 angle=0.000 pulseDistance=0.51000
; 
; feature travel
PRIO_OFF
G0 X8.29635 Y-11.8645 ; cartesianDistance=0.47888 (Travel)
; 
; feature fill
PRIO_ON
G1 X-0.3403 Y11.8645 E2068.52323 ; EInc=49.51348 cartesianDistance=25.25187 angle=0.000 pulseDistance=0.51000
; 
; feature travel
PRIO_OFF
G0 X0.13858 Y11.8645 ; cartesianDistance=0.47888 (Travel)
; 
; feature fill
PRIO_ON
G1 X8.77523 Y-11.8645 E2118.0367 ; EInc=49.51348 cartesianDistance=25.25187 angle=0.000 pulseDistance=0.51000
; 
; feature travel
PRIO_OFF
G0 X9.25411 Y-11.8645 ; cartesianDistance=0.47888 (Travel)
; 
; feature fill
PRIO_ON
G1 X0.61746 Y11.8645 E2167.55018 ; EInc=49.51348 cartesianDistance=25.25187 angle=0.000 pulseDistance=0.51000
; 
; feature travel
PRIO_OFF
G0 X1.09634 Y11.8645 ; cartesianDistance=0.47888 (Travel)
; 
; feature fill
PRIO_ON
G1 X9.73299 Y-11.8645 E2217.06366 ; EInc=49.51348 cartesianDistance=25.25187 angle=0.000 pulseDistance=0.51000
; 
; feature travel
PRIO_OFF
G0 X10.21187 Y-11.8645 ; cartesianDistance=0.47888 (Travel)
; 
; feature fill
PRIO_ON
G1 X1.57522 Y11.8645 E2266.57714 ; EInc=49.51348 cartesianDistance=25.25187 angle=0.000 pulseDistance=0.51000
; 
; feature travel
PRIO_OFF
G0 X2.0541 Y11.8645 ; cartesianDistance=0.47888 (Travel)
; 
; feature fill
PRIO_ON
G1 X10.69075 Y-11.8645 E2316.09062 ; EInc=49.51348 cartesianDistance=25.25187 angle=0.000 pulseDistance=0.51000
; 
; feature travel
PRIO_OFF
G0 X11.16963 Y-11.8645 ; cartesianDistance=0.47888 (Travel)
; 
; feature fill
PRIO_ON
G1 X2.53298 Y11.8645 E2365.6041 ; EInc=49.51348 cartesianDistance=25.25187 angle=0.000 pulseDistance=0.51000
; 
; feature travel
PRIO_OFF
G0 X3.01186 Y11.8645 ; cartesianDistance=0.47888 (Travel)
; 
; feature fill
PRIO_ON
G1 X11.64851 Y-11.8645 E2415.11758 ; EInc=49.51348 cartesianDistance=25.25187 angle=0.000 pulseDistance=0.51000
; 
; feature travel
PRIO_OFF
G0 X11.8645 Y-11.14222 ; cartesianDistance=0.75388 (Travel)
; 
; feature fill
PRIO_ON
G1 X3.49074 Y11.8645 E2463.12394 ; EInc=48.00636 cartesianDistance=24.48324 angle=0.000 pulseDistance=0.51000
; 
; feature travel
PRIO_OFF
G0 X3.96962 Y11.8645 ; cartesianDistance=0.47888 (Travel)
; 
; feature fill
PRIO_ON
G1 X11.8645 Y-9.82651 E2508.3849 ; EInc=45.26096 cartesianDistance=23.08309 angle=0.000 pulseDistance=0.51000
; 
; feature travel
PRIO_OFF
G0 X11.8645 Y-8.5108 ; cartesianDistance=1.31571 (Travel)
; 
; feature fill
PRIO_ON
G1 X4.4485 Y11.8645 E2550.90046 ; EInc=42.51557 cartesianDistance=21.68294 angle=0.000 pulseDistance=0.51000
; 
; feature travel
PRIO_OFF
G0 X4.92738 Y11.8645 ; cartesianDistance=0.47888 (Travel)
; 
; feature fill
PRIO_ON
G1 X11.8645 Y-7.19509 E2590.67063 ; EInc=39.77017 cartesianDistance=20.28279 angle=0.000 pulseDistance=0.51000
; 
; feature travel
PRIO_OFF
G0 X11.8645 Y-5.87937 ; cartesianDistance=1.31571 (Travel)
; 
; feature fill
PRIO_ON
G1 X5.40626 Y11.8645 E2627.69541 ; EInc=37.02478 cartesianDistance=18.88264 angle=0.000 pulseDistance=0.51000
; 
; feature travel
PRIO_OFF
G0 X5.88514 Y11.8645 ; cartesianDistance=0.47888 (Travel)
; 
; feature fill
PRIO_ON
G1 X11.8645 Y-4.56366 E2661.97479 ; EInc=34.27938 cartesianDistance=17.48248 angle=0.000 pulseDistance=0.51000
; 
; feature travel
PRIO_OFF
G0 X11.8645 Y-3.24795 ; cartesianDistance=1.31571 (Travel)
; 
; feature fill
PRIO_ON
G1 X6.36402 Y11.8645 E2693.50878 ; EInc=31.53399 cartesianDistance=16.08233 angle=0.000 pulseDistance=0.51000
; 
; feature travel
PRIO_OFF
G0 X6.8429 Y11.8645 ; cartesianDistance=0.47888 (Travel)
; 
; feature fill
PRIO_ON
G1 X11.8645 Y-1.93224 E2722.29737 ; EInc=28.78859 cartesianDistance=14.68218 angle=0.000 pulseDistance=0.51000
; 
; feature travel
PRIO_OFF
G0 X11.8645 Y-0.61653 ; cartesianDistance=1.31571 (Travel)
; 
; feature fill
PRIO_ON
G1 X7.32178 Y11.8645 E2748.34056 ; EInc=26.04320 cartesianDistance=13.28203 angle=0.000 pulseDistance=0.51000
; 
; feature travel
PRIO_OFF
G0 X7.80066 Y11.8645 ; cartesianDistance=0.47888 (Travel)
; 
; feature fill
PRIO_ON
G1 X11.8645 Y0.69919 E2771.63837 ; EInc=23.29780 cartesianDistance=11.88188 angle=0.000 pulseDistance=0.51000
; 
; feature travel
PRIO_OFF
G0 X11.8645 Y2.0149 ; cartesianDistance=1.31571 (Travel)
; 
; feature fill
PRIO_ON
G1 X8.27954 Y11.8645 E2792.19077 ; EInc=20.55241 cartesianDistance=10.48173 angle=0.000 pulseDistance=0.51000
; 
; feature travel
PRIO_OFF
G0 X8.75842 Y11.8645 ; cartesianDistance=0.47888 (Travel)
; 
; feature fill
PRIO_ON
G1 X11.8645 Y3.33061 E2809.99778 ; EInc=17.80701 cartesianDistance=9.08158 angle=0.000 pulseDistance=0.51000
; 
; feature travel
PRIO_OFF
G0 X11.8645 Y4.64632 ; cartesianDistance=1.31571 (Travel)
; 
; feature fill
PRIO_ON
G1 X9.2373 Y11.8645 E2825.0594 ; EInc=15.06162 cartesianDistance=7.68142 angle=0.000 pulseDistance=0.51000
; 
; feature travel
PRIO_OFF
G0 X9.71618 Y11.8645 ; cartesianDistance=0.47888 (Travel)
; 
; feature fill
PRIO_ON
G1 X11.8645 Y5.96203 E2837.37562 ; EInc=12.31622 cartesianDistance=6.28127 angle=0.000 pulseDistance=0.51000
; 
; feature travel
PRIO_OFF
G0 X11.8645 Y7.27775 ; cartesianDistance=1.31571 (Travel)
; 
; feature fill
PRIO_ON
G1 X10.19506 Y11.8645 E2846.94645 ; EInc=9.57083 cartesianDistance=4.88112 angle=0.000 pulseDistance=0.51000
; 
; feature travel
PRIO_OFF
G0 X10.67394 Y11.8645 ; cartesianDistance=0.47888 (Travel)
; 
; feature fill
PRIO_ON
G1 X11.8645 Y8.59346 E2853.77188 ; EInc=6.82543 cartesianDistance=3.48097 angle=0.000 pulseDistance=0.51000
; 
; feature travel
PRIO_OFF
G0 X11.8645 Y9.90917 ; cartesianDistance=1.31571 (Travel)
; 
; feature fill
PRIO_ON
G1 X11.15282 Y11.8645 E2857.85191 ; EInc=4.08004 cartesianDistance=2.08082 angle=0.000 pulseDistance=0.51000
; 
; feature travel
PRIO_OFF
G0 X11.6317 Y11.8645 ; cartesianDistance=0.47888 (Travel)
; 
; feature fill
PRIO_ON
G1 X11.8645 Y11.22488 E2859.18656 ; EInc=1.33464 cartesianDistance=0.68067 angle=0.000 pulseDistance=0.51000
PRIO_OFF
LayersCompleted=3
M1
; 
;========================
; layer 3, Z = 0.9600
; 
; reset extrusion
STOPRE
PRESETON(E, 0)
DO PRIO_PULSE_DISTANCE=DROP_SCALE
DO PRIO_ON_PATH_OFFSET=0.5*PRIO_PULSE_DISTANCE
;outer: (12.6302,-12.6302) (12.6302,12.6302) (-12.6302,12.6302) (-12.6302,-12.6302) (-10.5302,-12.6302) holes: !
;overhangs:!
; 
; feature plane change
G0 X11.8645 Y11.22488 Z0.96 ; cartesianDistance=0.00000 (Plane Change)
; 
; feature travel
G0 X9.11469 Y-12.2152 ; cartesianDistance=23.60082 (Travel)
; 
; feature outer perimeter
G1 F24000 FL[E] = OuterPerimeterFrequency * DROP_SCALE * 60
PRIO_ON
G1 X-12.2152 Y-12.2152 E50.18797 ; EInc=50.18797 cartesianDistance=21.32989 angle=90.000 pulseDistance=0.42500
G1 X-12.2152 Y12.2152 E107.67126 ; EInc=57.48329 cartesianDistance=24.43040 angle=90.000 pulseDistance=0.42500
G1 X12.2152 Y12.2152 E165.15456 ; EInc=57.48329 cartesianDistance=24.43040 angle=90.000 pulseDistance=0.42500
G1 X12.2152 Y-12.2152 E222.63785 ; EInc=57.48329 cartesianDistance=24.43040 angle=90.000 pulseDistance=0.42500
G1 X9.11469 Y-12.2152 E229.93318 ; EInc=7.29533 cartesianDistance=3.10051 angle=180.000 pulseDistance=0.42500
; 
; feature travel
PRIO_OFF
G0 X9.11469 Y-11.8642 ; cartesianDistance=0.35100 (Travel)
; 
; feature inner perimeter
G1 F24000 FL[E] = InnerPerimeterFrequency * DROP_SCALE * 60
PRIO_ON
G1 X11.8642 Y-11.8642 E235.02487 ; EInc=5.09169 cartesianDistance=2.74951 angle=90.000 pulseDistance=0.54000
G1 X11.8642 Y11.8642 E278.96635 ; EInc=43.94148 cartesianDistance=23.72840 angle=90.000 pulseDistance=0.54000
G1 X-11.8642 Y11.8642 E322.90783 ; EInc=43.94148 cartesianDistance=23.72840 angle=90.000 pulseDistance=0.54000
G1 X-11.8642 Y-11.8642 E366.84931 ; EInc=43.94148 cartesianDistance=23.72840 angle=90.000 pulseDistance=0.54000
G1 X9.11469 Y-11.8642 E405.6991 ; EInc=38.84979 cartesianDistance=20.97889 angle=180.000 pulseDistance=0.54000
; 
; feature travel
PRIO_OFF
G0 X9.53779 Y-11.8645 ; cartesianDistance=0.42311 (Travel)
; 
; feature fill
G1 F24000 FL[E] = FillFrequency * DROP_SCALE * 60
PRIO_ON
G1 X-11.8645 Y-1.88445 E452.00267 ; EInc=46.30356 cartesianDistance=23.61482 angle=0.000 pulseDistance=0.51000
; 
; feature travel
PRIO_OFF
G0 X-11.8645 Y-1.38793 ; cartesianDistance=0.49652 (Travel)
; 
; feature fill
PRIO_ON
G1 X10.60258 Y-11.8645 E500.60989 ; EInc=48.60722 cartesianDistance=24.78968 angle=0.000 pulseDistance=0.51000
; 
; feature travel
PRIO_OFF
G0 X11.66737 Y-11.8645 ; cartesianDistance=1.06479 (Travel)
; 
; feature fill
PRIO_ON
G1 X-11.8645 Y-0.89141 E551.52078 ; EInc=50.91088 cartesianDistance=25.96455 angle=0.000 pulseDistance=0.51000
; 
; feature travel
PRIO_OFF
G0 X-11.8645 Y-0.39489 ; cartesianDistance=0.49652 (Travel)
; 
; feature fill
PRIO_ON
G1 X11.8645 Y-11.4599 E602.85814 ; EInc=51.33736 cartesianDistance=26.18205 angle=0.000 pulseDistance=0.51000
; 
; feature travel
PRIO_OFF
G0 X11.8645 Y-10.96338 ; cartesianDistance=0.49652 (Travel)
; 
; feature fill
PRIO_ON
G1 X-11.8645 Y0.10163 E654.1955 ; EInc=51.33736 cartesianDistance=26.18205 angle=0.000 pulseDistance=0.51000
; 
; feature travel
PRIO_OFF
G0 X-11.8645 Y0.59815 ; cartesianDistance=0.49652 (Travel)
; 
; feature fill
PRIO_ON
G1 X11.8645 Y-10.46686 E705.53286 ; EInc=51.33736 cartesianDistance=26.18205 angle=0.000 pulseDistance=0.51000
; 
; feature travel
PRIO_OFF
G0 X11.8645 Y-9.97034 ; cartesianDistance=0.49652 (Travel)
; 
; feature fill
PRIO_ON
G1 X-11.8645 Y1.09467 E756.87022 ; EInc=51.33736 cartesianDistance=26.18205 angle=0.000 pulseDistance=0.51000
; 
; feature travel
PRIO_OFF
G0 X-11.8645 Y1.59119 ; cartesianDistance=0.49652 (Travel)
; 
; feature fill
PRIO_ON
G1 X11.8645 Y-9.47382 E808.20759 ; EInc=51.33736 cartesianDistance=26.18205 angle=0.000 pulseDistance=0.51000
; 
; feature travel
PRIO_OFF
G0 X11.8645 Y-8.9773 ; cartesianDistance=0.49652 (Travel)
; 
; feature fill
PRIO_ON
G1 X-11.8645 Y2.08771 E859.54495 ; EInc=51.33736 cartesianDistance=26.18205 angle=0.000 pulseDistance=0.51000
; 
; feature travel
PRIO_OFF
G0 X-11.8645 Y2.58423 ; cartesianDistance=0.49652 (Travel)
; 
; feature fill
PRIO_ON
G1 X11.8645 Y-8.48078 E910.88231 ; EInc=51.33736 cartesianDistance=26.18205 angle=0.000 pulseDistance=0.51000
; 
; feature travel
PRIO_OFF
G0 X11.8645 Y-7.98426 ; cartesianDistance=0.49652 (Travel)
; 
; feature fill
PRIO_ON
G1 X-11.8645 Y3.08075 E962.21967 ; EInc=51.33736 cartesianDistance=26.18205 angle=0.000 pulseDistance=0.51000
; 
; feature travel
PRIO_OFF
G0 X-11.8645 Y3.57727 ; cartesianDistance=0.49652 (Travel)
; 
; feature fill
PRIO_ON
G1 X11.8645 Y-7.48774 E1013.55703 ; EInc=51.33736 cartesianDistance=26.18205 angle=0.000 pulseDistance=0.51000
; 
; feature travel
PRIO_OFF
G0 X11.8645 Y-6.99122 ; cartesianDistance=0.49652 (Travel)
; 
; feature fill
PRIO_ON
G1 X-11.8645 Y4.07379 E1064.8944 ; EInc=51.33736 cartesianDistance=26.18205 angle=0.000 pulseDistance=0.51000
; 
; feature travel
PRIO_OFF
G0 X-11.8645 Y4.57031 ; cartesianDistance=0.49652 (Travel)
; 
; feature fill
PRIO_ON
G1 X11.8645 Y-6.4947 E1116.23176 ; EInc=51.33736 cartesianDistance=26.18205 angle=0.000 pulseDistance=0.51000
; 
; feature travel
PRIO_OFF
G0 X11.8645 Y-5.99818 ; cartesianDistance=0.49652 (Travel)
; 
; feature fill
PRIO_ON
G1 X-11.8645 Y5.06683 E1167.56912 ; EInc=51.33736 cartesianDistance=26.18205 angle=0.000 pulseDistance=0.51000
; 
; feature travel
PRIO_OFF
G0 X-11.8645 Y5.56335 ; cartesianDistance=0.49652 (Travel)
; 
; feature fill
PRIO_ON
G1 X11.8645 Y-5.50166 E1218.90648 ; EInc=51.33736 cartesianDistance=26.18205 angle=0.000 pulseDistance=0.51000
; 
; feature travel
PRIO_OFF
G0 X11.8645 Y-5.00514 ; cartesianDistance=0.49652 (Travel)
; 
; feature fill
PRIO_ON
G1 X-11.8645 Y6.05987 E1270.24384 ; EInc=51.33736 cartesianDistance=26.18205 angle=0.000 pulseDistance=0.51000
; 
; feature travel
PRIO_OFF
G0 X-11.8645 Y6.55639 ; cartesianDistance=0.49652 (Travel)
; 
; feature fill
PRIO_ON
G1 X11.8645 Y-4.50862 E1321.58121 ; EInc=51.33736 cartesianDistance=26.18205 angle=0.000 pulseDistance=0.51000
; 
; feature travel
PRIO_OFF
G0 X11.8645 Y-4.0121 ; cartesianDistance=0.49652 (Travel)
; 
; feature fill
PRIO_ON
G1 X-11.8645 Y7.05291 E1372.91857 ; EInc=51.33736 cartesianDistance=26.18205 angle=0.000 pulseDistance=0.51000
; 
; feature travel
PRIO_OFF
G0 X-11.8645 Y7.54943 ; cartesianDistance=0.49652 (Travel)
; 
; feature fill
PRIO_ON
G1 X11.8645 Y-3.51558 E1424.25593 ; EInc=51.33736 cartesianDistance=26.18205 angle=0.000 pulseDistance=0.51000
; 
; feature travel
PRIO_OFF
G0 X11.8645 Y-3.01906 ; cartesianDistance=0.49652 (Travel)
; 
; feature fill
PRIO_ON
G1 X-11.8645 Y8.04595 E1475.59329 ; EInc=51.33736 cartesianDistance=26.18205 angle=0.000 pulseDistance=0.51000
; 
; feature travel
PRIO_OFF
G0 X-11.8645 Y8.54247 ; cartesianDistance=0.49652 (Travel)
; 
; feature fill
PRIO_ON
G1 X11.8645 Y-2.52254 E1526.93065 ; EInc=51.33736 cartesianDistance=26.18205 angle=0.000 pulseDistance=0.51000
; 
; feature travel
PRIO_OFF
G0 X11.8645 Y-2.02602 ; cartesianDistance=0.49652 (Travel)
; 
; feature fill
PRIO_ON
G1 X-11.8645 Y9.03899 E1578.26802 ; EInc=51.33736 cartesianDistance=26.18205 angle=0.000 pulseDistance=0.51000
; 
; feature travel
PRIO_OFF
G0 X-11.8645 Y9.53551 ; cartesianDistance=0.49652 (Travel)
; 
; feature fill
PRIO_ON
G1 X11.8645 Y-1.5295 E1629.60538 ; EInc=51.33736 cartesianDistance=26.18205 angle=0.000 pulseDistance=0.51000
; 
; feature travel
PRIO_OFF
G0 X11.8645 Y-1.03298 ; cartesianDistance=0.49652 (Travel)
; 
; feature fill
PRIO_ON
G1 X-11.8645 Y10.03203 E1680.94274 ; EInc=51.33736 cartesianDistance=26.18205 angle=0.000 pulseDistance=0.51000
; 
; feature travel
PRIO_OFF
G0 X-11.8645 Y10.52855 ; cartesianDistance=0.49652 (Travel)
; 
; feature fill
PRIO_ON
G1 X11.8645 Y-0.53646 E1732.2801 ; EInc=51.33736 cartesianDistance=26.18205 angle=0.000 pulseDistance=0.51000
; 
; feature travel
PRIO_OFF
G0 X11.8645 Y-0.03994 ; cartesianDistance=0.49652 (Travel)
; 
; feature fill
PRIO_ON
G1 X-11.8645 Y11.02507 E1783.61746 ; EInc=51.33736 cartesianDistance=26.18205 angle=0.000 pulseDistance=0.51000
; 
; feature travel
PRIO_OFF
G0 X-11.8645 Y11.52159 ; cartesianDistance=0.49652 (Travel)
; 
; feature fill
PRIO_ON
G1 X11.8645 Y0.45658 E1834.95483 ; EInc=51.33736 cartesianDistance=26.18205 angle=0.000 pulseDistance=0.51000
; 
; feature travel
PRIO_OFF
G0 X11.8645 Y0.9531 ; cartesianDistance=0.49652 (Travel)
; 
; feature fill
PRIO_ON
G1 X-11.53507 Y11.8645 E1885.57947 ; EInc=50.62465 cartesianDistance=25.81857 angle=0.000 pulseDistance=0.51000
; 
; feature travel
PRIO_OFF
G0 X-10.47028 Y11.8645 ; cartesianDistance=1.06479 (Travel)
; 
; feature fill
PRIO_ON
G1 X11.8645 Y1.44962 E1933.90046 ; EInc=48.32099 cartesianDistance=24.64370 angle=0.000 pulseDistance=0.51000
; 
; feature travel
PRIO_OFF
G0 X11.8645 Y1.94614 ; cartesianDistance=0.49652 (Travel)
; 
; feature fill
PRIO_ON
G1 X-9.40549 Y11.8645 E1979.91779 ; EInc=46.01733 cartesianDistance=23.46884 angle=0.000 pulseDistance=0.51000
; 
; feature travel
PRIO_OFF
G0 X-8.3407 Y11.8645 ; cartesianDistance=1.06479 (Travel)
; 
; feature fill
PRIO_ON
G1 X11.8645 Y2.44266 E2023.63146 ; EInc=43.71367 cartesianDistance=22.29397 angle=0.000 pulseDistance=0.51000
; 
; feature travel
PRIO_OFF
G0 X11.8645 Y2.93918 ; cartesianDistance=0.49652 (Travel)
; 
; feature fill
PRIO_ON
G1 X-7.27591 Y11.8645 E2065.04147 ; EInc=41.41001 cartesianDistance=21.11910 angle=0.000 pulseDistance=0.51000
; 
; feature travel
PRIO_OFF
G0 X-6.21112 Y11.8645 ; cartesianDistance=1.06479 (Travel)
; 
; feature fill
PRIO_ON
G1 X11.8645 Y3.4357 E2104.14782 ; EInc=39.10635 cartesianDistance=19.94424 angle=0.000 pulseDistance=0.51000
; 
; feature travel
PRIO_OFF
G0 X11.8645 Y3.93222 ; cartesianDistance=0.49652 (Travel)
; 
; feature fill
PRIO_ON
G1 X-5.14633 Y11.8645 E2140.9505 ; EInc=36.80269 cartesianDistance=18.76937 angle=0.000 pulseDistance=0.51000
; 
; feature travel
PRIO_OFF
G0 X-4.08154 Y11.8645 ; cartesianDistance=1.06479 (Travel)
; 
; feature fill
PRIO_ON
G1 X11.8645 Y4.42874 E2175.44953 ; EInc=34.49903 cartesianDistance=17.59450 angle=0.000 pulseDistance=0.51000
; 
; feature travel
PRIO_OFF
G0 X11.8645 Y4.92526 ; cartesianDistance=0.49652 (Travel)
; 
; feature fill
PRIO_ON
G1 X-3.01675 Y11.8645 E2207.6449 ; EInc=32.19537 cartesianDistance=16.41964 angle=0.000 pulseDistance=0.51000
; 
; feature travel
PRIO_OFF
G0 X-1.95196 Y11.8645 ; cartesianDistance=1.06479 (Travel)
; 
; feature fill
PRIO_ON
G1 X11.8645 Y5.42178 E2237.53661 ; EInc=29.89171 cartesianDistance=15.24477 angle=0.000 pulseDistance=0.51000
; 
; feature travel
PRIO_OFF
G0 X11.8645 Y5.9183 ; cartesianDistance=0.49652 (Travel)
; 
; feature fill
PRIO_ON
G1 X-0.88716 Y11.8645 E2265.12466 ; EInc=27.58805 cartesianDistance=14.06990 angle=0.000 pulseDistance=0.51000
; 
; feature travel
PRIO_OFF
G0 X0.17763 Y11.8645 ; cartesianDistance=1.06479 (Travel)
; 
; feature fill
PRIO_ON
G1 X11.8645 Y6.41482 E2290.40905 ; EInc=25.28439 cartesianDistance=12.89504 angle=0.000 pulseDistance=0.51000
; 
; feature travel
PRIO_OFF
G0 X11.8645 Y6.91134 ; cartesianDistance=0.49652 (Travel)
; 
; feature fill
PRIO_ON
G1 X1.24242 Y11.8645 E2313.38978 ; EInc=22.98073 cartesianDistance=11.72017 angle=0.000 pulseDistance=0.51000
; 
; feature travel
PRIO_OFF
G0 X2.30721 Y11.8645 ; cartesianDistance=1.06479 (Travel)
; 
; feature fill
PRIO_ON
G1 X11.8645 Y7.40786 E2334.06684 ; EInc=20.67707 cartesianDistance=10.54531 angle=0.000 pulseDistance=0.51000
; 
; feature travel
PRIO_OFF
G0 X11.8645 Y7.90438 ; cartesianDistance=0.49652 (Travel)
; 
; feature fill
PRIO_ON
G1 X3.372 Y11.8645 E2352.44025 ; EInc=18.37341 cartesianDistance=9.37044 angle=0.000 pulseDistance=0.51000
; 
; feature travel
PRIO_OFF
G0 X4.43679 Y11.8645 ; cartesianDistance=1.06479 (Travel)
; 
; feature fill
PRIO_ON
G1 X11.8645 Y8.4009 E2368.51 ; EInc=16.06975 cartesianDistance=8.19557 angle=0.000 pulseDistance=0.51000
; 
; feature travel
PRIO_OFF
G0 X11.8645 Y8.89742 ; cartesianDistance=0.49652 (Travel)
; 
; feature fill
PRIO_ON
G1 X5.50158 Y11.8645 E2382.27609 ; EInc=13.76609 cartesianDistance=7.02071 angle=0.000 pulseDistance=0.51000
; 
; feature travel
PRIO_OFF
G0 X6.56637 Y11.8645 ; cartesianDistance=1.06479 (Travel)
; 
; feature fill
PRIO_ON
G1 X11.8645 Y9.39394 E2393.73852 ; EInc=11.46243 cartesianDistance=5.84584 angle=0.000 pulseDistance=0.51000
; 
; feature travel
PRIO_OFF
G0 X11.8645 Y9.89046 ; cartesianDistance=0.49652 (Travel)
; 
; feature fill
PRIO_ON
G1 X7.63116 Y11.8645 E2402.89729 ; EInc=9.15877 cartesianDistance=4.67097 angle=0.000 pulseDistance=0.51000
; 
; feature travel
PRIO_OFF
G0 X8.69595 Y11.8645 ; cartesianDistance=1.06479 (Travel)
; 
; feature fill
PRIO_ON
G1 X11.8645 Y10.38698 E2409.7524 ; EInc=6.85511 cartesianDistance=3.49611 angle=0.000 pulseDistance=0.51000
; 
; feature travel
PRIO_OFF
G0 X11.8645 Y10.8835 ; cartesianDistance=0.49652 (Travel)
; 
; feature fill
PRIO_ON
G1 X9.76074 Y11.8645 E2414.30385 ; EInc=4.55145 cartesianDistance=2.32124 angle=0.000 pulseDistance=0.51000
; 
; feature travel
PRIO_OFF
G0 X10.82553 Y11.8645 ; cartesianDistance=1.06479 (Travel)
; 
; feature fill
PRIO_ON
G1 X11.8645 Y11.38002 E2416.55164 ; EInc=2.24779 cartesianDistance=1.14637 angle=0.000 pulseDistance=0.51000
; 
; feature travel
PRIO_OFF
G0 X8.473 Y-11.8645 ; cartesianDistance=23.49064 (Travel)
; 
; feature fill
PRIO_ON
G1 X-11.8645 Y-2.38097 E2460.55154 ; EInc=43.99990 cartesianDistance=22.43995 angle=0.000 pulseDistance=0.51000
; 
; feature travel
PRIO_OFF
G0 X-11.8645 Y-2.87749 ; cartesianDistance=0.49652 (Travel)
; 
; feature fill
PRIO_ON
G1 X7.40821 Y-11.8645 E2502.24779 ; EInc=41.69624 cartesianDistance=21.26508 angle=0.000 pulseDistance=0.51000
; 
; feature travel
PRIO_OFF
G0 X6.34342 Y-11.8645 ; cartesianDistance=1.06479 (Travel)
; 
; feature fill
PRIO_ON
G1 X-11.8645 Y-3.37401 E2541.64037 ; EInc=39.39258 cartesianDistance=20.09022 angle=0.000 pulseDistance=0.51000
; 
; feature travel
PRIO_OFF
G0 X-11.8645 Y-3.87053 ; cartesianDistance=0.49652 (Travel)
; 
; feature fill
PRIO_ON
G1 X5.27863 Y-11.8645 E2578.7293 ; EInc=37.08892 cartesianDistance=18.91535 angle=0.000 pulseDistance=0.51000
; 
; feature travel
PRIO_OFF
G0 X4.21384 Y-11.8645 ; cartesianDistance=1.06479 (Travel)
; 
; feature fill
PRIO_ON
G1 X-11.8645 Y-4.36705 E2613.51456 ; EInc=34.78526 cartesianDistance=17.74049 angle=0.000 pulseDistance=0.51000
; 
; feature travel
PRIO_OFF
G0 X-11.8645 Y-4.86357 ; cartesianDistance=0.49652 (Travel)
; 
; feature fill
PRIO_ON
G1 X3.14905 Y-11.8645 E2645.99617 ; EInc=32.48160 cartesianDistance=16.56562 angle=0.000 pulseDistance=0.51000
; 
; feature travel
PRIO_OFF
G0 X2.08426 Y-11.8645 ; cartesianDistance=1.06479 (Travel)
; 
; feature fill
PRIO_ON
G1 X-11.8645 Y-5.36009 E2676.17411 ; EInc=30.17794 cartesianDistance=15.39075 angle=0.000 pulseDistance=0.51000
; 
; feature travel
PRIO_OFF
G0 X-11.8645 Y-5.85661 ; cartesianDistance=0.49652 (Travel)
; 
; feature fill
PRIO_ON
G1 X1.01947 Y-11.8645 E2704.0484 ; EInc=27.87429 cartesianDistance=14.21589 angle=0.000 pulseDistance=0.51000
; 
; feature travel
PRIO_OFF
G0 X-0.04532 Y-11.8645 ; cartesianDistance=1.06479 (Travel)
; 
; feature fill
PRIO_ON
G1 X-11.8645 Y-6.35313 E2729.61902 ; EInc=25.57063 cartesianDistance=13.04102 angle=0.000 pulseDistance=0.51000
; 
; feature travel
PRIO_OFF
G0 X-11.8645 Y-6.84965 ; cartesianDistance=0.49652 (Travel)
; 
; feature fill
PRIO_ON
G1 X-1.11011 Y-11.8645 E2752.88599 ; EInc=23.26697 cartesianDistance=11.86615 angle=0.000 pulseDistance=0.51000
; 
; feature travel
PRIO_OFF
G0 X-2.1749 Y-11.8645 ; cartesianDistance=1.06479 (Travel)
; 
; feature fill
PRIO_ON
G1 X-11.8645 Y-7.34617 E2773.84929 ; EInc=20.96331 cartesianDistance=10.69129 angle=0.000 pulseDistance=0.51000
; 
; feature travel
PRIO_OFF
G0 X-11.8645 Y-7.84269 ; cartesianDistance=0.49652 (Travel)
; 
; feature fill
PRIO_ON
G1 X-3.2397 Y-11.8645 E2792.50894 ; EInc=18.65965 cartesianDistance=9.51642 angle=0.000 pulseDistance=0.51000
; 
; feature travel
PRIO_OFF
G0 X-4.30449 Y-11.8645 ; cartesianDistance=1.06479 (Travel)
; 
; feature fill
PRIO_ON
G1 X-11.8645 Y-8.33921 E2808.86492 ; EInc=16.35599 cartesianDistance=8.34155 angle=0.000 pulseDistance=0.51000
; 
; feature travel
PRIO_OFF
G0 X-11.8645 Y-8.83573 ; cartesianDistance=0.49652 (Travel)
; 
; feature fill
PRIO_ON
G1 X-5.36928 Y-11.8645 E2822.91725 ; EInc=14.05233 cartesianDistance=7.16669 angle=0.000 pulseDistance=0.51000
; 
; feature travel
PRIO_OFF
G0 X-6.43407 Y-11.8645 ; cartesianDistance=1.06479 (Travel)
; 
; feature fill
PRIO_ON
G1 X-11.8645 Y-9.33225 E2834.66591 ; EInc=11.74867 cartesianDistance=5.99182 angle=0.000 pulseDistance=0.51000
; 
; feature travel
PRIO_OFF
G0 X-11.8645 Y-9.82877 ; cartesianDistance=0.49652 (Travel)
; 
; feature fill
PRIO_ON
G1 X-7.49886 Y-11.8645 E2844.11092 ; EInc=9.44501 cartesianDistance=4.81695 angle=0.000 pulseDistance=0.51000
; 
; feature travel
PRIO_OFF
G0 X-8.56365 Y-11.8645 ; cartesianDistance=1.06479 (Travel)
; 
; feature fill
PRIO_ON
G1 X-11.8645 Y-10.32529 E2851.25227 ; EInc=7.14135 cartesianDistance=3.64209 angle=0.000 pulseDistance=0.51000
; 
; feature travel
PRIO_OFF
G0 X-11.8645 Y-10.82181 ; cartesianDistance=0.49652 (Travel)
; 
; feature fill
PRIO_ON
G1 X-9.62844 Y-11.8645 E2856.08995 ; EInc=4.83769 cartesianDistance=2.46722 angle=0.000 pulseDistance=0.51000
; 
; feature travel
PRIO_OFF
G0 X-10.69323 Y-11.8645 ; cartesianDistance=1.06479 (Travel)
; 
; feature fill
PRIO_ON
G1 X-11.8645 Y-11.31833 E2858.62398 ; EInc=2.53403 cartesianDistance=1.29235 angle=0.000 pulseDistance=0.51000
; 
; feature travel
PRIO_OFF
G0 X-11.8645 Y-11.81485 ; cartesianDistance=0.49652 (Travel)
; 
; feature fill
PRIO_ON
G1 X-11.75802 Y-11.8645 E2858.85434 ; EInc=0.23037 cartesianDistance=0.11749 angle=0.000 pulseDistance=0.51000
PRIO_OFF
LayersCompleted=4
M1
; 
;========================
; layer 4, Z = 1.2000
; 
; reset extrusion
STOPRE
PRESETON(E, 0)
DO PRIO_PULSE_DISTANCE=DROP_SCALE
DO PRIO_ON_PATH_OFFSET=0.5*PRIO_PULSE_DISTANCE
;outer: (12.6302,-12.6302) (12.6302,12.6302) (-12.6302,12.6302) (-12.6302,-12.6302) (-9.9302,-12.6302) holes: !
;overhangs:!
; 
; feature plane change
G0 X-11.75802 Y-11.8645 Z1.2 ; cartesianDistance=0.00000 (Plane Change)
; 
; feature travel
G0 X12.2152 Y-1.85477 ; cartesianDistance=25.97903 (Travel)
; 
; feature outer perimeter
G1 F24000 FL[E] = OuterPerimeterFrequency * DROP_SCALE * 60
PRIO_ON
G1 X12.2152 Y12.2152 E33.10581 ; EInc=33.10581 cartesianDistance=14.06997 angle=90.000 pulseDistance=0.42500
G1 X-12.2152 Y12.2152 E90.5891 ; EInc=57.48329 cartesianDistance=24.43040 angle=90.000 pulseDistance=0.42500
G1 X-12.2152 Y-12.2152 E148.0724 ; EInc=57.48329 cartesianDistance=24.43040 angle=90.000 pulseDistance=0.42500
G1 X12.2152 Y-12.2152 E205.55569 ; EInc=57.48329 cartesianDistance=24.43040 angle=90.000 pulseDistance=0.42500
G1 X12.2152 Y-1.85477 E229.93318 ; EInc=24.37749 cartesianDistance=10.36043 angle=0.000 pulseDistance=0.42500
; 
; feature travel
PRIO_OFF
G0 X11.8642 Y-1.85477 ; cartesianDistance=0.35100 (Travel)
; 
; feature inner perimeter
G1 F24000 FL[E] = InnerPerimeterFrequency * DROP_SCALE * 60
PRIO_ON
G1 X11.8642 Y-11.8642 E248.46916 ; EInc=18.53598 cartesianDistance=10.00943 angle=90.000 pulseDistance=0.54000
G1 X-11.8642 Y-11.8642 E292.41064 ; EInc=43.94148 cartesianDistance=23.72840 angle=90.000 pulseDistance=0.54000
G1 X-11.8642 Y11.8642 E336.35212 ; EInc=43.94148 cartesianDistance=23.72840 angle=90.000 pulseDistance=0.54000
G1 X11.8642 Y11.8642 E380.2936 ; EInc=43.94148 cartesianDistance=23.72840 angle=90.000 pulseDistance=0.54000
G1 X11.8642 Y-1.85477 E405.6991 ; EInc=25.40550 cartesianDistance=13.71897 angle=180.000 pulseDistance=0.54000
; 
; feature travel
PRIO_OFF
G0 X11.8645 Y-1.76013 ; cartesianDistance=0.09464 (Travel)
; 
; feature fill
G1 F24000 FL[E] = FillFrequency * DROP_SCALE * 60
PRIO_ON
G1 X-11.8645 Y-10.39678 E455.21258 ; EInc=49.51348 cartesianDistance=25.25187 angle=0.000 pulseDistance=0.51000
; 
; feature travel
PRIO_OFF
G0 X-11.8645 Y-10.87566 ; cartesianDistance=0.47888 (Travel)
; 
; feature fill
PRIO_ON
G1 X11.8645 Y-2.23901 E504.72606 ; EInc=49.51348 cartesianDistance=25.25187 angle=0.000 pulseDistance=0.51000
; 
; feature travel
PRIO_OFF
G0 X11.8645 Y-2.71789 ; cartesianDistance=0.47888 (Travel)
; 
; feature fill
PRIO_ON
G1 X-11.8645 Y-11.35454 E554.23954 ; EInc=49.51348 cartesianDistance=25.25187 angle=0.000 pulseDistance=0.51000
; 
; feature travel
PRIO_OFF
G0 X-11.8645 Y-11.83342 ; cartesianDistance=0.47888 (Travel)
; 
; feature fill
PRIO_ON
G1 X11.8645 Y-3.19677 E603.75302 ; EInc=49.51348 cartesianDistance=25.25187 angle=0.000 pulseDistance=0.51000
; 
; feature travel
PRIO_OFF
G0 X11.8645 Y-3.67565 ; cartesianDistance=0.47888 (Travel)
; 
; feature fill
PRIO_ON
G1 X-10.63417 Y-11.8645 E650.69927 ; EInc=46.94625 cartesianDistance=23.94259 angle=0.000 pulseDistance=0.51000
; 
; feature travel
PRIO_OFF
G0 X-9.31846 Y-11.8645 ; cartesianDistance=1.31571 (Travel)
; 
; feature fill
PRIO_ON
G1 X11.8645 Y-4.15453 E694.90013 ; EInc=44.20086 cartesianDistance=22.54244 angle=0.000 pulseDistance=0.51000
; 
; feature travel
PRIO_OFF
G0 X11.8645 Y-4.63341 ; cartesianDistance=0.47888 (Travel)
; 
; feature fill
PRIO_ON
G1 X-8.00275 Y-11.8645 E736.3556 ; EInc=41.45546 cartesianDistance=21.14229 angle=0.000 pulseDistance=0.51000
; 
; feature travel
PRIO_OFF
G0 X-6.68704 Y-11.8645 ; cartesianDistance=1.31571 (Travel)
; 
; feature fill
PRIO_ON
G1 X11.8645 Y-5.11229 E775.06567 ; EInc=38.71007 cartesianDistance=19.74214 angle=0.000 pulseDistance=0.51000
; 
; feature travel
PRIO_OFF
G0 X11.8645 Y-5.59117 ; cartesianDistance=0.47888 (Travel)
; 
; feature fill
PRIO_ON
G1 X-5.37133 Y-11.8645 E811.03034 ; EInc=35.96467 cartesianDistance=18.34198 angle=0.000 pulseDistance=0.51000
; 
; feature travel
PRIO_OFF
G0 X-4.05561 Y-11.8645 ; cartesianDistance=1.31571 (Travel)
; 
; feature fill
PRIO_ON
G1 X11.8645 Y-6.07005 E844.24962 ; EInc=33.21928 cartesianDistance=16.94183 angle=0.000 pulseDistance=0.51000
; 
; feature travel
PRIO_OFF
G0 X11.8645 Y-6.54893 ; cartesianDistance=0.47888 (Travel)
; 
; feature fill
PRIO_ON
G1 X-2.7399 Y-11.8645 E874.7235 ; EInc=30.47388 cartesianDistance=15.54168 angle=0.000 pulseDistance=0.51000
; 
; feature travel
PRIO_OFF
G0 X-1.42419 Y-11.8645 ; cartesianDistance=1.31571 (Travel)
; 
; feature fill
PRIO_ON
G1 X11.8645 Y-7.02781 E902.45199 ; EInc=27.72849 cartesianDistance=14.14153 angle=0.000 pulseDistance=0.51000
; 
; feature travel
PRIO_OFF
G0 X11.8645 Y-7.50669 ; cartesianDistance=0.47888 (Travel)
; 
; feature fill
PRIO_ON
G1 X-0.10848 Y-11.8645 E927.43509 ; EInc=24.98309 cartesianDistance=12.74138 angle=0.000 pulseDistance=0.51000
; 
; feature travel
PRIO_OFF
G0 X1.20723 Y-11.8645 ; cartesianDistance=1.31571 (Travel)
; 
; feature fill
PRIO_ON
G1 X11.8645 Y-7.98557 E949.67279 ; EInc=22.23770 cartesianDistance=11.34123 angle=0.000 pulseDistance=0.51000
; 
; feature travel
PRIO_OFF
G0 X11.8645 Y-8.46445 ; cartesianDistance=0.47888 (Travel)
; 
; feature fill
PRIO_ON
G1 X2.52294 Y-11.8645 E969.16509 ; EInc=19.49230 cartesianDistance=9.94108 angle=0.000 pulseDistance=0.51000
; 
; feature travel
PRIO_OFF
G0 X3.83866 Y-11.8645 ; cartesianDistance=1.31571 (Travel)
; 
; feature fill
PRIO_ON
G1 X11.8645 Y-8.94333 E985.912 ; EInc=16.74691 cartesianDistance=8.54092 angle=0.000 pulseDistance=0.51000
; 
; feature travel
PRIO_OFF
G0 X11.8645 Y-9.42221 ; cartesianDistance=0.47888 (Travel)
; 
; feature fill
PRIO_ON
G1 X5.15437 Y-11.8645 E999.91352 ; EInc=14.00151 cartesianDistance=7.14077 angle=0.000 pulseDistance=0.51000
; 
; feature travel
PRIO_OFF
G0 X6.47008 Y-11.8645 ; cartesianDistance=1.31571 (Travel)
; 
; feature fill
PRIO_ON
G1 X11.8645 Y-9.90109 E1011.16964 ; EInc=11.25612 cartesianDistance=5.74062 angle=0.000 pulseDistance=0.51000
; 
; feature travel
PRIO_OFF
G0 X11.8645 Y-10.37997 ; cartesianDistance=0.47888 (Travel)
; 
; feature fill
PRIO_ON
G1 X7.78579 Y-11.8645 E1019.68036 ; EInc=8.51072 cartesianDistance=4.34047 angle=0.000 pulseDistance=0.51000
; 
; feature travel
PRIO_OFF
G0 X9.1015 Y-11.8645 ; cartesianDistance=1.31571 (Travel)
; 
; feature fill
PRIO_ON
G1 X11.8645 Y-10.85885 E1025.44569 ; EInc=5.76533 cartesianDistance=2.94032 angle=0.000 pulseDistance=0.51000
; 
; feature travel
PRIO_OFF
G0 X11.8645 Y-11.33773 ; cartesianDistance=0.47888 (Travel)
; 
; feature fill
PRIO_ON
G1 X10.41722 Y-11.8645 E1028.46562 ; EInc=3.01993 cartesianDistance=1.54017 angle=0.000 pulseDistance=0.51000
; 
; feature travel
PRIO_OFF
G0 X11.73293 Y-11.8645 ; cartesianDistance=1.31571 (Travel)
; 
; feature fill
PRIO_ON
G1 X11.8645 Y-11.81661 E1028.74016 ; EInc=0.27454 cartesianDistance=0.14002 angle=0.000 pulseDistance=0.51000
; 
; feature travel
PRIO_OFF
G0 X11.8645 Y-1.28125 ; cartesianDistance=10.53536 (Travel)
; 
; feature fill
PRIO_ON
G1 X-11.8645 Y-9.9179 E1078.25364 ; EInc=49.51348 cartesianDistance=25.25187 angle=0.000 pulseDistance=0.51000
; 
; feature travel
PRIO_OFF
G0 X-11.8645 Y-9.43902 ; cartesianDistance=0.47888 (Travel)
; 
; feature fill
PRIO_ON
G1 X11.8645 Y-0.80237 E1127.76712 ; EInc=49.51348 cartesianDistance=25.25187 angle=0.000 pulseDistance=0.51000
; 
; feature travel
PRIO_OFF
G0 X11.8645 Y-0.32349 ; cartesianDistance=0.47888 (Travel)
; 
; feature fill
PRIO_ON
G1 X-11.8645 Y-8.96014 E1177.2806 ; EInc=49.51348 cartesianDistance=25.25187 angle=0.000 pulseDistance=0.51000
; 
; feature travel
PRIO_OFF
G0 X-11.8645 Y-8.48126 ; cartesianDistance=0.47888 (Travel)
; 
; feature fill
PRIO_ON
G1 X11.8645 Y0.15539 E1226.79408 ; EInc=49.51348 cartesianDistance=25.25187 angle=0.000 pulseDistance=0.51000
; 
; feature travel
PRIO_OFF
G0 X11.8645 Y0.63427 ; cartesianDistance=0.47888 (Travel)
; 
; feature fill
PRIO_ON
G1 X-11.8645 Y-8.00238 E1276.30756 ; EInc=49.51348 cartesianDistance=25.25187 angle=0.000 pulseDistance=0.51000
; 
; feature travel
PRIO_OFF
G0 X-11.8645 Y-7.5235 ; cartesianDistance=0.47888 (Travel)
; 
; feature fill
PRIO_ON
G1 X11.8645 Y1.11315 E1325.82104 ; EInc=49.51348 cartesianDistance=25.25187 angle=0.000 pulseDistance=0.51000
; 
; feature travel
PRIO_OFF
G0 X11.8645 Y1.59203 ; cartesianDistance=0.47888 (Travel)
; 
; feature fill
PRIO_ON
G1 X-11.8645 Y-7.04462 E1375.33452 ; EInc=49.51348 cartesianDistance=25.25187 angle=0.000 pulseDistance=0.51000
; 
; feature travel
PRIO_OFF
G0 X-11.8645 Y-6.56574 ; cartesianDistance=0.47888 (Travel)
; 
; feature fill
PRIO_ON
G1 X11.8645 Y2.07091 E1424.848 ; EInc=49.51348 cartesianDistance=25.25187 angle=0.000 pulseDistance=0.51000
; 
; feature travel
PRIO_OFF
G0 X11.8645 Y2.54979 ; cartesianDistance=0.47888 (Travel)
; 
; feature fill
PRIO_ON
G1 X-11.8645 Y-6.08686 E1474.36148 ; EInc=49.51348 cartesianDistance=25.25187 angle=0.000 pulseDistance=0.51000
; 
; feature travel
PRIO_OFF
G0 X-11.8645 Y-5.60798 ; cartesianDistance=0.47888 (Travel)
; 
; feature fill
PRIO_ON
G1 X11.8645 Y3.02867 E1523.87495 ; EInc=49.51348 cartesianDistance=25.25187 angle=0.000 pulseDistance=0.51000
; 
; feature travel
PRIO_OFF
G0 X11.8645 Y3.50755 ; cartesianDistance=0.47888 (Travel)
; 
; feature fill
PRIO_ON
G1 X-11.8645 Y-5.1291 E1573.38843 ; EInc=49.51348 cartesianDistance=25.25187 angle=0.000 pulseDistance=0.51000
; 
; feature travel
PRIO_OFF
G0 X-11.8645 Y-4.65022 ; cartesianDistance=0.47888 (Travel)
; 
; feature fill
PRIO_ON
G1 X11.8645 Y3.98643 E1622.90191 ; EInc=49.51348 cartesianDistance=25.25187 angle=0.000 pulseDistance=0.51000
; 
; feature travel
PRIO_OFF
G0 X11.8645 Y4.46531 ; cartesianDistance=0.47888 (Travel)
; 
; feature fill
PRIO_ON
G1 X-11.8645 Y-4.17134 E1672.41539 ; EInc=49.51348 cartesianDistance=25.25187 angle=0.000 pulseDistance=0.51000
; 
; feature travel
PRIO_OFF
G0 X-11.8645 Y-3.69246 ; cartesianDistance=0.47888 (Travel)
; 
; feature fill
PRIO_ON
G1 X11.8645 Y4.94419 E1721.92887 ; EInc=49.51348 cartesianDistance=25.25187 angle=0.000 pulseDistance=0.51000
; 
; feature travel
PRIO_OFF
G0 X11.8645 Y5.42307 ; cartesianDistance=0.47888 (Travel)
; 
; feature fill
PRIO_ON
G1 X-11.8645 Y-3.21358 E1771.44235 ; EInc=49.51348 cartesianDistance=25.25187 angle=0.000 pulseDistance=0.51000
; 
; feature travel
PRIO_OFF
G0 X-11.8645 Y-2.7347 ; cartesianDistance=0.47888 (Travel)
; 
; feature fill
PRIO_ON
G1 X11.8645 Y5.90195 E1820.95583 ; EInc=49.51348 cartesianDistance=25.25187 angle=0.000 pulseDistance=0.51000
; 
; feature travel
PRIO_OFF
G0 X11.8645 Y6.38083 ; cartesianDistance=0.47888 (Travel)
; 
; feature fill
PRIO_ON
G1 X-11.8645 Y-2.25582 E1870.46931 ; EInc=49.51348 cartesianDistance=25.25187 angle=0.000 pulseDistance=0.51000
; 
; feature travel
PRIO_OFF
G0 X-11.8645 Y-1.77694 ; cartesianDistance=0.47888 (Travel)
; 
; feature fill
PRIO_ON
G1 X11.8645 Y6.85971 E1919.98279 ; EInc=49.51348 cartesianDistance=25.25187 angle=0.000 pulseDistance=0.51000
; 
; feature travel
PRIO_OFF
G0 X11.8645 Y7.33859 ; cartesianDistance=0.47888 (Travel)
; 
; feature fill
PRIO_ON
G1 X-11.8645 Y-1.29806 E1969.49627 ; EInc=49.51348 cartesianDistance=25.25187 angle=0.000 pulseDistance=0.51000
; 
; feature travel
PRIO_OFF
G0 X-11.8645 Y-0.81918 ; cartesianDistance=0.47888 (Travel)
; 
; feature fill
PRIO_ON
G1 X11.8645 Y7.81747 E2019.00975 ; EInc=49.51348 cartesianDistance=25.25187 angle=0.000 pulseDistance=0.51000
; 
; feature travel
PRIO_OFF
G0 X11.8645 Y8.29635 ; cartesianDistance=0.47888 (Travel)
; 
; feature fill
PRIO_ON
G1 X-11.8645 Y-0.3403 E2068.52323 ; EInc=49.51348 cartesianDistance=25.25187 angle=0.000 pulseDistance=0.51000
; 
; feature travel
PRIO_OFF
G0 X-11.8645 Y0.13858 ; cartesianDistance=0.47888 (Travel)
; 
; feature fill
PRIO_ON
G1 X11.8645 Y8.77523 E2118.0367 ; EInc=49.51348 cartesianDistance=25.25187 angle=0.000 pulseDistance=0.51000
; 
; feature travel
PRIO_OFF
G0 X11.8645 Y9.25411 ; cartesianDistance=0.47888 (Travel)
; 
; feature fill
PRIO_ON
G1 X-11.8645 Y0.61746 E2167.55018 ; EInc=49.51348 cartesianDistance=25.25187 angle=0.000 pulseDistance=0.51000
; 
; feature travel
PRIO_OFF
G0 X-11.8645 Y1.09634 ; cartesianDistance=0.47888 (Travel)
; 
; feature fill
PRIO_ON
G1 X11.8645 Y9.73299 E2217.06366 ; EInc=49.51348 cartesianDistance=25.25187 angle=0.000 pulseDistance=0.51000
; 
; feature travel
PRIO_OFF
G0 X11.8645 Y10.21187 ; cartesianDistance=0.47888 (Travel)
; 
; feature fill
PRIO_ON
G1 X-11.8645 Y1.57522 E2266.57714 ; EInc=49.51348 cartesianDistance=25.25187 angle=0.000 pulseDistance=0.51000
; 
; feature travel
PRIO_OFF
G0 X-11.8645 Y2.0541 ; cartesianDistance=0.47888 (Travel)
; 
; feature fill
PRIO_ON
G1 X11.8645 Y10.69075 E2316.09062 ; EInc=49.51348 cartesianDistance=25.25187 angle=0.000 pulseDistance=0.51000
; 
; feature travel
PRIO_OFF
G0 X11.8645 Y11.16963 ; cartesianDistance=0.47888 (Travel)
; 
; feature fill
PRIO_ON
G1 X-11.8645 Y2.53298 E2365.6041 ; EInc=49.51348 cartesianDistance=25.25187 angle=0.000 pulseDistance=0.51000
; 
; feature travel
PRIO_OFF
G0 X-11.8645 Y3.01186 ; cartesianDistance=0.47888 (Travel)
; 
; feature fill
PRIO_ON
G1 X11.8645 Y11.64851 E2415.11758 ; EInc=49.51348 cartesianDistance=25.25187 angle=0.000 pulseDistance=0.51000
; 
; feature travel
PRIO_OFF
G0 X11.14222 Y11.8645 ; cartesianDistance=0.75388 (Travel)
; 
; feature fill
PRIO_ON
G1 X-11.8645 Y3.49074 E2463.12394 ; EInc=48.00636 cartesianDistance=24.48324 angle=0.000 pulseDistance=0.51000
; 
; feature travel
PRIO_OFF
G0 X-11.8645 Y3.96962 ; cartesianDistance=0.47888 (Travel)
; 
; feature fill
PRIO_ON
G1 X9.82651 Y11.8645 E2508.3849 ; EInc=45.26096 cartesianDistance=23.08309 angle=0.000 pulseDistance=0.51000
; 
; feature travel
PRIO_OFF
G0 X8.5108 Y11.8645 ; cartesianDistance=1.31571 (Travel)
; 
; feature fill
PRIO_ON
G1 X-11.8645 Y4.4485 E2550.90046 ; EInc=42.51557 cartesianDistance=21.68294 angle=0.000 pulseDistance=0.51000
; 
; feature travel
PRIO_OFF
G0 X-11.8645 Y4.92738 ; cartesianDistance=0.47888 (Travel)
; 
; feature fill
PRIO_ON
G1 X7.19509 Y11.8645 E2590.67063 ; EInc=39.77017 cartesianDistance=20.28279 angle=0.000 pulseDistance=0.51000
; 
; feature travel
PRIO_OFF
G0 X5.87937 Y11.8645 ; cartesianDistance=1.31571 (Travel)
; 
; feature fill
PRIO_ON
G1 X-11.8645 Y5.40626 E2627.69541 ; EInc=37.02478 cartesianDistance=18.88264 angle=0.000 pulseDistance=0.51000
; 
; feature travel
PRIO_OFF
G0 X-11.8645 Y5.88514 ; cartesianDistance=0.47888 (Travel)
; 
; feature fill
PRIO_ON
G1 X4.56366 Y11.8645 E2661.97479 ; EInc=34.27938 cartesianDistance=17.48248 angle=0.000 pulseDistance=0.51000
; 
; feature travel
PRIO_OFF
G0 X3.24795 Y11.8645 ; cartesianDistance=1.31571 (Travel)
; 
; feature fill
PRIO_ON
G1 X-11.8645 Y6.36402 E2693.50878 ; EInc=31.53399 cartesianDistance=16.08233 angle=0.000 pulseDistance=0.51000
; 
; feature travel
PRIO_OFF
G0 X-11.8645 Y6.8429 ; cartesianDistance=0.47888 (Travel)
; 
; feature fill
PRIO_ON
G1 X1.93224 Y11.8645 E2722.29737 ; EInc=28.78859 cartesianDistance=14.68218 angle=0.000 pulseDistance=0.51000
; 
; feature travel
PRIO_OFF
G0 X0.61653 Y11.8645 ; cartesianDistance=1.31571 (Travel)
; 
; feature fill
PRIO_ON
G1 X-11.8645 Y7.32178 E2748.34056 ; EInc=26.04320 cartesianDistance=13.28203 angle=0.000 pulseDistance=0.51000
; 
; feature travel
PRIO_OFF
G0 X-11.8645 Y7.80066 ; cartesianDistance=0.47888 (Travel)
; 
; feature fill
PRIO_ON
G1 X-0.69919 Y11.8645 E2771.63837 ; EInc=23.29780 cartesianDistance=11.88188 angle=0.000 pulseDistance=0.51000
; 
; feature travel
PRIO_OFF
G0 X-2.0149 Y11.8645 ; cartesianDistance=1.31571 (Travel)
; 
; feature fill
PRIO_ON
G1 X-11.8645 Y8.27954 E2792.19077 ; EInc=20.55241 cartesianDistance=10.48173 angle=0.000 pulseDistance=0.51000
; 
; feature travel
PRIO_OFF
G0 X-11.8645 Y8.75842 ; cartesianDistance=0.47888 (Travel)
; 
; feature fill
PRIO_ON
G1 X-3.33061 Y11.8645 E2809.99778 ; EInc=17.80701 cartesianDistance=9.08158 angle=0.000 pulseDistance=0.51000
; 
; feature travel
PRIO_OFF
G0 X-4.64632 Y11.8645 ; cartesianDistance=1.31571 (Travel)
; 
; feature fill
PRIO_ON
G1 X-11.8645 Y9.2373 E2825.0594 ; EInc=15.06162 cartesianDistance=7.68142 angle=0.000 pulseDistance=0.51000
; 
; feature travel
PRIO_OFF
G0 X-11.8645 Y9.71618 ; cartesianDistance=0.47888 (Travel)
; 
; feature fill
PRIO_ON
G1 X-5.96203 Y11.8645 E2837.37562 ; EInc=12.31622 cartesianDistance=6.28127 angle=0.000 pulseDistance=0.51000
; 
; feature travel
PRIO_OFF
G0 X-7.27775 Y11.8645 ; cartesianDistance=1.31571 (Travel)
; 
; feature fill
PRIO_ON
G1 X-11.8645 Y10.19506 E2846.94645 ; EInc=9.57083 cartesianDistance=4.88112 angle=0.000 pulseDistance=0.51000
; 
; feature travel
PRIO_OFF
G0 X-11.8645 Y10.67394 ; cartesianDistance=0.47888 (Travel)
; 
; feature fill
PRIO_ON
G1 X-8.59346 Y11.8645 E2853.77188 ; EInc=6.82543 cartesianDistance=3.48097 angle=0.000 pulseDistance=0.51000
; 
; feature travel
PRIO_OFF
G0 X-9.90917 Y11.8645 ; cartesianDistance=1.31571 (Travel)
; 
; feature fill
PRIO_ON
G1 X-11.8645 Y11.15282 E2857.85191 ; EInc=4.08004 cartesianDistance=2.08082 angle=0.000 pulseDistance=0.51000
; 
; feature travel
PRIO_OFF
G0 X-11.8645 Y11.6317 ; cartesianDistance=0.47888 (Travel)
; 
; feature fill
PRIO_ON
G1 X-11.22488 Y11.8645 E2859.18656 ; EInc=1.33464 cartesianDistance=0.68067 angle=0.000 pulseDistance=0.51000
PRIO_OFF
LayersCompleted=5
M1
; 
;========================
; layer 5, Z = 1.4400
; 
; reset extrusion
STOPRE
PRESETON(E, 0)
DO PRIO_PULSE_DISTANCE=DROP_SCALE
DO PRIO_ON_PATH_OFFSET=0.5*PRIO_PULSE_DISTANCE
;outer: (12.6302,-12.6302) (12.6302,12.6302) (-12.6302,12.6302) (-12.6302,-12.6302) (-9.3302,-12.6302) holes: !
;overhangs:!
; 
; feature plane change
G0 X-11.22488 Y11.8645 Z1.44 ; cartesianDistance=0.00000 (Plane Change)
; 
; feature travel
G0 X-11.37643 Y-12.2152 ; cartesianDistance=24.08018 (Travel)
; 
; feature outer perimeter
G1 F24000 FL[E] = OuterPerimeterFrequency * DROP_SCALE * 60
PRIO_ON
G1 X-12.2152 Y-12.2152 E1.97359 ; EInc=1.97359 cartesianDistance=0.83877 angle=90.000 pulseDistance=0.42500
G1 X-12.2152 Y12.2152 E59.45688 ; EInc=57.48329 cartesianDistance=24.43040 angle=90.000 pulseDistance=0.42500
G1 X12.2152 Y12.2152 E116.94017 ; EInc=57.48329 cartesianDistance=24.43040 angle=90.000 pulseDistance=0.42500
G1 X12.2152 Y-12.2152 E174.42347 ; EInc=57.48329 cartesianDistance=24.43040 angle=90.000 pulseDistance=0.42500
G1 X-11.37643 Y-12.2152 E229.93318 ; EInc=55.50971 cartesianDistance=23.59163 angle=180.000 pulseDistance=0.42500
; 
; feature travel
PRIO_OFF
G0 X-11.37643 Y-11.8642 ; cartesianDistance=0.35100 (Travel)
; 
; feature inner perimeter
G1 F24000 FL[E] = InnerPerimeterFrequency * DROP_SCALE * 60
PRIO_ON
G1 X11.8642 Y-11.8642 E272.97137 ; EInc=43.03820 cartesianDistance=23.24063 angle=90.000 pulseDistance=0.54000
G1 X11.8642 Y11.8642 E316.91285 ; EInc=43.94148 cartesianDistance=23.72840 angle=90.000 pulseDistance=0.54000
G1 X-11.8642 Y11.8642 E360.85434 ; EInc=43.94148 cartesianDistance=23.72840 angle=90.000 pulseDistance=0.54000
G1 X-11.8642 Y-11.8642 E404.79582 ; EInc=43.94148 cartesianDistance=23.72840 angle=90.000 pulseDistance=0.54000
G1 X-11.37643 Y-11.8642 E405.6991 ; EInc=0.90329 cartesianDistance=0.48777 angle=180.000 pulseDistance=0.54000
; 
; feature travel
PRIO_OFF
G0 X-11.52159 Y-11.8645 ; cartesianDistance=0.14517 (Travel)
; 
; feature fill
G1 F24000 FL[E] = FillFrequency * DROP_SCALE * 60
PRIO_ON
G1 X-0.45658 Y11.8645 E457.03646 ; EInc=51.33736 cartesianDistance=26.18205 angle=0.000 pulseDistance=0.51000
; 
; feature travel
PRIO_OFF
G0 X0.03994 Y11.8645 ; cartesianDistance=0.49652 (Travel)
; 
; feature fill
PRIO_ON
G1 X-11.02507 Y-11.8645 E508.37383 ; EInc=51.33736 cartesianDistance=26.18205 angle=0.000 pulseDistance=0.51000
; 
; feature travel
PRIO_OFF
G0 X-10.52855 Y-11.8645 ; cartesianDistance=0.49652 (Travel)
; 
; feature fill
PRIO_ON
G1 X0.53646 Y11.8645 E559.71119 ; EInc=51.33736 cartesianDistance=26.18205 angle=0.000 pulseDistance=0.51000
; 
; feature travel
PRIO_OFF
G0 X1.03298 Y11.8645 ; cartesianDistance=0.49652 (Travel)
; 
; feature fill
PRIO_ON
G1 X-10.03203 Y-11.8645 E611.04855 ; EInc=51.33736 cartesianDistance=26.18205 angle=0.000 pulseDistance=0.51000
; 
; feature travel
PRIO_OFF
G0 X-9.53551 Y-11.8645 ; cartesianDistance=0.49652 (Travel)
; 
; feature fill
PRIO_ON
G1 X1.5295 Y11.8645 E662.38591 ; EInc=51.33736 cartesianDistance=26.18205 angle=0.000 pulseDistance=0.51000
; 
; feature travel
PRIO_OFF
G0 X2.02602 Y11.8645 ; cartesianDistance=0.49652 (Travel)
; 
; feature fill
PRIO_ON
G1 X-9.03899 Y-11.8645 E713.72327 ; EInc=51.33736 cartesianDistance=26.18205 angle=0.000 pulseDistance=0.51000
; 
; feature travel
PRIO_OFF
G0 X-8.54247 Y-11.8645 ; cartesianDistance=0.49652 (Travel)
; 
; feature fill
PRIO_ON
G1 X2.52254 Y11.8645 E765.06064 ; EInc=51.33736 cartesianDistance=26.18205 angle=0.000 pulseDistance=0.51000
; 
; feature travel
PRIO_OFF
G0 X3.01906 Y11.8645 ; cartesianDistance=0.49652 (Travel)
; 
; feature fill
PRIO_ON
G1 X-8.04595 Y-11.8645 E816.398 ; EInc=51.33736 cartesianDistance=26.18205 angle=0.000 pulseDistance=0.51000
; 
; feature travel
PRIO_OFF
G0 X-7.54943 Y-11.8645 ; cartesianDistance=0.49652 (Travel)
; 
; feature fill
PRIO_ON
G1 X3.51558 Y11.8645 E867.73536 ; EInc=51.33736 cartesianDistance=26.18205 angle=0.000 pulseDistance=0.51000
; 
; feature travel
PRIO_OFF
G0 X4.0121 Y11.8645 ; cartesianDistance=0.49652 (Travel)
; 
; feature fill
PRIO_ON
G1 X-7.05291 Y-11.8645 E919.07272 ; EInc=51.33736 cartesianDistance=26.18205 angle=0.000 pulseDistance=0.51000
; 
; feature travel
PRIO_OFF
G0 X-6.55639 Y-11.8645 ; cartesianDistance=0.49652 (Travel)
; 
; feature fill
PRIO_ON
G1 X4.50862 Y11.8645 E970.41008 ; EInc=51.33736 cartesianDistance=26.18205 angle=0.000 pulseDistance=0.51000
; 
; feature travel
PRIO_OFF
G0 X5.00514 Y11.8645 ; cartesianDistance=0.49652 (Travel)
; 
; feature fill
PRIO_ON
G1 X-6.05987 Y-11.8645 E1021.74745 ; EInc=51.33736 cartesianDistance=26.18205 angle=0.000 pulseDistance=0.51000
; 
; feature travel
PRIO_OFF
G0 X-5.56335 Y-11.8645 ; cartesianDistance=0.49652 (Travel)
; 
; feature fill
PRIO_ON
G1 X5.50166 Y11.8645 E1073.08481 ; EInc=51.33736 cartesianDistance=26.18205 angle=0.000 pulseDistance=0.51000
; 
; feature travel
PRIO_OFF
G0 X5.99818 Y11.8645 ; cartesianDistance=0.49652 (Travel)
; 
; feature fill
PRIO_ON
G1 X-5.06683 Y-11.8645 E1124.42217 ; EInc=51.33736 cartesianDistance=26.18205 angle=0.000 pulseDistance=0.51000
; 
; feature travel
PRIO_OFF
G0 X-4.57031 Y-11.8645 ; cartesianDistance=0.49652 (Travel)
; 
; feature fill
PRIO_ON
G1 X6.4947 Y11.8645 E1175.75953 ; EInc=51.33736 cartesianDistance=26.18205 angle=0.000 pulseDistance=0.51000
; 
; feature travel
PRIO_OFF
G0 X6.99122 Y11.8645 ; cartesianDistance=0.49652 (Travel)
; 
; feature fill
PRIO_ON
G1 X-4.07379 Y-11.8645 E1227.09689 ; EInc=51.33736 cartesianDistance=26.18205 angle=0.000 pulseDistance=0.51000
; 
; feature travel
PRIO_OFF
G0 X-3.57727 Y-11.8645 ; cartesianDistance=0.49652 (Travel)
; 
; feature fill
PRIO_ON
G1 X7.48774 Y11.8645 E1278.43426 ; EInc=51.33736 cartesianDistance=26.18205 angle=0.000 pulseDistance=0.51000
; 
; feature travel
PRIO_OFF
G0 X7.98426 Y11.8645 ; cartesianDistance=0.49652 (Travel)
; 
; feature fill
PRIO_ON
G1 X-3.08075 Y-11.8645 E1329.77162 ; EInc=51.33736 cartesianDistance=26.18205 angle=0.000 pulseDistance=0.51000
; 
; feature travel
PRIO_OFF
G0 X-2.58423 Y-11.8645 ; cartesianDistance=0.49652 (Travel)
; 
; feature fill
PRIO_ON
G1 X8.48078 Y11.8645 E1381.10898 ; EInc=51.33736 cartesianDistance=26.18205 angle=0.000 pulseDistance=0.51000
; 
; feature travel
PRIO_OFF
G0 X8.9773 Y11.8645 ; cartesianDistance=0.49652 (Travel)
; 
; feature fill
PRIO_ON
G1 X-2.08771 Y-11.8645 E1432.44634 ; EInc=51.33736 cartesianDistance=26.18205 angle=0.000 pulseDistance=0.51000
; 
; feature travel
PRIO_OFF
G0 X-1.59119 Y-11.8645 ; cartesianDistance=0.49652 (Travel)
; 
; feature fill
PRIO_ON
G1 X9.47382 Y11.8645 E1483.78371 ; EInc=51.33736 cartesianDistance=26.18205 angle=0.000 pulseDistance=0.51000
; 
; feature travel
PRIO_OFF
G0 X9.97034 Y11.8645 ; cartesianDistance=0.49652 (Travel)
; 
; feature fill
PRIO_ON
G1 X-1.09467 Y-11.8645 E1535.12107 ; EInc=51.33736 cartesianDistance=26.18205 angle=0.000 pulseDistance=0.51000
; 
; feature travel
PRIO_OFF
G0 X-0.59815 Y-11.8645 ; cartesianDistance=0.49652 (Travel)
; 
; feature fill
PRIO_ON
G1 X10.46686 Y11.8645 E1586.45843 ; EInc=51.33736 cartesianDistance=26.18205 angle=0.000 pulseDistance=0.51000
; 
; feature travel
PRIO_OFF
G0 X10.96338 Y11.8645 ; cartesianDistance=0.49652 (Travel)
; 
; feature fill
PRIO_ON
G1 X-0.10163 Y-11.8645 E1637.79579 ; EInc=51.33736 cartesianDistance=26.18205 angle=0.000 pulseDistance=0.51000
; 
; feature travel
PRIO_OFF
G0 X0.39489 Y-11.8645 ; cartesianDistance=0.49652 (Travel)
; 
; feature fill
PRIO_ON
G1 X11.4599 Y11.8645 E1689.13315 ; EInc=51.33736 cartesianDistance=26.18205 angle=0.000 pulseDistance=0.51000
; 
; feature travel
PRIO_OFF
G0 X11.8645 Y11.66737 ; cartesianDistance=0.45007 (Travel)
; 
; feature fill
PRIO_ON
G1 X0.89141 Y-11.8645 E1740.04404 ; EInc=50.91088 cartesianDistance=25.96455 angle=0.000 pulseDistance=0.51000
; 
; feature travel
PRIO_OFF
G0 X1.38793 Y-11.8645 ; cartesianDistance=0.49652 (Travel)
; 
; feature fill
PRIO_ON
G1 X11.8645 Y10.60258 E1788.65126 ; EInc=48.60722 cartesianDistance=24.78968 angle=0.000 pulseDistance=0.51000
; 
; feature travel
PRIO_OFF
G0 X11.8645 Y9.53779 ; cartesianDistance=1.06479 (Travel)
; 
; feature fill
PRIO_ON
G1 X1.88445 Y-11.8645 E1834.95483 ; EInc=46.30356 cartesianDistance=23.61482 angle=0.000 pulseDistance=0.51000
; 
; feature travel
PRIO_OFF
G0 X2.38097 Y-11.8645 ; cartesianDistance=0.49652 (Travel)
; 
; feature fill
PRIO_ON
G1 X11.8645 Y8.473 E1878.95473 ; EInc=43.99990 cartesianDistance=22.43995 angle=0.000 pulseDistance=0.51000
; 
; feature travel
PRIO_OFF
G0 X11.8645 Y7.40821 ; cartesianDistance=1.06479 (Travel)
; 
; feature fill
PRIO_ON
G1 X2.87749 Y-11.8645 E1920.65098 ; EInc=41.69624 cartesianDistance=21.26508 angle=0.000 pulseDistance=0.51000
; 
; feature travel
PRIO_OFF
G0 X3.37401 Y-11.8645 ; cartesianDistance=0.49652 (Travel)
; 
; feature fill
PRIO_ON
G1 X11.8645 Y6.34342 E1960.04356 ; EInc=39.39258 cartesianDistance=20.09022 angle=0.000 pulseDistance=0.51000
; 
; feature travel
PRIO_OFF
G0 X11.8645 Y5.27863 ; cartesianDistance=1.06479 (Travel)
; 
; feature fill
PRIO_ON
G1 X3.87053 Y-11.8645 E1997.13248 ; EInc=37.08892 cartesianDistance=18.91535 angle=0.000 pulseDistance=0.51000
; 
; feature travel
PRIO_OFF
G0 X4.36705 Y-11.8645 ; cartesianDistance=0.49652 (Travel)
; 
; feature fill
PRIO_ON
G1 X11.8645 Y4.21384 E2031.91775 ; EInc=34.78526 cartesianDistance=17.74049 angle=0.000 pulseDistance=0.51000
; 
; feature travel
PRIO_OFF
G0 X11.8645 Y3.14905 ; cartesianDistance=1.06479 (Travel)
; 
; feature fill
PRIO_ON
G1 X4.86357 Y-11.8645 E2064.39935 ; EInc=32.48160 cartesianDistance=16.56562 angle=0.000 pulseDistance=0.51000
; 
; feature travel
PRIO_OFF
G0 X5.36009 Y-11.8645 ; cartesianDistance=0.49652 (Travel)
; 
; feature fill
PRIO_ON
G1 X11.8645 Y2.08426 E2094.5773 ; EInc=30.17794 cartesianDistance=15.39075 angle=0.000 pulseDistance=0.51000
; 
; feature travel
PRIO_OFF
G0 X11.8645 Y1.01947 ; cartesianDistance=1.06479 (Travel)
; 
; feature fill
PRIO_ON
G1 X5.85661 Y-11.8645 E2122.45158 ; EInc=27.87429 cartesianDistance=14.21589 angle=0.000 pulseDistance=0.51000
; 
; feature travel
PRIO_OFF
G0 X6.35313 Y-11.8645 ; cartesianDistance=0.49652 (Travel)
; 
; feature fill
PRIO_ON
G1 X11.8645 Y-0.04532 E2148.02221 ; EInc=25.57063 cartesianDistance=13.04102 angle=0.000 pulseDistance=0.51000
; 
; feature travel
PRIO_OFF
G0 X11.8645 Y-1.11011 ; cartesianDistance=1.06479 (Travel)
; 
; feature fill
PRIO_ON
G1 X6.84965 Y-11.8645 E2171.28918 ; EInc=23.26697 cartesianDistance=11.86615 angle=0.000 pulseDistance=0.51000
; 
; feature travel
PRIO_OFF
G0 X7.34617 Y-11.8645 ; cartesianDistance=0.49652 (Travel)
; 
; feature fill
PRIO_ON
G1 X11.8645 Y-2.1749 E2192.25248 ; EInc=20.96331 cartesianDistance=10.69129 angle=0.000 pulseDistance=0.51000
; 
; feature travel
PRIO_OFF
G0 X11.8645 Y-3.2397 ; cartesianDistance=1.06479 (Travel)
; 
; feature fill
PRIO_ON
G1 X7.84269 Y-11.8645 E2210.91213 ; EInc=18.65965 cartesianDistance=9.51642 angle=0.000 pulseDistance=0.51000
; 
; feature travel
PRIO_OFF
G0 X8.33921 Y-11.8645 ; cartesianDistance=0.49652 (Travel)
; 
; feature fill
PRIO_ON
G1 X11.8645 Y-4.30449 E2227.26811 ; EInc=16.35599 cartesianDistance=8.34155 angle=0.000 pulseDistance=0.51000
; 
; feature travel
PRIO_OFF
G0 X11.8645 Y-5.36928 ; cartesianDistance=1.06479 (Travel)
; 
; feature fill
PRIO_ON
G1 X8.83573 Y-11.8645 E2241.32044 ; EInc=14.05233 cartesianDistance=7.16669 angle=0.000 pulseDistance=0.51000
; 
; feature travel
PRIO_OFF
G0 X9.33225 Y-11.8645 ; cartesianDistance=0.49652 (Travel)
; 
; feature fill
PRIO_ON
