;---BEGIN HEADER
; Generated by DropletSlicer
; Version: 3.4.4
; Date: Sunday, July 28, 2024
; Time: 11:18:01 PM
G64 ;continuous path mode
G71 ;millimeters
G56 ;origin at center
OVR=100
OVRRAP=20
DO PRIO_ON_PATH_OFFSET=0.5*PRIO_PULSE_DISTANCE
RECOMMENDED_RECIPE="4008 Aluminum Wire"
CheckRecommendedRecipe
BUILDPROCESSORINTERFACEVERSION=1177
CheckBPVersion
OuterPerimeterFrequency=300
InnerPerimeterFrequency=400
ThinFeatureFrequency=300
UnsupportedStepoutFrequency=300
SupportedStepoutFrequency=300
FillFrequency=400
SupportWallFrequency=100
SupportPillarFrequency=100
;BUILDPROCESSORINTERFACEVERSION=1177
PART_MASS_CONSUMPTION=0
SUPPORT_MASS_CONSUMPTION=0
G0 X0 Y0 ; cartesianDistance=0.00000 (reset z)
MSG("Print Started")
;---END HEADER
;---BEGIN PRINT STATISTICS
;TOTAL WIRE FEED ESTIMATE:
;    Total Drops: 120,078.68
;      Total Mass: 17.41 g
;    Part Drops: 120,078.68
;      Part Mass: 17.41 g
;    Support Drops: 0.00
;      Support Mass: 0.00 g
;    Part Density: 100.0%
;---END PRINT STATISTICS
;XY Extents: [-12.215 -12.215] [12.215 12.215]
;NaiveEstimatedPrintTime=414.3596259693569
;SupportedStepoutFrequency=300
EstimatedPrintTime=477.5570983886719
;ZCount = 1
;ExtraChevronOffset = 10
NumberOfLayers=42
LayersCompleted=0
;Mass values below are in kilograms
TOTAL_MASS=0.017411409
PART_MASS=0.017411409
SUPPORT_MASS=0.000000000
CheckMass
DO PRIO_PULSE_DISTANCE=DROP_SCALE
DO PRIO_ON_PATH_OFFSET=0.5*PRIO_PULSE_DISTANCE
PARAM_SETUP
;ChunkSize=5
; 
;========================
; layer 0, Z = 0.2400
; 
; reset extrusion
STOPRE
PRESETON(E, 0)
DO PRIO_PULSE_DISTANCE=DROP_SCALE
DO PRIO_ON_PATH_OFFSET=0.5*PRIO_PULSE_DISTANCE
FEATURE_TYPE=0
;outer: (12.6302,-12.6302) (12.6302,12.6302) (-12.6302,12.6302) (-12.6302,-12.6302) (-12.3302,-12.6302) holes: !
;overhangs:!
; 
; feature plane change
G0 X0 Y0 Z0.24 ; cartesianDistance=0.00000 (Plane Change)
; 
; feature travel
; queued 1 travel movement
; Start 1 queued infill moves
; feature travel
PRIO_OFF
G0 X-12.21520 Y10.4723  ;Travel to end
; End queued infill moves
; feature inner perimeter
G1 F24000 FL[E] = OuterPerimeterFrequency * DROP_SCALE * 60
DO PRIO_PULSE_DISTANCE=DROP_SCALE
DO PRIO_ON_PATH_OFFSET=0.5*PRIO_PULSE_DISTANCE
PRIO_ON
G1 X-12.2152 Y-12.2152 E53.38237 ; EInc=53.38237 cartesianDistance=22.68751 angle=90.000 pulseDistance=0.42500
G1 X12.2152 Y-12.2152 E110.86566 ; EInc=57.48329 cartesianDistance=24.43040 angle=90.000 pulseDistance=0.42500
G1 X12.2152 Y12.2152 E168.34895 ; EInc=57.48329 cartesianDistance=24.43040 angle=90.000 pulseDistance=0.42500
G1 X-12.2152 Y12.2152 E225.83225 ; EInc=57.48329 cartesianDistance=24.43040 angle=90.000 pulseDistance=0.42500
G1 X-12.2152 Y10.47231 E229.93318 ; EInc=4.10093 cartesianDistance=1.74289 angle=180.000 pulseDistance=0.42500
; 
; feature travel
; queued 1 travel movement
; Start 1 queued infill moves
; feature travel
PRIO_OFF
G0 X-11.86420 Y10.4723  ;Travel to end
; End queued infill moves
; feature inner perimeter
G1 F24000 FL[E] = InnerPerimeterFrequency * DROP_SCALE * 60
PRIO_ON
G1 X-11.8642 Y11.8642 E232.51076 ; EInc=2.57758 cartesianDistance=1.39189 angle=90.000 pulseDistance=0.54000
G1 X11.8642 Y11.8642 E276.45224 ; EInc=43.94148 cartesianDistance=23.72840 angle=90.000 pulseDistance=0.54000
G1 X11.8642 Y-11.8642 E320.39372 ; EInc=43.94148 cartesianDistance=23.72840 angle=90.000 pulseDistance=0.54000
G1 X-11.8642 Y-11.8642 E364.3352 ; EInc=43.94148 cartesianDistance=23.72840 angle=90.000 pulseDistance=0.54000
G1 X-11.8642 Y10.47231 E405.6991 ; EInc=41.36390 cartesianDistance=22.33651 angle=180.000 pulseDistance=0.54000
; 
; feature travel
; queued 1 travel movement
; feature fill
; queued 1 infill movement
; feature travel
; queued 1 travel movement
; feature fill
; queued 1 infill movement
; feature travel
; queued 1 travel movement
; feature fill
; queued 1 infill movement
; feature travel
; queued 1 travel movement
; feature fill
; queued 1 infill movement
; feature travel
; queued 1 travel movement
; feature fill
; queued 1 infill movement
; feature travel
; queued 1 travel movement
; feature fill
; queued 1 infill movement
; feature travel
; queued 1 travel movement
; feature fill
; queued 1 infill movement
; feature travel
; queued 1 travel movement
; feature fill
; queued 1 infill movement
; feature travel
; queued 1 travel movement
; feature fill
; queued 1 infill movement
; feature travel
; queued 1 travel movement
; feature fill
; queued 1 infill movement
; feature travel
; queued 1 travel movement
; feature fill
; queued 1 infill movement
; feature travel
; queued 1 travel movement
; feature fill
; queued 1 infill movement
; feature travel
; queued 1 travel movement
; feature fill
; queued 1 infill movement
; feature travel
; queued 1 travel movement
; feature fill
; queued 1 infill movement
; feature travel
; queued 1 travel movement
; feature fill
; queued 1 infill movement
; feature travel
; queued 1 travel movement
; feature fill
; queued 1 infill movement
; feature travel
; queued 1 travel movement
; feature fill
; queued 1 infill movement
; feature travel
; queued 1 travel movement
; feature fill
; queued 1 infill movement
; feature travel
; queued 1 travel movement
; feature fill
; queued 1 infill movement
; feature travel
; queued 1 travel movement
; feature fill
; queued 1 infill movement
; feature travel
; queued 1 travel movement
; feature fill
; queued 1 infill movement
; feature travel
; queued 1 travel movement
; feature fill
; queued 1 infill movement
; feature travel
; queued 1 travel movement
; feature fill
; queued 1 infill movement
; feature travel
; queued 1 travel movement
; feature fill
; queued 1 infill movement
; feature travel
; queued 1 travel movement
; feature fill
; queued 1 infill movement
; feature travel
; queued 1 travel movement
; feature fill
; queued 1 infill movement
; feature travel
; queued 1 travel movement
; feature fill
; queued 1 infill movement
; feature travel
; queued 1 travel movement
; feature fill
; queued 1 infill movement
; feature travel
; queued 1 travel movement
; feature fill
; queued 1 infill movement
; feature travel
; queued 1 travel movement
; feature fill
; queued 1 infill movement
; feature travel
; queued 1 travel movement
; feature fill
; queued 1 infill movement
; feature travel
; queued 1 travel movement
; feature fill
; queued 1 infill movement
; feature travel
; queued 1 travel movement
; feature fill
; queued 1 infill movement
; feature travel
; queued 1 travel movement
; feature fill
; queued 1 infill movement
; feature travel
; queued 1 travel movement
; feature fill
; queued 1 infill movement
; feature travel
; queued 1 travel movement
; feature fill
; queued 1 infill movement
; feature travel
; queued 1 travel movement
; feature fill
; queued 1 infill movement
; feature travel
; queued 1 travel movement
; feature fill
; queued 1 infill movement
; feature travel
; queued 1 travel movement
; feature fill
; queued 1 infill movement
; feature travel
; queued 1 travel movement
; feature fill
; queued 1 infill movement
; feature travel
; queued 1 travel movement
; feature fill
; queued 1 infill movement
; feature travel
; queued 1 travel movement
; feature fill
; queued 1 infill movement
; feature travel
; queued 1 travel movement
; feature fill
; queued 1 infill movement
; feature travel
; queued 1 travel movement
; feature fill
; queued 1 infill movement
; feature travel
; queued 1 travel movement
; feature fill
; queued 1 infill movement
; feature travel
; queued 1 travel movement
; feature fill
; queued 1 infill movement
; feature travel
; queued 1 travel movement
; feature fill
; queued 1 infill movement
; feature travel
; queued 1 travel movement
; feature fill
; queued 1 infill movement
; feature travel
; queued 1 travel movement
; feature fill
; queued 1 infill movement
; feature travel
; queued 1 travel movement
; feature fill
; queued 1 infill movement
; feature travel
; queued 1 travel movement
; feature fill
; queued 1 infill movement
; feature travel
; queued 1 travel movement
; feature fill
; queued 1 infill movement
; feature travel
; queued 1 travel movement
; feature fill
; queued 1 infill movement
; feature travel
; queued 1 travel movement
; feature fill
; queued 1 infill movement
; feature travel
; queued 1 travel movement
; feature fill
; queued 1 infill movement
; feature travel
; queued 1 travel movement
; feature fill
; queued 1 infill movement
; feature travel
; queued 1 travel movement
; feature fill
; queued 1 infill movement
; feature travel
; queued 1 travel movement
; feature fill
; queued 1 infill movement
; feature travel
; queued 1 travel movement
; feature fill
; queued 1 infill movement
; feature travel
; queued 1 travel movement
; feature fill
; queued 1 infill movement
; feature travel
; queued 1 travel movement
; feature fill
; queued 1 infill movement
; feature travel
; queued 1 travel movement
; feature fill
; queued 1 infill movement
; feature travel
; queued 1 travel movement
; feature fill
; queued 1 infill movement
; feature travel
; queued 1 travel movement
; feature fill
; queued 1 infill movement
; feature travel
; queued 1 travel movement
; feature fill
; queued 1 infill movement
; feature travel
; queued 1 travel movement
; feature fill
; queued 1 infill movement
; feature travel
; queued 1 travel movement
; feature fill
; queued 1 infill movement
; feature travel
; queued 1 travel movement
; feature fill
; queued 1 infill movement
; Start 136 queued infill moves
; feature travel
PRIO_OFF
G0 X-11.86450 Y10.3800  ;Travel to end
; Adjusted extrusion move
; feature travel
PRIO_OFF
G0 X-11.86450 Y10.3800 Z0.24 ;Travel to start
; ; feature fill
PRIO_ON
G1 X-7.78579 Y11.8645 E414.20983 ; EInc=8.51072 cartesianDistance=4.34047 angle=0.000 pulseDistance=0.51000; EInc=8.510730000000024
; feature travel
PRIO_OFF
G0 X-6.47008 Y11.8645  ;Travel to end
; Adjusted extrusion move
; feature travel
PRIO_OFF
G0 X-6.47008 Y11.8645 Z0.24 ;Travel to start
; ; feature fill
PRIO_ON
G1 X-11.86450 Y9.9011 E425.46595 ; EInc=11.25612 cartesianDistance=5.74062 angle=0.000 pulseDistance=0.51000; EInc=11.25612000000001
; feature travel
PRIO_OFF
G0 X-11.86450 Y9.4222  ;Travel to end
; Adjusted extrusion move
; feature travel
PRIO_OFF
G0 X-11.86450 Y9.4222 Z0.24 ;Travel to start
; ; feature fill
PRIO_ON
G1 X-5.15437 Y11.8645 E439.46746 ; EInc=14.00151 cartesianDistance=7.14077 angle=0.000 pulseDistance=0.51000; EInc=14.001509999999996
; feature travel
PRIO_OFF
G0 X-3.83866 Y11.8645  ;Travel to end
; Adjusted extrusion move
; feature travel
PRIO_OFF
G0 X-3.83866 Y11.8645 Z0.24 ;Travel to start
; ; feature fill
PRIO_ON
G1 X-11.86450 Y8.9433 E456.21437 ; EInc=16.74691 cartesianDistance=8.54092 angle=0.000 pulseDistance=0.51000; EInc=16.746909999999957
; feature travel
PRIO_OFF
G0 X-11.86450 Y8.4644  ;Travel to end
; Adjusted extrusion move
; feature travel
PRIO_OFF
G0 X-11.86450 Y8.4644 Z0.24 ;Travel to start
; ; feature fill
PRIO_ON
G1 X-2.52294 Y11.8645 E475.70667 ; EInc=19.49230 cartesianDistance=9.94108 angle=0.000 pulseDistance=0.51000; EInc=19.4923
; feature travel
PRIO_OFF
G0 X-1.20723 Y11.8645  ;Travel to end
; Adjusted extrusion move
; feature travel
PRIO_OFF
G0 X-1.20723 Y11.8645 Z0.24 ;Travel to start
; ; feature fill
PRIO_ON
G1 X-11.86450 Y7.9856 E497.94437 ; EInc=22.23770 cartesianDistance=11.34123 angle=0.000 pulseDistance=0.51000; EInc=22.237700000000018
; feature travel
PRIO_OFF
G0 X-11.86450 Y7.5067  ;Travel to end
; Adjusted extrusion move
; feature travel
PRIO_OFF
G0 X-11.86450 Y7.5067 Z0.24 ;Travel to start
; ; feature fill
PRIO_ON
G1 X0.10848 Y11.8645 E522.92747 ; EInc=24.98309 cartesianDistance=12.74138 angle=0.000 pulseDistance=0.51000; EInc=24.98309999999998
; feature travel
PRIO_OFF
G0 X1.42419 Y11.8645  ;Travel to end
; Adjusted extrusion move
; feature travel
PRIO_OFF
G0 X1.42419 Y11.8645 Z0.24 ;Travel to start
; ; feature fill
PRIO_ON
G1 X-11.86450 Y7.0278 E550.65596 ; EInc=27.72849 cartesianDistance=14.14153 angle=0.000 pulseDistance=0.51000; EInc=27.72849000000008
; feature travel
PRIO_OFF
G0 X-11.86450 Y6.5489  ;Travel to end
; Adjusted extrusion move
; feature travel
PRIO_OFF
G0 X-11.86450 Y6.5489 Z0.24 ;Travel to start
; ; feature fill
PRIO_ON
G1 X2.73990 Y11.8645 E581.12984 ; EInc=30.47388 cartesianDistance=15.54168 angle=0.000 pulseDistance=0.51000; EInc=30.473879999999895
; feature travel
PRIO_OFF
G0 X4.05561 Y11.8645  ;Travel to end
; Adjusted extrusion move
; feature travel
PRIO_OFF
G0 X4.05561 Y11.8645 Z0.24 ;Travel to start
; ; feature fill
PRIO_ON
G1 X-11.86450 Y6.0701 E614.34912 ; EInc=33.21928 cartesianDistance=16.94183 angle=0.000 pulseDistance=0.51000; EInc=33.219280000000026
; feature travel
PRIO_OFF
G0 X-11.86450 Y5.5912  ;Travel to end
; Adjusted extrusion move
; feature travel
PRIO_OFF
G0 X-11.86450 Y5.5912 Z0.24 ;Travel to start
; ; feature fill
PRIO_ON
G1 X5.37133 Y11.8645 E650.31380 ; EInc=35.96467 cartesianDistance=18.34198 angle=0.000 pulseDistance=0.51000; EInc=35.964680000000044
; feature travel
PRIO_OFF
G0 X6.68704 Y11.8645  ;Travel to end
; Adjusted extrusion move
; feature travel
PRIO_OFF
G0 X6.68704 Y11.8645 Z0.24 ;Travel to start
; ; feature fill
PRIO_ON
G1 X-11.86450 Y5.1123 E689.02387 ; EInc=38.71007 cartesianDistance=19.74214 angle=0.000 pulseDistance=0.51000; EInc=38.71006999999997
; feature travel
PRIO_OFF
G0 X-11.86450 Y4.6334  ;Travel to end
; Adjusted extrusion move
; feature travel
PRIO_OFF
G0 X-11.86450 Y4.6334 Z0.24 ;Travel to start
; ; feature fill
PRIO_ON
G1 X8.00275 Y11.8645 E730.47933 ; EInc=41.45546 cartesianDistance=21.14229 angle=0.000 pulseDistance=0.51000; EInc=41.455460000000016
; feature travel
PRIO_OFF
G0 X9.31846 Y11.8645  ;Travel to end
; Adjusted extrusion move
; feature travel
PRIO_OFF
G0 X9.31846 Y11.8645 Z0.24 ;Travel to start
; ; feature fill
PRIO_ON
G1 X-11.86450 Y4.1545 E774.68019 ; EInc=44.20086 cartesianDistance=22.54244 angle=0.000 pulseDistance=0.51000; EInc=44.200860000000034
; feature travel
PRIO_OFF
G0 X-11.86450 Y3.6757  ;Travel to end
; Adjusted extrusion move
; feature travel
PRIO_OFF
G0 X-11.86450 Y3.6757 Z0.24 ;Travel to start
; ; feature fill
PRIO_ON
G1 X10.63417 Y11.8645 E821.62644 ; EInc=46.94625 cartesianDistance=23.94259 angle=0.000 pulseDistance=0.51000; EInc=46.946249999999964
; feature travel
PRIO_OFF
G0 X11.86450 Y11.8334  ;Travel to end
; Adjusted extrusion move
; feature travel
PRIO_OFF
G0 X11.86450 Y11.8334 Z0.24 ;Travel to start
; ; feature fill
PRIO_ON
G1 X-11.86450 Y3.1968 E871.13992 ; EInc=49.51348 cartesianDistance=25.25187 angle=0.000 pulseDistance=0.51000; EInc=49.51347999999996
; feature travel
PRIO_OFF
G0 X-11.86450 Y2.7179  ;Travel to end
; Adjusted extrusion move
; feature travel
PRIO_OFF
G0 X-11.86450 Y2.7179 Z0.24 ;Travel to start
; ; feature fill
PRIO_ON
G1 X11.86450 Y11.3545 E920.65340 ; EInc=49.51348 cartesianDistance=25.25187 angle=0.000 pulseDistance=0.51000; EInc=49.51348000000007
; feature travel
PRIO_OFF
G0 X11.86450 Y10.8757  ;Travel to end
; Adjusted extrusion move
; feature travel
PRIO_OFF
G0 X11.86450 Y10.8757 Z0.24 ;Travel to start
; ; feature fill
PRIO_ON
G1 X-11.86450 Y2.2390 E970.16688 ; EInc=49.51348 cartesianDistance=25.25187 angle=0.000 pulseDistance=0.51000; EInc=49.51347999999996
; feature travel
PRIO_OFF
G0 X-11.86450 Y1.7601  ;Travel to end
; Adjusted extrusion move
; feature travel
PRIO_OFF
G0 X-11.86450 Y1.7601 Z0.24 ;Travel to start
; ; feature fill
PRIO_ON
G1 X11.86450 Y10.3968 E1019.68036 ; EInc=49.51348 cartesianDistance=25.25187 angle=0.000 pulseDistance=0.51000; EInc=49.51347999999996
; feature travel
PRIO_OFF
G0 X11.86450 Y9.9179  ;Travel to end
; Adjusted extrusion move
; feature travel
PRIO_OFF
G0 X11.86450 Y9.9179 Z0.24 ;Travel to start
; ; feature fill
PRIO_ON
G1 X-11.86450 Y1.2812 E1069.19384 ; EInc=49.51348 cartesianDistance=25.25187 angle=0.000 pulseDistance=0.51000; EInc=49.51347999999996
; feature travel
PRIO_OFF
G0 X-11.86450 Y0.8024  ;Travel to end
; Adjusted extrusion move
; feature travel
PRIO_OFF
G0 X-11.86450 Y0.8024 Z0.24 ;Travel to start
; ; feature fill
PRIO_ON
G1 X11.86450 Y9.4390 E1118.70732 ; EInc=49.51348 cartesianDistance=25.25187 angle=0.000 pulseDistance=0.51000; EInc=49.51348000000007
; feature travel
PRIO_OFF
G0 X11.86450 Y8.9601  ;Travel to end
; Adjusted extrusion move
; feature travel
PRIO_OFF
G0 X11.86450 Y8.9601 Z0.24 ;Travel to start
; ; feature fill
PRIO_ON
G1 X-11.86450 Y0.3235 E1168.22080 ; EInc=49.51348 cartesianDistance=25.25187 angle=0.000 pulseDistance=0.51000; EInc=49.51348000000007
; feature travel
PRIO_OFF
G0 X-11.86450 Y-0.1554  ;Travel to end
; Adjusted extrusion move
; feature travel
PRIO_OFF
G0 X-11.86450 Y-0.1554 Z0.24 ;Travel to start
; ; feature fill
PRIO_ON
G1 X11.86450 Y8.4813 E1217.73428 ; EInc=49.51348 cartesianDistance=25.25187 angle=0.000 pulseDistance=0.51000; EInc=49.513479999999845
; feature travel
PRIO_OFF
G0 X11.86450 Y8.0024  ;Travel to end
; Adjusted extrusion move
; feature travel
PRIO_OFF
G0 X11.86450 Y8.0024 Z0.24 ;Travel to start
; ; feature fill
PRIO_ON
G1 X-11.86450 Y-0.6343 E1267.24776 ; EInc=49.51348 cartesianDistance=25.25187 angle=0.000 pulseDistance=0.51000; EInc=49.51348000000007
; feature travel
PRIO_OFF
G0 X-11.86450 Y-1.1132  ;Travel to end
; Adjusted extrusion move
; feature travel
PRIO_OFF
G0 X-11.86450 Y-1.1132 Z0.24 ;Travel to start
; ; feature fill
PRIO_ON
G1 X11.86450 Y7.5235 E1316.76123 ; EInc=49.51348 cartesianDistance=25.25187 angle=0.000 pulseDistance=0.51000; EInc=49.5134700000001
; feature travel
PRIO_OFF
G0 X11.86450 Y7.0446  ;Travel to end
; Adjusted extrusion move
; feature travel
PRIO_OFF
G0 X11.86450 Y7.0446 Z0.24 ;Travel to start
; ; feature fill
PRIO_ON
G1 X-11.86450 Y-1.5920 E1366.27471 ; EInc=49.51348 cartesianDistance=25.25187 angle=0.000 pulseDistance=0.51000; EInc=49.513479999999845
; feature travel
PRIO_OFF
G0 X-11.86450 Y-2.0709  ;Travel to end
; Adjusted extrusion move
; feature travel
PRIO_OFF
G0 X-11.86450 Y-2.0709 Z0.24 ;Travel to start
; ; feature fill
PRIO_ON
G1 X11.86450 Y6.5657 E1415.78819 ; EInc=49.51348 cartesianDistance=25.25187 angle=0.000 pulseDistance=0.51000; EInc=49.51348000000007
; feature travel
PRIO_OFF
G0 X11.86450 Y6.0869  ;Travel to end
; Adjusted extrusion move
; feature travel
PRIO_OFF
G0 X11.86450 Y6.0869 Z0.24 ;Travel to start
; ; feature fill
PRIO_ON
G1 X-11.86450 Y-2.5498 E1465.30167 ; EInc=49.51348 cartesianDistance=25.25187 angle=0.000 pulseDistance=0.51000; EInc=49.51348000000007
; feature travel
PRIO_OFF
G0 X-11.86450 Y-3.0287  ;Travel to end
; Adjusted extrusion move
; feature travel
PRIO_OFF
G0 X-11.86450 Y-3.0287 Z0.24 ;Travel to start
; ; feature fill
PRIO_ON
G1 X11.86450 Y5.6080 E1514.81515 ; EInc=49.51348 cartesianDistance=25.25187 angle=0.000 pulseDistance=0.51000; EInc=49.513479999999845
; feature travel
PRIO_OFF
G0 X11.86450 Y5.1291  ;Travel to end
; Adjusted extrusion move
; feature travel
PRIO_OFF
G0 X11.86450 Y5.1291 Z0.24 ;Travel to start
; ; feature fill
PRIO_ON
G1 X-11.86450 Y-3.5076 E1564.32863 ; EInc=49.51348 cartesianDistance=25.25187 angle=0.000 pulseDistance=0.51000; EInc=49.51348000000007
; feature travel
PRIO_OFF
G0 X-11.86450 Y-3.9864  ;Travel to end
; Adjusted extrusion move
; feature travel
PRIO_OFF
G0 X-11.86450 Y-3.9864 Z0.24 ;Travel to start
; ; feature fill
PRIO_ON
G1 X11.86450 Y4.6502 E1613.84211 ; EInc=49.51348 cartesianDistance=25.25187 angle=0.000 pulseDistance=0.51000; EInc=49.51348000000007
; feature travel
PRIO_OFF
G0 X11.86450 Y4.1713  ;Travel to end
; Adjusted extrusion move
; feature travel
PRIO_OFF
G0 X11.86450 Y4.1713 Z0.24 ;Travel to start
; ; feature fill
PRIO_ON
G1 X-11.86450 Y-4.4653 E1663.35559 ; EInc=49.51348 cartesianDistance=25.25187 angle=0.000 pulseDistance=0.51000; EInc=49.513479999999845
; feature travel
PRIO_OFF
G0 X-11.86450 Y-4.9442  ;Travel to end
; Adjusted extrusion move
; feature travel
PRIO_OFF
G0 X-11.86450 Y-4.9442 Z0.24 ;Travel to start
; ; feature fill
PRIO_ON
G1 X11.86450 Y3.6925 E1712.86907 ; EInc=49.51348 cartesianDistance=25.25187 angle=0.000 pulseDistance=0.51000; EInc=49.51348000000007
; feature travel
PRIO_OFF
G0 X11.86450 Y3.2136  ;Travel to end
; Adjusted extrusion move
; feature travel
PRIO_OFF
G0 X11.86450 Y3.2136 Z0.24 ;Travel to start
; ; feature fill
PRIO_ON
G1 X-11.86450 Y-5.4231 E1762.38255 ; EInc=49.51348 cartesianDistance=25.25187 angle=0.000 pulseDistance=0.51000; EInc=49.51348000000007
; feature travel
PRIO_OFF
G0 X-11.86450 Y-5.9020  ;Travel to end
; Adjusted extrusion move
; feature travel
PRIO_OFF
G0 X-11.86450 Y-5.9020 Z0.24 ;Travel to start
; ; feature fill
PRIO_ON
G1 X11.86450 Y2.7347 E1811.89603 ; EInc=49.51348 cartesianDistance=25.25187 angle=0.000 pulseDistance=0.51000; EInc=49.51348000000007
; feature travel
PRIO_OFF
G0 X11.86450 Y2.2558  ;Travel to end
; Adjusted extrusion move
; feature travel
PRIO_OFF
G0 X11.86450 Y2.2558 Z0.24 ;Travel to start
; ; feature fill
PRIO_ON
G1 X-11.86450 Y-6.3808 E1861.40951 ; EInc=49.51348 cartesianDistance=25.25187 angle=0.000 pulseDistance=0.51000; EInc=49.513479999999845
; feature travel
PRIO_OFF
G0 X-11.86450 Y-6.8597  ;Travel to end
; Adjusted extrusion move
; feature travel
PRIO_OFF
G0 X-11.86450 Y-6.8597 Z0.24 ;Travel to start
; ; feature fill
PRIO_ON
G1 X11.86450 Y1.7769 E1910.92298 ; EInc=49.51348 cartesianDistance=25.25187 angle=0.000 pulseDistance=0.51000; EInc=49.5134700000001
; feature travel
PRIO_OFF
G0 X11.86450 Y1.2981  ;Travel to end
; Adjusted extrusion move
; feature travel
PRIO_OFF
G0 X11.86450 Y1.2981 Z0.24 ;Travel to start
; ; feature fill
PRIO_ON
G1 X-11.86450 Y-7.3386 E1960.43646 ; EInc=49.51348 cartesianDistance=25.25187 angle=0.000 pulseDistance=0.51000; EInc=49.513479999999845
; feature travel
PRIO_OFF
G0 X-11.86450 Y-7.8175  ;Travel to end
; Adjusted extrusion move
; feature travel
PRIO_OFF
G0 X-11.86450 Y-7.8175 Z0.24 ;Travel to start
; ; feature fill
PRIO_ON
G1 X11.86450 Y0.8192 E2009.94994 ; EInc=49.51348 cartesianDistance=25.25187 angle=0.000 pulseDistance=0.51000; EInc=49.51348000000007
; feature travel
PRIO_OFF
G0 X11.86450 Y0.3403  ;Travel to end
; Adjusted extrusion move
; feature travel
PRIO_OFF
G0 X11.86450 Y0.3403 Z0.24 ;Travel to start
; ; feature fill
PRIO_ON
G1 X-11.86450 Y-8.2964 E2059.46342 ; EInc=49.51348 cartesianDistance=25.25187 angle=0.000 pulseDistance=0.51000; EInc=49.51348000000007
; feature travel
PRIO_OFF
G0 X-11.86450 Y-8.7752  ;Travel to end
; Adjusted extrusion move
; feature travel
PRIO_OFF
G0 X-11.86450 Y-8.7752 Z0.24 ;Travel to start
; ; feature fill
PRIO_ON
G1 X11.86450 Y-0.1386 E2108.97690 ; EInc=49.51348 cartesianDistance=25.25187 angle=0.000 pulseDistance=0.51000; EInc=49.51348000000007
; feature travel
PRIO_OFF
G0 X11.86450 Y-0.6175  ;Travel to end
; Adjusted extrusion move
; feature travel
PRIO_OFF
G0 X11.86450 Y-0.6175 Z0.24 ;Travel to start
; ; feature fill
PRIO_ON
G1 X-11.86450 Y-9.2541 E2158.49038 ; EInc=49.51348 cartesianDistance=25.25187 angle=0.000 pulseDistance=0.51000; EInc=49.51348000000007
; feature travel
PRIO_OFF
G0 X-11.86450 Y-9.7330  ;Travel to end
; Adjusted extrusion move
; feature travel
PRIO_OFF
G0 X-11.86450 Y-9.7330 Z0.24 ;Travel to start
; ; feature fill
PRIO_ON
G1 X11.86450 Y-1.0963 E2208.00386 ; EInc=49.51348 cartesianDistance=25.25187 angle=0.000 pulseDistance=0.51000; EInc=49.51347999999962
; feature travel
PRIO_OFF
G0 X11.86450 Y-1.5752  ;Travel to end
; Adjusted extrusion move
; feature travel
PRIO_OFF
G0 X11.86450 Y-1.5752 Z0.24 ;Travel to start
; ; feature fill
PRIO_ON
G1 X-11.86450 Y-10.2119 E2257.51734 ; EInc=49.51348 cartesianDistance=25.25187 angle=0.000 pulseDistance=0.51000; EInc=49.51348000000007
; feature travel
PRIO_OFF
G0 X-11.86450 Y-10.6907  ;Travel to end
; Adjusted extrusion move
; feature travel
PRIO_OFF
G0 X-11.86450 Y-10.6907 Z0.24 ;Travel to start
; ; feature fill
PRIO_ON
G1 X11.86450 Y-2.0541 E2307.03082 ; EInc=49.51348 cartesianDistance=25.25187 angle=0.000 pulseDistance=0.51000; EInc=49.51348000000007
; feature travel
PRIO_OFF
G0 X11.86450 Y-2.5330  ;Travel to end
; Adjusted extrusion move
; feature travel
PRIO_OFF
G0 X11.86450 Y-2.5330 Z0.24 ;Travel to start
; ; feature fill
PRIO_ON
G1 X-11.86450 Y-11.1696 E2356.54430 ; EInc=49.51348 cartesianDistance=25.25187 angle=0.000 pulseDistance=0.51000; EInc=49.51348000000007
; feature travel
PRIO_OFF
G0 X-11.86450 Y-11.6485  ;Travel to end
; Adjusted extrusion move
; feature travel
PRIO_OFF
G0 X-11.86450 Y-11.6485 Z0.24 ;Travel to start
; ; feature fill
PRIO_ON
G1 X11.86450 Y-3.0119 E2406.05778 ; EInc=49.51348 cartesianDistance=25.25187 angle=0.000 pulseDistance=0.51000; EInc=49.51348000000007
; feature travel
PRIO_OFF
G0 X11.86450 Y-3.4907  ;Travel to end
; Adjusted extrusion move
; feature travel
PRIO_OFF
G0 X11.86450 Y-3.4907 Z0.24 ;Travel to start
; ; feature fill
PRIO_ON
G1 X-11.14222 Y-11.8645 E2454.06413 ; EInc=48.00636 cartesianDistance=24.48324 angle=0.000 pulseDistance=0.51000; EInc=48.00635000000011
; feature travel
PRIO_OFF
G0 X-9.82651 Y-11.8645  ;Travel to end
; Adjusted extrusion move
; feature travel
PRIO_OFF
G0 X-9.82651 Y-11.8645 Z0.24 ;Travel to start
; ; feature fill
PRIO_ON
G1 X11.86450 Y-3.9696 E2499.32509 ; EInc=45.26096 cartesianDistance=23.08309 angle=0.000 pulseDistance=0.51000; EInc=45.26095999999961
; feature travel
PRIO_OFF
G0 X11.86450 Y-4.4485  ;Travel to end
; Adjusted extrusion move
; feature travel
PRIO_OFF
G0 X11.86450 Y-4.4485 Z0.24 ;Travel to start
; ; feature fill
PRIO_ON
G1 X-8.51080 Y-11.8645 E2541.84066 ; EInc=42.51557 cartesianDistance=21.68294 angle=0.000 pulseDistance=0.51000; EInc=42.515570000000025
; feature travel
PRIO_OFF
G0 X-7.19509 Y-11.8645  ;Travel to end
; Adjusted extrusion move
; feature travel
PRIO_OFF
G0 X-7.19509 Y-11.8645 Z0.24 ;Travel to start
; ; feature fill
PRIO_ON
G1 X11.86450 Y-4.9274 E2581.61083 ; EInc=39.77017 cartesianDistance=20.28279 angle=0.000 pulseDistance=0.51000; EInc=39.770170000000235
; feature travel
PRIO_OFF
G0 X11.86450 Y-5.4063  ;Travel to end
; Adjusted extrusion move
; feature travel
PRIO_OFF
G0 X11.86450 Y-5.4063 Z0.24 ;Travel to start
; ; feature fill
PRIO_ON
G1 X-5.87937 Y-11.8645 E2618.63561 ; EInc=37.02478 cartesianDistance=18.88264 angle=0.000 pulseDistance=0.51000; EInc=37.02477999999974
; feature travel
PRIO_OFF
G0 X-4.56366 Y-11.8645  ;Travel to end
; Adjusted extrusion move
; feature travel
PRIO_OFF
G0 X-4.56366 Y-11.8645 Z0.24 ;Travel to start
; ; feature fill
PRIO_ON
G1 X11.86450 Y-5.8851 E2652.91499 ; EInc=34.27938 cartesianDistance=17.48248 angle=0.000 pulseDistance=0.51000; EInc=34.2793800000004
; feature travel
PRIO_OFF
G0 X11.86450 Y-6.3640  ;Travel to end
; Adjusted extrusion move
; feature travel
PRIO_OFF
G0 X11.86450 Y-6.3640 Z0.24 ;Travel to start
; ; feature fill
PRIO_ON
G1 X-3.24795 Y-11.8645 E2684.44897 ; EInc=31.53399 cartesianDistance=16.08233 angle=0.000 pulseDistance=0.51000; EInc=31.5339799999997
; feature travel
PRIO_OFF
G0 X-1.93224 Y-11.8645  ;Travel to end
; Adjusted extrusion move
; feature travel
PRIO_OFF
G0 X-1.93224 Y-11.8645 Z0.24 ;Travel to start
; ; feature fill
PRIO_ON
G1 X11.86450 Y-6.8429 E2713.23757 ; EInc=28.78859 cartesianDistance=14.68218 angle=0.000 pulseDistance=0.51000; EInc=28.78859999999986
; feature travel
PRIO_OFF
G0 X11.86450 Y-7.3218  ;Travel to end
; Adjusted extrusion move
; feature travel
PRIO_OFF
G0 X11.86450 Y-7.3218 Z0.24 ;Travel to start
; ; feature fill
PRIO_ON
G1 X-0.61653 Y-11.8645 E2739.28076 ; EInc=26.04320 cartesianDistance=13.28203 angle=0.000 pulseDistance=0.51000; EInc=26.043190000000322
; feature travel
PRIO_OFF
G0 X0.69919 Y-11.8645  ;Travel to end
; Adjusted extrusion move
; feature travel
PRIO_OFF
G0 X0.69919 Y-11.8645 Z0.24 ;Travel to start
; ; feature fill
PRIO_ON
G1 X11.86450 Y-7.8007 E2762.57856 ; EInc=23.29780 cartesianDistance=11.88188 angle=0.000 pulseDistance=0.51000; EInc=23.297799999999825
; feature travel
PRIO_OFF
G0 X11.86450 Y-8.2795  ;Travel to end
; Adjusted extrusion move
; feature travel
PRIO_OFF
G0 X11.86450 Y-8.2795 Z0.24 ;Travel to start
; ; feature fill
PRIO_ON
G1 X2.01490 Y-11.8645 E2783.13097 ; EInc=20.55241 cartesianDistance=10.48173 angle=0.000 pulseDistance=0.51000; EInc=20.552410000000236
; feature travel
PRIO_OFF
G0 X3.33061 Y-11.8645  ;Travel to end
; Adjusted extrusion move
; feature travel
PRIO_OFF
G0 X3.33061 Y-11.8645 Z0.24 ;Travel to start
; ; feature fill
PRIO_ON
G1 X11.86450 Y-8.7584 E2800.93798 ; EInc=17.80701 cartesianDistance=9.08158 angle=0.000 pulseDistance=0.51000; EInc=17.80700999999999
; feature travel
PRIO_OFF
G0 X11.86450 Y-9.2373  ;Travel to end
; Adjusted extrusion move
; feature travel
PRIO_OFF
G0 X11.86450 Y-9.2373 Z0.24 ;Travel to start
; ; feature fill
PRIO_ON
G1 X4.64632 Y-11.8645 E2815.99960 ; EInc=15.06162 cartesianDistance=7.68142 angle=0.000 pulseDistance=0.51000; EInc=15.061619999999948
; feature travel
PRIO_OFF
G0 X5.96203 Y-11.8645  ;Travel to end
; Adjusted extrusion move
; feature travel
PRIO_OFF
G0 X5.96203 Y-11.8645 Z0.24 ;Travel to start
; ; feature fill
PRIO_ON
G1 X11.86450 Y-9.7162 E2828.31582 ; EInc=12.31622 cartesianDistance=6.28127 angle=0.000 pulseDistance=0.51000; EInc=12.316219999999703
; feature travel
PRIO_OFF
G0 X11.86450 Y-10.1951  ;Travel to end
; Adjusted extrusion move
; feature travel
PRIO_OFF
G0 X11.86450 Y-10.1951 Z0.24 ;Travel to start
; ; feature fill
PRIO_ON
G1 X7.27775 Y-11.8645 E2837.88664 ; EInc=9.57083 cartesianDistance=4.88112 angle=0.000 pulseDistance=0.51000; EInc=9.570820000000367
; feature travel
PRIO_OFF
G0 X8.59346 Y-11.8645  ;Travel to end
; Adjusted extrusion move
; feature travel
PRIO_OFF
G0 X8.59346 Y-11.8645 Z0.24 ;Travel to start
; ; feature fill
PRIO_ON
G1 X11.86450 Y-10.6739 E2844.71208 ; EInc=6.82543 cartesianDistance=3.48097 angle=0.000 pulseDistance=0.51000; EInc=6.825439999999617
; feature travel
PRIO_OFF
G0 X11.86450 Y-11.1528  ;Travel to end
; Adjusted extrusion move
; feature travel
PRIO_OFF
G0 X11.86450 Y-11.1528 Z0.24 ;Travel to start
; ; feature fill
PRIO_ON
G1 X9.90917 Y-11.8645 E2848.79211 ; EInc=4.08004 cartesianDistance=2.08082 angle=0.000 pulseDistance=0.51000; EInc=4.080030000000079
; feature travel
PRIO_OFF
G0 X11.22488 Y-11.8645  ;Travel to end
; Adjusted extrusion move
; feature travel
PRIO_OFF
G0 X11.22488 Y-11.8645 Z0.24 ;Travel to start
; ; feature fill
PRIO_ON
G1 X11.86450 Y-11.6317 E2850.12675 ; EInc=1.33464 cartesianDistance=0.68067 angle=0.000 pulseDistance=0.51000; EInc=1.3346400000000358
; feature travel
PRIO_OFF
G0 X-9.10150 Y11.8645  ;Travel to end
; Adjusted extrusion move
; feature travel
PRIO_OFF
G0 X-9.10150 Y11.8645 Z0.24 ;Travel to start
; ; feature fill
PRIO_ON
G1 X-11.86450 Y10.8589 E2855.89208 ; EInc=5.76533 cartesianDistance=2.94032 angle=0.000 pulseDistance=0.51000; EInc=5.765330000000176
; feature travel
PRIO_OFF
G0 X-11.86450 Y11.3377  ;Travel to end
; Adjusted extrusion move
; feature travel
PRIO_OFF
G0 X-11.86450 Y11.3377 Z0.24 ;Travel to start
; ; feature fill
PRIO_ON
G1 X-10.41722 Y11.8645 E2858.91202 ; EInc=3.01993 cartesianDistance=1.54017 angle=0.000 pulseDistance=0.51000; EInc=3.0199400000001333
; feature travel
PRIO_OFF
G0 X-11.73293 Y11.8645  ;Travel to end
; Adjusted extrusion move
; feature travel
PRIO_OFF
G0 X-11.73293 Y11.8645 Z0.24 ;Travel to start
; ; feature fill
PRIO_ON
G1 X-11.86450 Y11.8166 E2859.18656 ; EInc=0.27454 cartesianDistance=0.14002 angle=0.000 pulseDistance=0.51000; EInc=0.2745399999998881
; End queued infill moves
PRIO_OFF
LayersCompleted=1
M1
; 
;========================
; layer 1, Z = 0.4800
; 
; reset extrusion
STOPRE
PRESETON(E, 0)
DO PRIO_PULSE_DISTANCE=DROP_SCALE
DO PRIO_ON_PATH_OFFSET=0.5*PRIO_PULSE_DISTANCE
;outer: (12.6302,-12.6302) (12.6302,12.6302) (-12.6302,12.6302) (-12.6302,-12.6302) (-11.7302,-12.6302) holes: !
;overhangs:!
; 
; feature plane change
G0 X-11.8645 Y11.81661 Z0.48 ; cartesianDistance=0.00000 (Plane Change)
; 
; feature travel
; queued 1 travel movement
; Start 1 queued infill moves
; feature travel
PRIO_OFF
G0 X12.21520 Y-1.0301  ;Travel to end
; End queued infill moves
; feature inner perimeter
G1 F24000 FL[E] = OuterPerimeterFrequency * DROP_SCALE * 60
PRIO_ON
G1 X12.2152 Y-12.2152 E26.31797 ; EInc=26.31797 cartesianDistance=11.18514 angle=90.000 pulseDistance=0.42500
G1 X-12.2152 Y-12.2152 E83.80127 ; EInc=57.48329 cartesianDistance=24.43040 angle=90.000 pulseDistance=0.42500
G1 X-12.2152 Y12.2152 E141.28456 ; EInc=57.48329 cartesianDistance=24.43040 angle=90.000 pulseDistance=0.42500
G1 X12.2152 Y12.2152 E198.76786 ; EInc=57.48329 cartesianDistance=24.43040 angle=90.000 pulseDistance=0.42500
G1 X12.2152 Y-1.03006 E229.93318 ; EInc=31.16532 cartesianDistance=13.24526 angle=180.000 pulseDistance=0.42500
; 
; feature travel
; queued 1 travel movement
; Start 1 queued infill moves
; feature travel
PRIO_OFF
G0 X11.86420 Y-1.0301  ;Travel to end
; End queued infill moves
; feature inner perimeter
G1 F24000 FL[E] = InnerPerimeterFrequency * DROP_SCALE * 60
PRIO_ON
G1 X11.8642 Y11.8642 E253.81144 ; EInc=23.87826 cartesianDistance=12.89426 angle=90.000 pulseDistance=0.54000
G1 X-11.8642 Y11.8642 E297.75292 ; EInc=43.94148 cartesianDistance=23.72840 angle=90.000 pulseDistance=0.54000
G1 X-11.8642 Y-11.8642 E341.6944 ; EInc=43.94148 cartesianDistance=23.72840 angle=90.000 pulseDistance=0.54000
G1 X11.8642 Y-11.8642 E385.63588 ; EInc=43.94148 cartesianDistance=23.72840 angle=90.000 pulseDistance=0.54000
G1 X11.8642 Y-1.03006 E405.6991 ; EInc=20.06322 cartesianDistance=10.83414 angle=180.000 pulseDistance=0.54000
; 
; feature travel
; queued 1 travel movement
; feature fill
; queued 1 infill movement
; feature travel
; queued 1 travel movement
; feature fill
; queued 1 infill movement
; feature travel
; queued 1 travel movement
; feature fill
; queued 1 infill movement
; feature travel
; queued 1 travel movement
; feature fill
; queued 1 infill movement
; feature travel
; queued 1 travel movement
; feature fill
; queued 1 infill movement
; feature travel
; queued 1 travel movement
; feature fill
; queued 1 infill movement
; feature travel
; queued 1 travel movement
; feature fill
; queued 1 infill movement
; feature travel
; queued 1 travel movement
; feature fill
; queued 1 infill movement
; feature travel
; queued 1 travel movement
; feature fill
; queued 1 infill movement
; feature travel
; queued 1 travel movement
; feature fill
; queued 1 infill movement
; feature travel
; queued 1 travel movement
; feature fill
; queued 1 infill movement
; feature travel
; queued 1 travel movement
; feature fill
; queued 1 infill movement
; feature travel
; queued 1 travel movement
; feature fill
; queued 1 infill movement
; feature travel
; queued 1 travel movement
; feature fill
; queued 1 infill movement
; feature travel
; queued 1 travel movement
; feature fill
; queued 1 infill movement
; feature travel
; queued 1 travel movement
; feature fill
; queued 1 infill movement
; feature travel
; queued 1 travel movement
; feature fill
; queued 1 infill movement
; feature travel
; queued 1 travel movement
; feature fill
; queued 1 infill movement
; feature travel
; queued 1 travel movement
; feature fill
; queued 1 infill movement
; feature travel
; queued 1 travel movement
; feature fill
; queued 1 infill movement
; feature travel
; queued 1 travel movement
; feature fill
; queued 1 infill movement
; feature travel
; queued 1 travel movement
; feature fill
; queued 1 infill movement
; feature travel
; queued 1 travel movement
; feature fill
; queued 1 infill movement
; feature travel
; queued 1 travel movement
; feature fill
; queued 1 infill movement
; feature travel
; queued 1 travel movement
; feature fill
; queued 1 infill movement
; feature travel
; queued 1 travel movement
; feature fill
; queued 1 infill movement
; feature travel
; queued 1 travel movement
; feature fill
; queued 1 infill movement
; feature travel
; queued 1 travel movement
; feature fill
; queued 1 infill movement
; feature travel
; queued 1 travel movement
; feature fill
; queued 1 infill movement
; feature travel
; queued 1 travel movement
; feature fill
; queued 1 infill movement
; feature travel
; queued 1 travel movement
; feature fill
; queued 1 infill movement
; feature travel
; queued 1 travel movement
; feature fill
; queued 1 infill movement
; feature travel
; queued 1 travel movement
; feature fill
; queued 1 infill movement
; feature travel
; queued 1 travel movement
; feature fill
; queued 1 infill movement
; feature travel
; queued 1 travel movement
; feature fill
; queued 1 infill movement
; feature travel
; queued 1 travel movement
; feature fill
; queued 1 infill movement
; feature travel
; queued 1 travel movement
; feature fill
; queued 1 infill movement
; feature travel
; queued 1 travel movement
; feature fill
; queued 1 infill movement
; feature travel
; queued 1 travel movement
; feature fill
; queued 1 infill movement
; feature travel
; queued 1 travel movement
; feature fill
; queued 1 infill movement
; feature travel
; queued 1 travel movement
; feature fill
; queued 1 infill movement
; feature travel
; queued 1 travel movement
; feature fill
; queued 1 infill movement
; feature travel
; queued 1 travel movement
; feature fill
; queued 1 infill movement
; feature travel
; queued 1 travel movement
; feature fill
; queued 1 infill movement
; feature travel
; queued 1 travel movement
; feature fill
; queued 1 infill movement
; feature travel
; queued 1 travel movement
; feature fill
; queued 1 infill movement
; feature travel
; queued 1 travel movement
; feature fill
; queued 1 infill movement
; feature travel
; queued 1 travel movement
; feature fill
; queued 1 infill movement
; feature travel
; queued 1 travel movement
; feature fill
; queued 1 infill movement
; feature travel
; queued 1 travel movement
; feature fill
; queued 1 infill movement
; feature travel
; queued 1 travel movement
; feature fill
; queued 1 infill movement
; feature travel
; queued 1 travel movement
; feature fill
; queued 1 infill movement
; feature travel
; queued 1 travel movement
; feature fill
; queued 1 infill movement
; feature travel
; queued 1 travel movement
; feature fill
; queued 1 infill movement
; feature travel
; queued 1 travel movement
; feature fill
; queued 1 infill movement
; feature travel
; queued 1 travel movement
; feature fill
; queued 1 infill movement
; feature travel
; queued 1 travel movement
; feature fill
; queued 1 infill movement
; feature travel
; queued 1 travel movement
; feature fill
; queued 1 infill movement
; feature travel
; queued 1 travel movement
; feature fill
; queued 1 infill movement
; feature travel
; queued 1 travel movement
; feature fill
; queued 1 infill movement
; feature travel
; queued 1 travel movement
; feature fill
; queued 1 infill movement
; feature travel
; queued 1 travel movement
; feature fill
; queued 1 infill movement
; feature travel
; queued 1 travel movement
; feature fill
; queued 1 infill movement
; feature travel
; queued 1 travel movement
; feature fill
; queued 1 infill movement
; feature travel
; queued 1 travel movement
; feature fill
; queued 1 infill movement
; feature travel
; queued 1 travel movement
; feature fill
; queued 1 infill movement
; feature travel
; queued 1 travel movement
; feature fill
; queued 1 infill movement
; feature travel
; queued 1 travel movement
; feature fill
; queued 1 infill movement
; feature travel
; queued 1 travel movement
; feature fill
; queued 1 infill movement
; feature travel
; queued 1 travel movement
; feature fill
; queued 1 infill movement
; Start 140 queued infill moves
; feature travel
PRIO_OFF
G0 X11.86450 Y-1.2424  ;Travel to end
; Adjusted extrusion move
; feature travel
PRIO_OFF
G0 X11.86450 Y-1.2424 Z0.48 ;Travel to start
; ; feature fill
PRIO_ON
G1 X6.91134 Y-11.8645 E428.67983 ; EInc=22.98073 cartesianDistance=11.72017 angle=0.000 pulseDistance=0.51000; EInc=22.980729999999994
; feature travel
PRIO_OFF
G0 X7.40786 Y-11.8645  ;Travel to end
; Adjusted extrusion move
; feature travel
PRIO_OFF
G0 X7.40786 Y-11.8645 Z0.48 ;Travel to start
; ; feature fill
PRIO_ON
G1 X11.86450 Y-2.3072 E449.35690 ; EInc=20.67707 cartesianDistance=10.54531 angle=0.000 pulseDistance=0.51000; EInc=20.677070000000015
; feature travel
PRIO_OFF
G0 X11.86450 Y-3.3720  ;Travel to end
; Adjusted extrusion move
; feature travel
PRIO_OFF
G0 X11.86450 Y-3.3720 Z0.48 ;Travel to start
; ; feature fill
PRIO_ON
G1 X7.90438 Y-11.8645 E467.73031 ; EInc=18.37341 cartesianDistance=9.37044 angle=0.000 pulseDistance=0.51000; EInc=18.37340999999998
; feature travel
PRIO_OFF
G0 X8.40090 Y-11.8645  ;Travel to end
; Adjusted extrusion move
; feature travel
PRIO_OFF
G0 X8.40090 Y-11.8645 Z0.48 ;Travel to start
; ; feature fill
PRIO_ON
G1 X11.86450 Y-4.4368 E483.80006 ; EInc=16.06975 cartesianDistance=8.19557 angle=0.000 pulseDistance=0.51000; EInc=16.06975
; feature travel
PRIO_OFF
G0 X11.86450 Y-5.5016  ;Travel to end
; Adjusted extrusion move
; feature travel
PRIO_OFF
G0 X11.86450 Y-5.5016 Z0.48 ;Travel to start
; ; feature fill
PRIO_ON
G1 X8.89742 Y-11.8645 E497.56615 ; EInc=13.76609 cartesianDistance=7.02071 angle=0.000 pulseDistance=0.51000; EInc=13.76609000000002
; feature travel
PRIO_OFF
G0 X9.39394 Y-11.8645  ;Travel to end
; Adjusted extrusion move
; feature travel
PRIO_OFF
G0 X9.39394 Y-11.8645 Z0.48 ;Travel to start
; ; feature fill
PRIO_ON
G1 X11.86450 Y-6.5664 E509.02858 ; EInc=11.46243 cartesianDistance=5.84584 angle=0.000 pulseDistance=0.51000; EInc=11.462429999999983
; feature travel
PRIO_OFF
G0 X11.86450 Y-7.6312  ;Travel to end
; Adjusted extrusion move
; feature travel
PRIO_OFF
G0 X11.86450 Y-7.6312 Z0.48 ;Travel to start
; ; feature fill
PRIO_ON
G1 X9.89046 Y-11.8645 E518.18735 ; EInc=9.15877 cartesianDistance=4.67097 angle=0.000 pulseDistance=0.51000; EInc=9.158770000000061
; feature travel
PRIO_OFF
G0 X10.38698 Y-11.8645  ;Travel to end
; Adjusted extrusion move
; feature travel
PRIO_OFF
G0 X10.38698 Y-11.8645 Z0.48 ;Travel to start
; ; feature fill
PRIO_ON
G1 X11.86450 Y-8.6959 E525.04246 ; EInc=6.85511 cartesianDistance=3.49611 angle=0.000 pulseDistance=0.51000; EInc=6.855109999999968
; feature travel
PRIO_OFF
G0 X11.86450 Y-9.7607  ;Travel to end
; Adjusted extrusion move
; feature travel
PRIO_OFF
G0 X11.86450 Y-9.7607 Z0.48 ;Travel to start
; ; feature fill
PRIO_ON
G1 X10.88350 Y-11.8645 E529.59391 ; EInc=4.55145 cartesianDistance=2.32124 angle=0.000 pulseDistance=0.51000; EInc=4.551450000000045
; feature travel
PRIO_OFF
G0 X11.38002 Y-11.8645  ;Travel to end
; Adjusted extrusion move
; feature travel
PRIO_OFF
G0 X11.38002 Y-11.8645 Z0.48 ;Travel to start
; ; feature fill
PRIO_ON
G1 X11.86450 Y-10.8255 E531.84169 ; EInc=2.24779 cartesianDistance=1.14637 angle=0.000 pulseDistance=0.51000; EInc=2.2477799999999206
; feature travel
PRIO_OFF
G0 X6.41482 Y-11.8645  ;Travel to end
; Adjusted extrusion move
; feature travel
PRIO_OFF
G0 X6.41482 Y-11.8645 Z0.48 ;Travel to start
; ; feature fill
PRIO_ON
G1 X11.86450 Y-0.1776 E557.12608 ; EInc=25.28439 cartesianDistance=12.89504 angle=0.000 pulseDistance=0.51000; EInc=25.28439000000003
; feature travel
PRIO_OFF
G0 X11.86450 Y0.8872  ;Travel to end
; Adjusted extrusion move
; feature travel
PRIO_OFF
G0 X11.86450 Y0.8872 Z0.48 ;Travel to start
; ; feature fill
PRIO_ON
G1 X5.91830 Y-11.8645 E584.71413 ; EInc=27.58805 cartesianDistance=14.06990 angle=0.000 pulseDistance=0.51000; EInc=27.588049999999953
; feature travel
PRIO_OFF
G0 X5.42178 Y-11.8645  ;Travel to end
; Adjusted extrusion move
; feature travel
PRIO_OFF
G0 X5.42178 Y-11.8645 Z0.48 ;Travel to start
; ; feature fill
PRIO_ON
G1 X11.86450 Y1.9520 E614.60584 ; EInc=29.89171 cartesianDistance=15.24477 angle=0.000 pulseDistance=0.51000; EInc=29.89170999999999
; feature travel
PRIO_OFF
G0 X11.86450 Y3.0168  ;Travel to end
; Adjusted extrusion move
; feature travel
PRIO_OFF
G0 X11.86450 Y3.0168 Z0.48 ;Travel to start
; ; feature fill
PRIO_ON
G1 X4.92526 Y-11.8645 E646.80121 ; EInc=32.19537 cartesianDistance=16.41964 angle=0.000 pulseDistance=0.51000; EInc=32.195370000000025
; feature travel
PRIO_OFF
G0 X4.42874 Y-11.8645  ;Travel to end
; Adjusted extrusion move
; feature travel
PRIO_OFF
G0 X4.42874 Y-11.8645 Z0.48 ;Travel to start
; ; feature fill
PRIO_ON
G1 X11.86450 Y4.0815 E681.30024 ; EInc=34.49903 cartesianDistance=17.59450 angle=0.000 pulseDistance=0.51000; EInc=34.49903000000006
; feature travel
PRIO_OFF
G0 X11.86450 Y5.1463  ;Travel to end
; Adjusted extrusion move
; feature travel
PRIO_OFF
G0 X11.86450 Y5.1463 Z0.48 ;Travel to start
; ; feature fill
PRIO_ON
G1 X3.93222 Y-11.8645 E718.10293 ; EInc=36.80269 cartesianDistance=18.76937 angle=0.000 pulseDistance=0.51000; EInc=36.802689999999984
; feature travel
PRIO_OFF
G0 X3.43570 Y-11.8645  ;Travel to end
; Adjusted extrusion move
; feature travel
PRIO_OFF
G0 X3.43570 Y-11.8645 Z0.48 ;Travel to start
; ; feature fill
PRIO_ON
G1 X11.86450 Y6.2111 E757.20927 ; EInc=39.10635 cartesianDistance=19.94424 angle=0.000 pulseDistance=0.51000; EInc=39.10633999999993
; feature travel
PRIO_OFF
G0 X11.86450 Y7.2759  ;Travel to end
; Adjusted extrusion move
; feature travel
PRIO_OFF
G0 X11.86450 Y7.2759 Z0.48 ;Travel to start
; ; feature fill
PRIO_ON
G1 X2.93918 Y-11.8645 E798.61928 ; EInc=41.41001 cartesianDistance=21.11910 angle=0.000 pulseDistance=0.51000; EInc=41.41001000000006
; feature travel
PRIO_OFF
G0 X2.44266 Y-11.8645  ;Travel to end
; Adjusted extrusion move
; feature travel
PRIO_OFF
G0 X2.44266 Y-11.8645 Z0.48 ;Travel to start
; ; feature fill
PRIO_ON
G1 X11.86450 Y8.3407 E842.33295 ; EInc=43.71367 cartesianDistance=22.29397 angle=0.000 pulseDistance=0.51000; EInc=43.71366999999998
; feature travel
PRIO_OFF
G0 X11.86450 Y9.4055  ;Travel to end
; Adjusted extrusion move
; feature travel
PRIO_OFF
G0 X11.86450 Y9.4055 Z0.48 ;Travel to start
; ; feature fill
PRIO_ON
G1 X1.94614 Y-11.8645 E888.35028 ; EInc=46.01733 cartesianDistance=23.46884 angle=0.000 pulseDistance=0.51000; EInc=46.017330000000015
; feature travel
PRIO_OFF
G0 X1.44962 Y-11.8645  ;Travel to end
; Adjusted extrusion move
; feature travel
PRIO_OFF
G0 X1.44962 Y-11.8645 Z0.48 ;Travel to start
; ; feature fill
PRIO_ON
G1 X11.86450 Y10.4703 E936.67127 ; EInc=48.32099 cartesianDistance=24.64370 angle=0.000 pulseDistance=0.51000; EInc=48.32099000000005
; feature travel
PRIO_OFF
G0 X11.86450 Y11.5351  ;Travel to end
; Adjusted extrusion move
; feature travel
PRIO_OFF
G0 X11.86450 Y11.5351 Z0.48 ;Travel to start
; ; feature fill
PRIO_ON
G1 X0.95310 Y-11.8645 E987.29592 ; EInc=50.62465 cartesianDistance=25.81857 angle=0.000 pulseDistance=0.51000; EInc=50.624649999999974
; feature travel
PRIO_OFF
G0 X0.45658 Y-11.8645  ;Travel to end
; Adjusted extrusion move
; feature travel
PRIO_OFF
G0 X0.45658 Y-11.8645 Z0.48 ;Travel to start
; ; feature fill
PRIO_ON
G1 X11.52159 Y11.8645 E1038.63328 ; EInc=51.33736 cartesianDistance=26.18205 angle=0.000 pulseDistance=0.51000; EInc=51.33735999999999
; feature travel
PRIO_OFF
G0 X11.02507 Y11.8645  ;Travel to end
; Adjusted extrusion move
; feature travel
PRIO_OFF
G0 X11.02507 Y11.8645 Z0.48 ;Travel to start
; ; feature fill
PRIO_ON
G1 X-0.03994 Y-11.8645 E1089.97064 ; EInc=51.33736 cartesianDistance=26.18205 angle=0.000 pulseDistance=0.51000; EInc=51.33735999999999
; feature travel
PRIO_OFF
G0 X-0.53646 Y-11.8645  ;Travel to end
; Adjusted extrusion move
; feature travel
PRIO_OFF
G0 X-0.53646 Y-11.8645 Z0.48 ;Travel to start
; ; feature fill
PRIO_ON
G1 X10.52855 Y11.8645 E1141.30800 ; EInc=51.33736 cartesianDistance=26.18205 angle=0.000 pulseDistance=0.51000; EInc=51.33735999999999
; feature travel
PRIO_OFF
G0 X10.03203 Y11.8645  ;Travel to end
; Adjusted extrusion move
; feature travel
PRIO_OFF
G0 X10.03203 Y11.8645 Z0.48 ;Travel to start
; ; feature fill
PRIO_ON
G1 X-1.03298 Y-11.8645 E1192.64536 ; EInc=51.33736 cartesianDistance=26.18205 angle=0.000 pulseDistance=0.51000; EInc=51.33735999999999
; feature travel
PRIO_OFF
G0 X-1.52950 Y-11.8645  ;Travel to end
; Adjusted extrusion move
; feature travel
PRIO_OFF
G0 X-1.52950 Y-11.8645 Z0.48 ;Travel to start
; ; feature fill
PRIO_ON
G1 X9.53551 Y11.8645 E1243.98273 ; EInc=51.33736 cartesianDistance=26.18205 angle=0.000 pulseDistance=0.51000; EInc=51.337369999999964
; feature travel
PRIO_OFF
G0 X9.03899 Y11.8645  ;Travel to end
; Adjusted extrusion move
; feature travel
PRIO_OFF
G0 X9.03899 Y11.8645 Z0.48 ;Travel to start
; ; feature fill
PRIO_ON
G1 X-2.02602 Y-11.8645 E1295.32009 ; EInc=51.33736 cartesianDistance=26.18205 angle=0.000 pulseDistance=0.51000; EInc=51.33735999999999
; feature travel
PRIO_OFF
G0 X-2.52254 Y-11.8645  ;Travel to end
; Adjusted extrusion move
; feature travel
PRIO_OFF
G0 X-2.52254 Y-11.8645 Z0.48 ;Travel to start
; ; feature fill
PRIO_ON
G1 X8.54247 Y11.8645 E1346.65745 ; EInc=51.33736 cartesianDistance=26.18205 angle=0.000 pulseDistance=0.51000; EInc=51.33735999999999
; feature travel
PRIO_OFF
G0 X8.04595 Y11.8645  ;Travel to end
; Adjusted extrusion move
; feature travel
PRIO_OFF
G0 X8.04595 Y11.8645 Z0.48 ;Travel to start
; ; feature fill
PRIO_ON
G1 X-3.01906 Y-11.8645 E1397.99481 ; EInc=51.33736 cartesianDistance=26.18205 angle=0.000 pulseDistance=0.51000; EInc=51.33735999999999
; feature travel
PRIO_OFF
G0 X-3.51558 Y-11.8645  ;Travel to end
; Adjusted extrusion move
; feature travel
PRIO_OFF
G0 X-3.51558 Y-11.8645 Z0.48 ;Travel to start
; ; feature fill
PRIO_ON
G1 X7.54943 Y11.8645 E1449.33217 ; EInc=51.33736 cartesianDistance=26.18205 angle=0.000 pulseDistance=0.51000; EInc=51.33735999999999
; feature travel
PRIO_OFF
G0 X7.05291 Y11.8645  ;Travel to end
; Adjusted extrusion move
; feature travel
PRIO_OFF
G0 X7.05291 Y11.8645 Z0.48 ;Travel to start
; ; feature fill
PRIO_ON
G1 X-4.01210 Y-11.8645 E1500.66954 ; EInc=51.33736 cartesianDistance=26.18205 angle=0.000 pulseDistance=0.51000; EInc=51.33737000000019
; feature travel
PRIO_OFF
G0 X-4.50862 Y-11.8645  ;Travel to end
; Adjusted extrusion move
; feature travel
PRIO_OFF
G0 X-4.50862 Y-11.8645 Z0.48 ;Travel to start
; ; feature fill
PRIO_ON
G1 X6.55639 Y11.8645 E1552.00690 ; EInc=51.33736 cartesianDistance=26.18205 angle=0.000 pulseDistance=0.51000; EInc=51.33735999999999
; feature travel
PRIO_OFF
G0 X6.05987 Y11.8645  ;Travel to end
; Adjusted extrusion move
; feature travel
PRIO_OFF
G0 X6.05987 Y11.8645 Z0.48 ;Travel to start
; ; feature fill
PRIO_ON
G1 X-5.00514 Y-11.8645 E1603.34426 ; EInc=51.33736 cartesianDistance=26.18205 angle=0.000 pulseDistance=0.51000; EInc=51.33735999999999
; feature travel
PRIO_OFF
G0 X-5.50166 Y-11.8645  ;Travel to end
; Adjusted extrusion move
; feature travel
PRIO_OFF
G0 X-5.50166 Y-11.8645 Z0.48 ;Travel to start
; ; feature fill
PRIO_ON
G1 X5.56335 Y11.8645 E1654.68162 ; EInc=51.33736 cartesianDistance=26.18205 angle=0.000 pulseDistance=0.51000; EInc=51.33735999999999
; feature travel
PRIO_OFF
G0 X5.06683 Y11.8645  ;Travel to end
; Adjusted extrusion move
; feature travel
PRIO_OFF
G0 X5.06683 Y11.8645 Z0.48 ;Travel to start
; ; feature fill
PRIO_ON
G1 X-5.99818 Y-11.8645 E1706.01898 ; EInc=51.33736 cartesianDistance=26.18205 angle=0.000 pulseDistance=0.51000; EInc=51.33735999999999
; feature travel
PRIO_OFF
G0 X-6.49470 Y-11.8645  ;Travel to end
; Adjusted extrusion move
; feature travel
PRIO_OFF
G0 X-6.49470 Y-11.8645 Z0.48 ;Travel to start
; ; feature fill
PRIO_ON
G1 X4.57031 Y11.8645 E1757.35635 ; EInc=51.33736 cartesianDistance=26.18205 angle=0.000 pulseDistance=0.51000; EInc=51.337369999999964
; feature travel
PRIO_OFF
G0 X4.07379 Y11.8645  ;Travel to end
; Adjusted extrusion move
; feature travel
PRIO_OFF
G0 X4.07379 Y11.8645 Z0.48 ;Travel to start
; ; feature fill
PRIO_ON
G1 X-6.99122 Y-11.8645 E1808.69371 ; EInc=51.33736 cartesianDistance=26.18205 angle=0.000 pulseDistance=0.51000; EInc=51.33735999999999
; feature travel
PRIO_OFF
G0 X-7.48774 Y-11.8645  ;Travel to end
; Adjusted extrusion move
; feature travel
PRIO_OFF
G0 X-7.48774 Y-11.8645 Z0.48 ;Travel to start
; ; feature fill
PRIO_ON
G1 X3.57727 Y11.8645 E1860.03107 ; EInc=51.33736 cartesianDistance=26.18205 angle=0.000 pulseDistance=0.51000; EInc=51.33735999999999
; feature travel
PRIO_OFF
G0 X3.08075 Y11.8645  ;Travel to end
; Adjusted extrusion move
; feature travel
PRIO_OFF
G0 X3.08075 Y11.8645 Z0.48 ;Travel to start
; ; feature fill
PRIO_ON
G1 X-7.98426 Y-11.8645 E1911.36843 ; EInc=51.33736 cartesianDistance=26.18205 angle=0.000 pulseDistance=0.51000; EInc=51.33735999999999
; feature travel
PRIO_OFF
G0 X-8.48078 Y-11.8645  ;Travel to end
; Adjusted extrusion move
; feature travel
PRIO_OFF
G0 X-8.48078 Y-11.8645 Z0.48 ;Travel to start
; ; feature fill
PRIO_ON
G1 X2.58423 Y11.8645 E1962.70579 ; EInc=51.33736 cartesianDistance=26.18205 angle=0.000 pulseDistance=0.51000; EInc=51.33735999999999
; feature travel
PRIO_OFF
G0 X2.08771 Y11.8645  ;Travel to end
; Adjusted extrusion move
; feature travel
PRIO_OFF
G0 X2.08771 Y11.8645 Z0.48 ;Travel to start
; ; feature fill
PRIO_ON
G1 X-8.97730 Y-11.8645 E2014.04316 ; EInc=51.33736 cartesianDistance=26.18205 angle=0.000 pulseDistance=0.51000; EInc=51.337369999999964
; feature travel
PRIO_OFF
G0 X-9.47382 Y-11.8645  ;Travel to end
; Adjusted extrusion move
; feature travel
PRIO_OFF
G0 X-9.47382 Y-11.8645 Z0.48 ;Travel to start
; ; feature fill
PRIO_ON
G1 X1.59119 Y11.8645 E2065.38052 ; EInc=51.33736 cartesianDistance=26.18205 angle=0.000 pulseDistance=0.51000; EInc=51.33736000000022
; feature travel
PRIO_OFF
G0 X1.09467 Y11.8645  ;Travel to end
; Adjusted extrusion move
; feature travel
PRIO_OFF
G0 X1.09467 Y11.8645 Z0.48 ;Travel to start
; ; feature fill
PRIO_ON
G1 X-9.97034 Y-11.8645 E2116.71788 ; EInc=51.33736 cartesianDistance=26.18205 angle=0.000 pulseDistance=0.51000; EInc=51.33735999999999
; feature travel
PRIO_OFF
G0 X-10.46686 Y-11.8645  ;Travel to end
; Adjusted extrusion move
; feature travel
PRIO_OFF
G0 X-10.46686 Y-11.8645 Z0.48 ;Travel to start
; ; feature fill
PRIO_ON
G1 X0.59815 Y11.8645 E2168.05524 ; EInc=51.33736 cartesianDistance=26.18205 angle=0.000 pulseDistance=0.51000; EInc=51.33735999999999
; feature travel
PRIO_OFF
G0 X0.10163 Y11.8645  ;Travel to end
; Adjusted extrusion move
; feature travel
PRIO_OFF
G0 X0.10163 Y11.8645 Z0.48 ;Travel to start
; ; feature fill
PRIO_ON
G1 X-10.96338 Y-11.8645 E2219.39260 ; EInc=51.33736 cartesianDistance=26.18205 angle=0.000 pulseDistance=0.51000; EInc=51.33735999999999
; feature travel
PRIO_OFF
G0 X-11.45990 Y-11.8645  ;Travel to end
; Adjusted extrusion move
; feature travel
PRIO_OFF
G0 X-11.45990 Y-11.8645 Z0.48 ;Travel to start
; ; feature fill
PRIO_ON
G1 X-0.39489 Y11.8645 E2270.72997 ; EInc=51.33736 cartesianDistance=26.18205 angle=0.000 pulseDistance=0.51000; EInc=51.33736999999974
; feature travel
PRIO_OFF
G0 X-0.89141 Y11.8645  ;Travel to end
; Adjusted extrusion move
; feature travel
PRIO_OFF
G0 X-0.89141 Y11.8645 Z0.48 ;Travel to start
; ; feature fill
PRIO_ON
G1 X-11.86450 Y-11.6674 E2321.64085 ; EInc=50.91088 cartesianDistance=25.96455 angle=0.000 pulseDistance=0.51000; EInc=50.910879999999906
; feature travel
PRIO_OFF
G0 X-11.86450 Y-10.6026  ;Travel to end
; Adjusted extrusion move
; feature travel
PRIO_OFF
G0 X-11.86450 Y-10.6026 Z0.48 ;Travel to start
; ; feature fill
PRIO_ON
G1 X-1.38793 Y11.8645 E2370.24807 ; EInc=48.60722 cartesianDistance=24.78968 angle=0.000 pulseDistance=0.51000; EInc=48.607220000000325
; feature travel
PRIO_OFF
G0 X-1.88445 Y11.8645  ;Travel to end
; Adjusted extrusion move
; feature travel
PRIO_OFF
G0 X-1.88445 Y11.8645 Z0.48 ;Travel to start
; ; feature fill
PRIO_ON
G1 X-11.86450 Y-9.5378 E2416.55164 ; EInc=46.30356 cartesianDistance=23.61482 angle=0.000 pulseDistance=0.51000; EInc=46.303570000000036
; feature travel
PRIO_OFF
G0 X-11.86450 Y-8.4730  ;Travel to end
; Adjusted extrusion move
; feature travel
PRIO_OFF
G0 X-11.86450 Y-8.4730 Z0.48 ;Travel to start
; ; feature fill
PRIO_ON
G1 X-2.38097 Y11.8645 E2460.55154 ; EInc=43.99990 cartesianDistance=22.43995 angle=0.000 pulseDistance=0.51000; EInc=43.9998999999998
; feature travel
PRIO_OFF
G0 X-2.87749 Y11.8645  ;Travel to end
; Adjusted extrusion move
; feature travel
PRIO_OFF
G0 X-2.87749 Y11.8645 Z0.48 ;Travel to start
; ; feature fill
PRIO_ON
G1 X-11.86450 Y-7.4082 E2502.24779 ; EInc=41.69624 cartesianDistance=21.26508 angle=0.000 pulseDistance=0.51000; EInc=41.696249999999964
; feature travel
PRIO_OFF
G0 X-11.86450 Y-6.3434  ;Travel to end
; Adjusted extrusion move
; feature travel
PRIO_OFF
G0 X-11.86450 Y-6.3434 Z0.48 ;Travel to start
; ; feature fill
PRIO_ON
G1 X-3.37401 Y11.8645 E2541.64037 ; EInc=39.39258 cartesianDistance=20.09022 angle=0.000 pulseDistance=0.51000; EInc=39.39258000000018
; feature travel
PRIO_OFF
G0 X-3.87053 Y11.8645  ;Travel to end
; Adjusted extrusion move
; feature travel
PRIO_OFF
G0 X-3.87053 Y11.8645 Z0.48 ;Travel to start
; ; feature fill
PRIO_ON
G1 X-11.86450 Y-5.2786 E2578.72930 ; EInc=37.08892 cartesianDistance=18.91535 angle=0.000 pulseDistance=0.51000; EInc=37.08892999999989
; feature travel
PRIO_OFF
G0 X-11.86450 Y-4.2138  ;Travel to end
; Adjusted extrusion move
; feature travel
PRIO_OFF
G0 X-11.86450 Y-4.2138 Z0.48 ;Travel to start
; ; feature fill
PRIO_ON
G1 X-4.36705 Y11.8645 E2613.51456 ; EInc=34.78526 cartesianDistance=17.74049 angle=0.000 pulseDistance=0.51000; EInc=34.78526000000011
; feature travel
PRIO_OFF
G0 X-4.86357 Y11.8645  ;Travel to end
; Adjusted extrusion move
; feature travel
PRIO_OFF
G0 X-4.86357 Y11.8645 Z0.48 ;Travel to start
; ; feature fill
PRIO_ON
G1 X-11.86450 Y-3.1490 E2645.99617 ; EInc=32.48160 cartesianDistance=16.56562 angle=0.000 pulseDistance=0.51000; EInc=32.48160999999982
; feature travel
PRIO_OFF
G0 X-11.86450 Y-2.0843  ;Travel to end
; Adjusted extrusion move
; feature travel
PRIO_OFF
G0 X-11.86450 Y-2.0843 Z0.48 ;Travel to start
; ; feature fill
PRIO_ON
G1 X-5.36009 Y11.8645 E2676.17411 ; EInc=30.17794 cartesianDistance=15.39075 angle=0.000 pulseDistance=0.51000; EInc=30.177940000000035
; feature travel
PRIO_OFF
G0 X-5.85661 Y11.8645  ;Travel to end
; Adjusted extrusion move
; feature travel
PRIO_OFF
G0 X-5.85661 Y11.8645 Z0.48 ;Travel to start
; ; feature fill
PRIO_ON
G1 X-11.86450 Y-1.0195 E2704.04840 ; EInc=27.87429 cartesianDistance=14.21589 angle=0.000 pulseDistance=0.51000; EInc=27.8742900000002
; feature travel
PRIO_OFF
G0 X-11.86450 Y0.0453  ;Travel to end
; Adjusted extrusion move
; feature travel
PRIO_OFF
G0 X-11.86450 Y0.0453 Z0.48 ;Travel to start
; ; feature fill
PRIO_ON
G1 X-6.35313 Y11.8645 E2729.61902 ; EInc=25.57063 cartesianDistance=13.04102 angle=0.000 pulseDistance=0.51000; EInc=25.570619999999963
; feature travel
PRIO_OFF
G0 X-6.84965 Y11.8645  ;Travel to end
; Adjusted extrusion move
; feature travel
PRIO_OFF
G0 X-6.84965 Y11.8645 Z0.48 ;Travel to start
; ; feature fill
PRIO_ON
G1 X-11.86450 Y1.1101 E2752.88599 ; EInc=23.26697 cartesianDistance=11.86615 angle=0.000 pulseDistance=0.51000; EInc=23.26697000000013
; feature travel
PRIO_OFF
G0 X-11.86450 Y2.1749  ;Travel to end
; Adjusted extrusion move
; feature travel
PRIO_OFF
G0 X-11.86450 Y2.1749 Z0.48 ;Travel to start
; ; feature fill
PRIO_ON
G1 X-7.34617 Y11.8645 E2773.84929 ; EInc=20.96331 cartesianDistance=10.69129 angle=0.000 pulseDistance=0.51000; EInc=20.96329999999989
; feature travel
PRIO_OFF
G0 X-7.84269 Y11.8645  ;Travel to end
; Adjusted extrusion move
; feature travel
PRIO_OFF
G0 X-7.84269 Y11.8645 Z0.48 ;Travel to start
; ; feature fill
PRIO_ON
G1 X-11.86450 Y3.2397 E2792.50894 ; EInc=18.65965 cartesianDistance=9.51642 angle=0.000 pulseDistance=0.51000; EInc=18.659650000000056
; feature travel
PRIO_OFF
G0 X-11.86450 Y4.3045  ;Travel to end
; Adjusted extrusion move
; feature travel
PRIO_OFF
G0 X-11.86450 Y4.3045 Z0.48 ;Travel to start
; ; feature fill
PRIO_ON
G1 X-8.33921 Y11.8645 E2808.86492 ; EInc=16.35599 cartesianDistance=8.34155 angle=0.000 pulseDistance=0.51000; EInc=16.355979999999818
; feature travel
PRIO_OFF
G0 X-8.83573 Y11.8645  ;Travel to end
; Adjusted extrusion move
; feature travel
PRIO_OFF
G0 X-8.83573 Y11.8645 Z0.48 ;Travel to start
; ; feature fill
PRIO_ON
G1 X-11.86450 Y5.3693 E2822.91725 ; EInc=14.05233 cartesianDistance=7.16669 angle=0.000 pulseDistance=0.51000; EInc=14.052329999999984
; feature travel
PRIO_OFF
G0 X-11.86450 Y6.4341  ;Travel to end
; Adjusted extrusion move
; feature travel
PRIO_OFF
G0 X-11.86450 Y6.4341 Z0.48 ;Travel to start
; ; feature fill
PRIO_ON
G1 X-9.33225 Y11.8645 E2834.66591 ; EInc=11.74867 cartesianDistance=5.99182 angle=0.000 pulseDistance=0.51000; EInc=11.7486600000002
; feature travel
PRIO_OFF
G0 X-9.82877 Y11.8645  ;Travel to end
; Adjusted extrusion move
; feature travel
PRIO_OFF
G0 X-9.82877 Y11.8645 Z0.48 ;Travel to start
; ; feature fill
PRIO_ON
G1 X-11.86450 Y7.4989 E2844.11092 ; EInc=9.44501 cartesianDistance=4.81695 angle=0.000 pulseDistance=0.51000; EInc=9.445009999999911
; feature travel
PRIO_OFF
G0 X-11.86450 Y8.5637  ;Travel to end
; Adjusted extrusion move
; feature travel
PRIO_OFF
G0 X-11.86450 Y8.5637 Z0.48 ;Travel to start
; ; feature fill
PRIO_ON
G1 X-10.32529 Y11.8645 E2851.25227 ; EInc=7.14135 cartesianDistance=3.64209 angle=0.000 pulseDistance=0.51000; EInc=7.141349999999875
; feature travel
PRIO_OFF
G0 X-10.82181 Y11.8645  ;Travel to end
; Adjusted extrusion move
; feature travel
PRIO_OFF
G0 X-10.82181 Y11.8645 Z0.48 ;Travel to start
; ; feature fill
PRIO_ON
G1 X-11.86450 Y9.6284 E2856.08995 ; EInc=4.83769 cartesianDistance=2.46722 angle=0.000 pulseDistance=0.51000; EInc=4.837680000000091
; feature travel
PRIO_OFF
G0 X-11.86450 Y10.6932  ;Travel to end
; Adjusted extrusion move
; feature travel
PRIO_OFF
G0 X-11.86450 Y10.6932 Z0.48 ;Travel to start
; ; feature fill
PRIO_ON
G1 X-11.31833 Y11.8645 E2858.62398 ; EInc=2.53403 cartesianDistance=1.29235 angle=0.000 pulseDistance=0.51000; EInc=2.5340299999998024
; feature travel
PRIO_OFF
G0 X-11.81485 Y11.8645  ;Travel to end
; Adjusted extrusion move
; feature travel
PRIO_OFF
G0 X-11.81485 Y11.8645 Z0.48 ;Travel to start
; ; feature fill
PRIO_ON
G1 X-11.86450 Y11.7580 E2858.85434 ; EInc=0.23037 cartesianDistance=0.11749 angle=0.000 pulseDistance=0.51000; EInc=0.23036000000001877
; End queued infill moves
PRIO_OFF
LayersCompleted=2
M1
; 
;========================
; layer 2, Z = 0.7200
; 
; reset extrusion
STOPRE
PRESETON(E, 0)
DO PRIO_PULSE_DISTANCE=DROP_SCALE
DO PRIO_ON_PATH_OFFSET=0.5*PRIO_PULSE_DISTANCE
;outer: (12.6302,-12.6302) (12.6302,12.6302) (-12.6302,12.6302) (-12.6302,-12.6302) (-11.1302,-12.6302) holes: !
;overhangs:!
; 
; feature plane change
G0 X-11.8645 Y11.75802 Z0.72 ; cartesianDistance=0.00000 (Plane Change)
; 
; feature travel
; queued 1 travel movement
; Start 1 queued infill moves
; feature travel
PRIO_OFF
G0 X-4.73166 Y12.2152  ;Travel to end
; End queued infill moves
; feature inner perimeter
G1 F24000 FL[E] = OuterPerimeterFrequency * DROP_SCALE * 60
PRIO_ON
G1 X-12.2152 Y12.2152 E17.60833 ; EInc=17.60833 cartesianDistance=7.48354 angle=90.000 pulseDistance=0.42500
G1 X-12.2152 Y-12.2152 E75.09162 ; EInc=57.48329 cartesianDistance=24.43040 angle=90.000 pulseDistance=0.42500
G1 X12.2152 Y-12.2152 E132.57492 ; EInc=57.48329 cartesianDistance=24.43040 angle=90.000 pulseDistance=0.42500
G1 X12.2152 Y12.2152 E190.05821 ; EInc=57.48329 cartesianDistance=24.43040 angle=90.000 pulseDistance=0.42500
G1 X-4.73166 Y12.2152 E229.93318 ; EInc=39.87496 cartesianDistance=16.94686 angle=180.000 pulseDistance=0.42500
; 
; feature travel
; queued 1 travel movement
; Start 1 queued infill moves
; feature travel
PRIO_OFF
G0 X-4.73166 Y11.8642  ;Travel to end
; End queued infill moves
; feature inner perimeter
G1 F24000 FL[E] = InnerPerimeterFrequency * DROP_SCALE * 60
PRIO_ON
G1 X11.8642 Y11.8642 E260.66625 ; EInc=30.73307 cartesianDistance=16.59586 angle=90.000 pulseDistance=0.54000
G1 X11.8642 Y-11.8642 E304.60773 ; EInc=43.94148 cartesianDistance=23.72840 angle=90.000 pulseDistance=0.54000
G1 X-11.8642 Y-11.8642 E348.54921 ; EInc=43.94148 cartesianDistance=23.72840 angle=90.000 pulseDistance=0.54000
G1 X-11.8642 Y11.8642 E392.49069 ; EInc=43.94148 cartesianDistance=23.72840 angle=90.000 pulseDistance=0.54000
G1 X-4.73166 Y11.8642 E405.6991 ; EInc=13.20841 cartesianDistance=7.13254 angle=180.000 pulseDistance=0.54000
; 
; feature travel
; queued 1 travel movement
; feature fill
; queued 1 infill movement
; feature travel
; queued 1 travel movement
; feature fill
; queued 1 infill movement
; feature travel
; queued 1 travel movement
; feature fill
; queued 1 infill movement
; feature travel
; queued 1 travel movement
; feature fill
; queued 1 infill movement
; feature travel
; queued 1 travel movement
; feature fill
; queued 1 infill movement
; feature travel
; queued 1 travel movement
; feature fill
; queued 1 infill movement
; feature travel
; queued 1 travel movement
; feature fill
; queued 1 infill movement
; feature travel
; queued 1 travel movement
; feature fill
; queued 1 infill movement
; feature travel
; queued 1 travel movement
; feature fill
; queued 1 infill movement
; feature travel
; queued 1 travel movement
; feature fill
; queued 1 infill movement
; feature travel
; queued 1 travel movement
; feature fill
; queued 1 infill movement
; feature travel
; queued 1 travel movement
; feature fill
; queued 1 infill movement
; feature travel
; queued 1 travel movement
; feature fill
; queued 1 infill movement
; feature travel
; queued 1 travel movement
; feature fill
; queued 1 infill movement
; feature travel
; queued 1 travel movement
; feature fill
; queued 1 infill movement
; feature travel
; queued 1 travel movement
; feature fill
; queued 1 infill movement
; feature travel
; queued 1 travel movement
; feature fill
; queued 1 infill movement
; feature travel
; queued 1 travel movement
; feature fill
; queued 1 infill movement
; feature travel
; queued 1 travel movement
; feature fill
; queued 1 infill movement
; feature travel
; queued 1 travel movement
; feature fill
; queued 1 infill movement
; feature travel
; queued 1 travel movement
; feature fill
; queued 1 infill movement
; feature travel
; queued 1 travel movement
; feature fill
; queued 1 infill movement
; feature travel
; queued 1 travel movement
; feature fill
; queued 1 infill movement
; feature travel
; queued 1 travel movement
; feature fill
; queued 1 infill movement
; feature travel
; queued 1 travel movement
; feature fill
; queued 1 infill movement
; feature travel
; queued 1 travel movement
; feature fill
; queued 1 infill movement
; feature travel
; queued 1 travel movement
; feature fill
; queued 1 infill movement
; feature travel
; queued 1 travel movement
; feature fill
; queued 1 infill movement
; feature travel
; queued 1 travel movement
; feature fill
; queued 1 infill movement
; feature travel
; queued 1 travel movement
; feature fill
; queued 1 infill movement
; feature travel
; queued 1 travel movement
; feature fill
; queued 1 infill movement
; feature travel
; queued 1 travel movement
; feature fill
; queued 1 infill movement
; feature travel
; queued 1 travel movement
; feature fill
; queued 1 infill movement
; feature travel
; queued 1 travel movement
; feature fill
; queued 1 infill movement
; feature travel
; queued 1 travel movement
; feature fill
; queued 1 infill movement
; feature travel
; queued 1 travel movement
; feature fill
; queued 1 infill movement
; feature travel
; queued 1 travel movement
; feature fill
; queued 1 infill movement
; feature travel
; queued 1 travel movement
; feature fill
; queued 1 infill movement
; feature travel
; queued 1 travel movement
; feature fill
; queued 1 infill movement
; feature travel
; queued 1 travel movement
; feature fill
; queued 1 infill movement
; feature travel
; queued 1 travel movement
; feature fill
; queued 1 infill movement
; feature travel
; queued 1 travel movement
; feature fill
; queued 1 infill movement
; feature travel
; queued 1 travel movement
; feature fill
; queued 1 infill movement
; feature travel
; queued 1 travel movement
; feature fill
; queued 1 infill movement
; feature travel
; queued 1 travel movement
; feature fill
; queued 1 infill movement
; feature travel
; queued 1 travel movement
; feature fill
; queued 1 infill movement
; feature travel
; queued 1 travel movement
; feature fill
; queued 1 infill movement
; feature travel
; queued 1 travel movement
; feature fill
; queued 1 infill movement
; feature travel
; queued 1 travel movement
; feature fill
; queued 1 infill movement
; feature travel
; queued 1 travel movement
; feature fill
; queued 1 infill movement
; feature travel
; queued 1 travel movement
; feature fill
; queued 1 infill movement
; feature travel
; queued 1 travel movement
; feature fill
; queued 1 infill movement
; feature travel
; queued 1 travel movement
; feature fill
; queued 1 infill movement
; feature travel
; queued 1 travel movement
; feature fill
; queued 1 infill movement
; feature travel
; queued 1 travel movement
; feature fill
; queued 1 infill movement
; feature travel
; queued 1 travel movement
; feature fill
; queued 1 infill movement
; feature travel
; queued 1 travel movement
; feature fill
; queued 1 infill movement
; feature travel
; queued 1 travel movement
; feature fill
; queued 1 infill movement
; feature travel
; queued 1 travel movement
; feature fill
; queued 1 infill movement
; feature travel
; queued 1 travel movement
; feature fill
; queued 1 infill movement
; feature travel
; queued 1 travel movement
; feature fill
; queued 1 infill movement
; feature travel
; queued 1 travel movement
; feature fill
; queued 1 infill movement
; feature travel
; queued 1 travel movement
; feature fill
; queued 1 infill movement
; feature travel
; queued 1 travel movement
; feature fill
; queued 1 infill movement
; feature travel
; queued 1 travel movement
; feature fill
; queued 1 infill movement
; feature travel
; queued 1 travel movement
; feature fill
; queued 1 infill movement
; feature travel
; queued 1 travel movement
; feature fill
; queued 1 infill movement
; feature travel
; queued 1 travel movement
; feature fill
; queued 1 infill movement
; Start 136 queued infill moves
; feature travel
PRIO_OFF
G0 X-4.65022 Y11.8645  ;Travel to end
; Adjusted extrusion move
; feature travel
PRIO_OFF
G0 X-4.65022 Y11.8645 Z0.72 ;Travel to start
; ; feature fill
PRIO_ON
G1 X3.98643 Y-11.8645 E455.21258 ; EInc=49.51348 cartesianDistance=25.25187 angle=0.000 pulseDistance=0.51000; EInc=49.513480000000015
; feature travel
PRIO_OFF
G0 X3.50755 Y-11.8645  ;Travel to end
; Adjusted extrusion move
; feature travel
PRIO_OFF
G0 X3.50755 Y-11.8645 Z0.72 ;Travel to start
; ; feature fill
PRIO_ON
G1 X-5.12910 Y11.8645 E504.72606 ; EInc=49.51348 cartesianDistance=25.25187 angle=0.000 pulseDistance=0.51000; EInc=49.513480000000015
; feature travel
PRIO_OFF
G0 X-5.60798 Y11.8645  ;Travel to end
; Adjusted extrusion move
; feature travel
PRIO_OFF
G0 X-5.60798 Y11.8645 Z0.72 ;Travel to start
; ; feature fill
PRIO_ON
G1 X3.02867 Y-11.8645 E554.23954 ; EInc=49.51348 cartesianDistance=25.25187 angle=0.000 pulseDistance=0.51000; EInc=49.513480000000015
; feature travel
PRIO_OFF
G0 X2.54979 Y-11.8645  ;Travel to end
; Adjusted extrusion move
; feature travel
PRIO_OFF
G0 X2.54979 Y-11.8645 Z0.72 ;Travel to start
; ; feature fill
PRIO_ON
G1 X-6.08686 Y11.8645 E603.75302 ; EInc=49.51348 cartesianDistance=25.25187 angle=0.000 pulseDistance=0.51000; EInc=49.51347999999996
; feature travel
PRIO_OFF
G0 X-6.56574 Y11.8645  ;Travel to end
; Adjusted extrusion move
; feature travel
PRIO_OFF
G0 X-6.56574 Y11.8645 Z0.72 ;Travel to start
; ; feature fill
PRIO_ON
G1 X2.07091 Y-11.8645 E653.26650 ; EInc=49.51348 cartesianDistance=25.25187 angle=0.000 pulseDistance=0.51000; EInc=49.51347999999996
; feature travel
PRIO_OFF
G0 X1.59203 Y-11.8645  ;Travel to end
; Adjusted extrusion move
; feature travel
PRIO_OFF
G0 X1.59203 Y-11.8645 Z0.72 ;Travel to start
; ; feature fill
PRIO_ON
G1 X-7.04462 Y11.8645 E702.77998 ; EInc=49.51348 cartesianDistance=25.25187 angle=0.000 pulseDistance=0.51000; EInc=49.51348000000007
; feature travel
PRIO_OFF
G0 X-7.52350 Y11.8645  ;Travel to end
; Adjusted extrusion move
; feature travel
PRIO_OFF
G0 X-7.52350 Y11.8645 Z0.72 ;Travel to start
; ; feature fill
PRIO_ON
G1 X1.11315 Y-11.8645 E752.29346 ; EInc=49.51348 cartesianDistance=25.25187 angle=0.000 pulseDistance=0.51000; EInc=49.51347999999996
; feature travel
PRIO_OFF
G0 X0.63427 Y-11.8645  ;Travel to end
; Adjusted extrusion move
; feature travel
PRIO_OFF
G0 X0.63427 Y-11.8645 Z0.72 ;Travel to start
; ; feature fill
PRIO_ON
G1 X-8.00238 Y11.8645 E801.80694 ; EInc=49.51348 cartesianDistance=25.25187 angle=0.000 pulseDistance=0.51000; EInc=49.51348000000007
; feature travel
PRIO_OFF
G0 X-8.48126 Y11.8645  ;Travel to end
; Adjusted extrusion move
; feature travel
PRIO_OFF
G0 X-8.48126 Y11.8645 Z0.72 ;Travel to start
; ; feature fill
PRIO_ON
G1 X0.15539 Y-11.8645 E851.32041 ; EInc=49.51348 cartesianDistance=25.25187 angle=0.000 pulseDistance=0.51000; EInc=49.513469999999984
; feature travel
PRIO_OFF
G0 X-0.32349 Y-11.8645  ;Travel to end
; Adjusted extrusion move
; feature travel
PRIO_OFF
G0 X-0.32349 Y-11.8645 Z0.72 ;Travel to start
; ; feature fill
PRIO_ON
G1 X-8.96014 Y11.8645 E900.83389 ; EInc=49.51348 cartesianDistance=25.25187 angle=0.000 pulseDistance=0.51000; EInc=49.51347999999996
; feature travel
PRIO_OFF
G0 X-9.43902 Y11.8645  ;Travel to end
; Adjusted extrusion move
; feature travel
PRIO_OFF
G0 X-9.43902 Y11.8645 Z0.72 ;Travel to start
; ; feature fill
PRIO_ON
G1 X-0.80237 Y-11.8645 E950.34737 ; EInc=49.51348 cartesianDistance=25.25187 angle=0.000 pulseDistance=0.51000; EInc=49.51347999999996
; feature travel
PRIO_OFF
G0 X-1.28125 Y-11.8645  ;Travel to end
; Adjusted extrusion move
; feature travel
PRIO_OFF
G0 X-1.28125 Y-11.8645 Z0.72 ;Travel to start
; ; feature fill
PRIO_ON
G1 X-9.91790 Y11.8645 E999.86085 ; EInc=49.51348 cartesianDistance=25.25187 angle=0.000 pulseDistance=0.51000; EInc=49.51348000000007
; feature travel
PRIO_OFF
G0 X-10.39678 Y11.8645  ;Travel to end
; Adjusted extrusion move
; feature travel
PRIO_OFF
G0 X-10.39678 Y11.8645 Z0.72 ;Travel to start
; ; feature fill
PRIO_ON
G1 X-1.76013 Y-11.8645 E1049.37433 ; EInc=49.51348 cartesianDistance=25.25187 angle=0.000 pulseDistance=0.51000; EInc=49.51348000000007
; feature travel
PRIO_OFF
G0 X-2.23901 Y-11.8645  ;Travel to end
; Adjusted extrusion move
; feature travel
PRIO_OFF
G0 X-2.23901 Y-11.8645 Z0.72 ;Travel to start
; ; feature fill
PRIO_ON
G1 X-10.87566 Y11.8645 E1098.88781 ; EInc=49.51348 cartesianDistance=25.25187 angle=0.000 pulseDistance=0.51000; EInc=49.513479999999845
; feature travel
PRIO_OFF
G0 X-11.35454 Y11.8645  ;Travel to end
; Adjusted extrusion move
; feature travel
PRIO_OFF
G0 X-11.35454 Y11.8645 Z0.72 ;Travel to start
; ; feature fill
PRIO_ON
G1 X-2.71789 Y-11.8645 E1148.40129 ; EInc=49.51348 cartesianDistance=25.25187 angle=0.000 pulseDistance=0.51000; EInc=49.51348000000007
; feature travel
PRIO_OFF
G0 X-3.19677 Y-11.8645  ;Travel to end
; Adjusted extrusion move
; feature travel
PRIO_OFF
G0 X-3.19677 Y-11.8645 Z0.72 ;Travel to start
; ; feature fill
PRIO_ON
G1 X-11.83342 Y11.8645 E1197.91477 ; EInc=49.51348 cartesianDistance=25.25187 angle=0.000 pulseDistance=0.51000; EInc=49.51348000000007
; feature travel
PRIO_OFF
G0 X-11.86450 Y10.6342  ;Travel to end
; Adjusted extrusion move
; feature travel
PRIO_OFF
G0 X-11.86450 Y10.6342 Z0.72 ;Travel to start
; ; feature fill
PRIO_ON
G1 X-3.67565 Y-11.8645 E1244.86102 ; EInc=46.94625 cartesianDistance=23.94259 angle=0.000 pulseDistance=0.51000; EInc=46.946249999999964
; feature travel
PRIO_OFF
G0 X-4.15453 Y-11.8645  ;Travel to end
; Adjusted extrusion move
; feature travel
PRIO_OFF
G0 X-4.15453 Y-11.8645 Z0.72 ;Travel to start
; ; feature fill
PRIO_ON
G1 X-11.86450 Y9.3185 E1289.06188 ; EInc=44.20086 cartesianDistance=22.54244 angle=0.000 pulseDistance=0.51000; EInc=44.20085999999992
; feature travel
PRIO_OFF
G0 X-11.86450 Y8.0028  ;Travel to end
; Adjusted extrusion move
; feature travel
PRIO_OFF
G0 X-11.86450 Y8.0028 Z0.72 ;Travel to start
; ; feature fill
PRIO_ON
G1 X-4.63341 Y-11.8645 E1330.51735 ; EInc=41.45546 cartesianDistance=21.14229 angle=0.000 pulseDistance=0.51000; EInc=41.455470000000105
; feature travel
PRIO_OFF
G0 X-5.11229 Y-11.8645  ;Travel to end
; Adjusted extrusion move
; feature travel
PRIO_OFF
G0 X-5.11229 Y-11.8645 Z0.72 ;Travel to start
; ; feature fill
PRIO_ON
G1 X-11.86450 Y6.6870 E1369.22742 ; EInc=38.71007 cartesianDistance=19.74214 angle=0.000 pulseDistance=0.51000; EInc=38.71006999999986
; feature travel
PRIO_OFF
G0 X-11.86450 Y5.3713  ;Travel to end
; Adjusted extrusion move
; feature travel
PRIO_OFF
G0 X-11.86450 Y5.3713 Z0.72 ;Travel to start
; ; feature fill
PRIO_ON
G1 X-5.59117 Y-11.8645 E1405.19209 ; EInc=35.96467 cartesianDistance=18.34198 angle=0.000 pulseDistance=0.51000; EInc=35.96467000000007
; feature travel
PRIO_OFF
G0 X-6.07005 Y-11.8645  ;Travel to end
; Adjusted extrusion move
; feature travel
PRIO_OFF
G0 X-6.07005 Y-11.8645 Z0.72 ;Travel to start
; ; feature fill
PRIO_ON
G1 X-11.86450 Y4.0556 E1438.41137 ; EInc=33.21928 cartesianDistance=16.94183 angle=0.000 pulseDistance=0.51000; EInc=33.219280000000026
; feature travel
PRIO_OFF
G0 X-11.86450 Y2.7399  ;Travel to end
; Adjusted extrusion move
; feature travel
PRIO_OFF
G0 X-11.86450 Y2.7399 Z0.72 ;Travel to start
; ; feature fill
PRIO_ON
G1 X-6.54893 Y-11.8645 E1468.88525 ; EInc=30.47388 cartesianDistance=15.54168 angle=0.000 pulseDistance=0.51000; EInc=30.47388000000001
; feature travel
PRIO_OFF
G0 X-7.02781 Y-11.8645  ;Travel to end
; Adjusted extrusion move
; feature travel
PRIO_OFF
G0 X-7.02781 Y-11.8645 Z0.72 ;Travel to start
; ; feature fill
PRIO_ON
G1 X-11.86450 Y1.4242 E1496.61374 ; EInc=27.72849 cartesianDistance=14.14153 angle=0.000 pulseDistance=0.51000; EInc=27.728489999999965
; feature travel
PRIO_OFF
G0 X-11.86450 Y0.1085  ;Travel to end
; Adjusted extrusion move
; feature travel
PRIO_OFF
G0 X-11.86450 Y0.1085 Z0.72 ;Travel to start
; ; feature fill
PRIO_ON
G1 X-7.50669 Y-11.8645 E1521.59684 ; EInc=24.98309 cartesianDistance=12.74138 angle=0.000 pulseDistance=0.51000; EInc=24.983099999999922
; feature travel
PRIO_OFF
G0 X-7.98557 Y-11.8645  ;Travel to end
; Adjusted extrusion move
; feature travel
PRIO_OFF
G0 X-7.98557 Y-11.8645 Z0.72 ;Travel to start
; ; feature fill
PRIO_ON
G1 X-11.86450 Y-1.2072 E1543.83454 ; EInc=22.23770 cartesianDistance=11.34123 angle=0.000 pulseDistance=0.51000; EInc=22.23770000000013
; feature travel
PRIO_OFF
G0 X-11.86450 Y-2.5229  ;Travel to end
; Adjusted extrusion move
; feature travel
PRIO_OFF
G0 X-11.86450 Y-2.5229 Z0.72 ;Travel to start
; ; feature fill
PRIO_ON
G1 X-8.46445 Y-11.8645 E1563.32684 ; EInc=19.49230 cartesianDistance=9.94108 angle=0.000 pulseDistance=0.51000; EInc=19.492299999999886
; feature travel
PRIO_OFF
G0 X-8.94333 Y-11.8645  ;Travel to end
; Adjusted extrusion move
; feature travel
PRIO_OFF
G0 X-8.94333 Y-11.8645 Z0.72 ;Travel to start
; ; feature fill
PRIO_ON
G1 X-11.86450 Y-3.8387 E1580.07375 ; EInc=16.74691 cartesianDistance=8.54092 angle=0.000 pulseDistance=0.51000; EInc=16.74691000000007
; feature travel
PRIO_OFF
G0 X-11.86450 Y-5.1544  ;Travel to end
; Adjusted extrusion move
; feature travel
PRIO_OFF
G0 X-11.86450 Y-5.1544 Z0.72 ;Travel to start
; ; feature fill
PRIO_ON
G1 X-9.42221 Y-11.8645 E1594.07527 ; EInc=14.00151 cartesianDistance=7.14077 angle=0.000 pulseDistance=0.51000; EInc=14.001520000000028
; feature travel
PRIO_OFF
G0 X-9.90109 Y-11.8645  ;Travel to end
; Adjusted extrusion move
; feature travel
PRIO_OFF
G0 X-9.90109 Y-11.8645 Z0.72 ;Travel to start
; ; feature fill
PRIO_ON
G1 X-11.86450 Y-6.4701 E1605.33138 ; EInc=11.25612 cartesianDistance=5.74062 angle=0.000 pulseDistance=0.51000; EInc=11.256110000000035
; feature travel
PRIO_OFF
G0 X-11.86450 Y-7.7858  ;Travel to end
; Adjusted extrusion move
; feature travel
PRIO_OFF
G0 X-11.86450 Y-7.7858 Z0.72 ;Travel to start
; ; feature fill
PRIO_ON
G1 X-10.37997 Y-11.8645 E1613.84211 ; EInc=8.51072 cartesianDistance=4.34047 angle=0.000 pulseDistance=0.51000; EInc=8.510729999999967
; feature travel
PRIO_OFF
G0 X-10.85885 Y-11.8645  ;Travel to end
; Adjusted extrusion move
; feature travel
PRIO_OFF
G0 X-10.85885 Y-11.8645 Z0.72 ;Travel to start
; ; feature fill
PRIO_ON
G1 X-11.86450 Y-9.1015 E1619.60744 ; EInc=5.76533 cartesianDistance=2.94032 angle=0.000 pulseDistance=0.51000; EInc=5.765329999999949
; feature travel
PRIO_OFF
G0 X-11.86450 Y-10.4172  ;Travel to end
; Adjusted extrusion move
; feature travel
PRIO_OFF
G0 X-11.86450 Y-10.4172 Z0.72 ;Travel to start
; ; feature fill
PRIO_ON
G1 X-11.33773 Y-11.8645 E1622.62737 ; EInc=3.01993 cartesianDistance=1.54017 angle=0.000 pulseDistance=0.51000; EInc=3.019929999999931
; feature travel
PRIO_OFF
G0 X-11.81661 Y-11.8645  ;Travel to end
; Adjusted extrusion move
; feature travel
PRIO_OFF
G0 X-11.81661 Y-11.8645 Z0.72 ;Travel to start
; ; feature fill
PRIO_ON
G1 X-11.86450 Y-11.7329 E1622.90191 ; EInc=0.27454 cartesianDistance=0.14002 angle=0.000 pulseDistance=0.51000; EInc=0.27454000000011547
; feature travel
PRIO_OFF
G0 X4.46531 Y-11.8645  ;Travel to end
; Adjusted extrusion move
; feature travel
PRIO_OFF
G0 X4.46531 Y-11.8645 Z0.72 ;Travel to start
; ; feature fill
PRIO_ON
G1 X-4.17134 Y11.8645 E1672.41539 ; EInc=49.51348 cartesianDistance=25.25187 angle=0.000 pulseDistance=0.51000; EInc=49.513479999999845
; feature travel
PRIO_OFF
G0 X-3.69246 Y11.8645  ;Travel to end
; Adjusted extrusion move
; feature travel
PRIO_OFF
G0 X-3.69246 Y11.8645 Z0.72 ;Travel to start
; ; feature fill
PRIO_ON
G1 X4.94419 Y-11.8645 E1721.92887 ; EInc=49.51348 cartesianDistance=25.25187 angle=0.000 pulseDistance=0.51000; EInc=49.51348000000007
; feature travel
PRIO_OFF
G0 X5.42307 Y-11.8645  ;Travel to end
; Adjusted extrusion move
; feature travel
PRIO_OFF
G0 X5.42307 Y-11.8645 Z0.72 ;Travel to start
; ; feature fill
PRIO_ON
G1 X-3.21358 Y11.8645 E1771.44235 ; EInc=49.51348 cartesianDistance=25.25187 angle=0.000 pulseDistance=0.51000; EInc=49.51348000000007
; feature travel
PRIO_OFF
G0 X-2.73470 Y11.8645  ;Travel to end
; Adjusted extrusion move
; feature travel
PRIO_OFF
G0 X-2.73470 Y11.8645 Z0.72 ;Travel to start
; ; feature fill
PRIO_ON
G1 X5.90195 Y-11.8645 E1820.95583 ; EInc=49.51348 cartesianDistance=25.25187 angle=0.000 pulseDistance=0.51000; EInc=49.51348000000007
; feature travel
PRIO_OFF
G0 X6.38083 Y-11.8645  ;Travel to end
; Adjusted extrusion move
; feature travel
PRIO_OFF
G0 X6.38083 Y-11.8645 Z0.72 ;Travel to start
; ; feature fill
PRIO_ON
G1 X-2.25582 Y11.8645 E1870.46931 ; EInc=49.51348 cartesianDistance=25.25187 angle=0.000 pulseDistance=0.51000; EInc=49.513479999999845
; feature travel
PRIO_OFF
G0 X-1.77694 Y11.8645  ;Travel to end
; Adjusted extrusion move
; feature travel
PRIO_OFF
G0 X-1.77694 Y11.8645 Z0.72 ;Travel to start
; ; feature fill
PRIO_ON
G1 X6.85971 Y-11.8645 E1919.98279 ; EInc=49.51348 cartesianDistance=25.25187 angle=0.000 pulseDistance=0.51000; EInc=49.51348000000007
; feature travel
PRIO_OFF
G0 X7.33859 Y-11.8645  ;Travel to end
; Adjusted extrusion move
; feature travel
PRIO_OFF
G0 X7.33859 Y-11.8645 Z0.72 ;Travel to start
; ; feature fill
PRIO_ON
G1 X-1.29806 Y11.8645 E1969.49627 ; EInc=49.51348 cartesianDistance=25.25187 angle=0.000 pulseDistance=0.51000; EInc=49.51348000000007
; feature travel
PRIO_OFF
G0 X-0.81918 Y11.8645  ;Travel to end
; Adjusted extrusion move
; feature travel
PRIO_OFF
G0 X-0.81918 Y11.8645 Z0.72 ;Travel to start
; ; feature fill
PRIO_ON
G1 X7.81747 Y-11.8645 E2019.00975 ; EInc=49.51348 cartesianDistance=25.25187 angle=0.000 pulseDistance=0.51000; EInc=49.513479999999845
; feature travel
PRIO_OFF
G0 X8.29635 Y-11.8645  ;Travel to end
; Adjusted extrusion move
; feature travel
PRIO_OFF
G0 X8.29635 Y-11.8645 Z0.72 ;Travel to start
; ; feature fill
PRIO_ON
G1 X-0.34030 Y11.8645 E2068.52323 ; EInc=49.51348 cartesianDistance=25.25187 angle=0.000 pulseDistance=0.51000; EInc=49.513479999999845
; feature travel
PRIO_OFF
G0 X0.13858 Y11.8645  ;Travel to end
; Adjusted extrusion move
; feature travel
PRIO_OFF
G0 X0.13858 Y11.8645 Z0.72 ;Travel to start
; ; feature fill
PRIO_ON
G1 X8.77523 Y-11.8645 E2118.03670 ; EInc=49.51348 cartesianDistance=25.25187 angle=0.000 pulseDistance=0.51000; EInc=49.513470000000325
; feature travel
PRIO_OFF
G0 X9.25411 Y-11.8645  ;Travel to end
; Adjusted extrusion move
; feature travel
PRIO_OFF
G0 X9.25411 Y-11.8645 Z0.72 ;Travel to start
; ; feature fill
PRIO_ON
G1 X0.61746 Y11.8645 E2167.55018 ; EInc=49.51348 cartesianDistance=25.25187 angle=0.000 pulseDistance=0.51000; EInc=49.51348000000007
; feature travel
PRIO_OFF
G0 X1.09634 Y11.8645  ;Travel to end
; Adjusted extrusion move
; feature travel
PRIO_OFF
G0 X1.09634 Y11.8645 Z0.72 ;Travel to start
; ; feature fill
PRIO_ON
G1 X9.73299 Y-11.8645 E2217.06366 ; EInc=49.51348 cartesianDistance=25.25187 angle=0.000 pulseDistance=0.51000; EInc=49.51347999999962
; feature travel
PRIO_OFF
G0 X10.21187 Y-11.8645  ;Travel to end
; Adjusted extrusion move
; feature travel
PRIO_OFF
G0 X10.21187 Y-11.8645 Z0.72 ;Travel to start
; ; feature fill
PRIO_ON
G1 X1.57522 Y11.8645 E2266.57714 ; EInc=49.51348 cartesianDistance=25.25187 angle=0.000 pulseDistance=0.51000; EInc=49.51348000000007
; feature travel
PRIO_OFF
G0 X2.05410 Y11.8645  ;Travel to end
; Adjusted extrusion move
; feature travel
PRIO_OFF
G0 X2.05410 Y11.8645 Z0.72 ;Travel to start
; ; feature fill
PRIO_ON
G1 X10.69075 Y-11.8645 E2316.09062 ; EInc=49.51348 cartesianDistance=25.25187 angle=0.000 pulseDistance=0.51000; EInc=49.51348000000007
; feature travel
PRIO_OFF
G0 X11.16963 Y-11.8645  ;Travel to end
; Adjusted extrusion move
; feature travel
PRIO_OFF
G0 X11.16963 Y-11.8645 Z0.72 ;Travel to start
; ; feature fill
PRIO_ON
G1 X2.53298 Y11.8645 E2365.60410 ; EInc=49.51348 cartesianDistance=25.25187 angle=0.000 pulseDistance=0.51000; EInc=49.51348000000007
; feature travel
PRIO_OFF
G0 X3.01186 Y11.8645  ;Travel to end
; Adjusted extrusion move
; feature travel
PRIO_OFF
G0 X3.01186 Y11.8645 Z0.72 ;Travel to start
; ; feature fill
PRIO_ON
G1 X11.64851 Y-11.8645 E2415.11758 ; EInc=49.51348 cartesianDistance=25.25187 angle=0.000 pulseDistance=0.51000; EInc=49.51348000000007
; feature travel
PRIO_OFF
G0 X11.86450 Y-11.1422  ;Travel to end
; Adjusted extrusion move
; feature travel
PRIO_OFF
G0 X11.86450 Y-11.1422 Z0.72 ;Travel to start
; ; feature fill
PRIO_ON
G1 X3.49074 Y11.8645 E2463.12394 ; EInc=48.00636 cartesianDistance=24.48324 angle=0.000 pulseDistance=0.51000; EInc=48.00635999999986
; feature travel
PRIO_OFF
G0 X3.96962 Y11.8645  ;Travel to end
; Adjusted extrusion move
; feature travel
PRIO_OFF
G0 X3.96962 Y11.8645 Z0.72 ;Travel to start
; ; feature fill
PRIO_ON
G1 X11.86450 Y-9.8265 E2508.38490 ; EInc=45.26096 cartesianDistance=23.08309 angle=0.000 pulseDistance=0.51000; EInc=45.26096000000007
; feature travel
PRIO_OFF
G0 X11.86450 Y-8.5108  ;Travel to end
; Adjusted extrusion move
; feature travel
PRIO_OFF
G0 X11.86450 Y-8.5108 Z0.72 ;Travel to start
; ; feature fill
PRIO_ON
G1 X4.44850 Y11.8645 E2550.90046 ; EInc=42.51557 cartesianDistance=21.68294 angle=0.000 pulseDistance=0.51000; EInc=42.51555999999982
; feature travel
PRIO_OFF
G0 X4.92738 Y11.8645  ;Travel to end
; Adjusted extrusion move
; feature travel
PRIO_OFF
G0 X4.92738 Y11.8645 Z0.72 ;Travel to start
; ; feature fill
PRIO_ON
G1 X11.86450 Y-7.1951 E2590.67063 ; EInc=39.77017 cartesianDistance=20.28279 angle=0.000 pulseDistance=0.51000; EInc=39.770170000000235
; feature travel
PRIO_OFF
G0 X11.86450 Y-5.8794  ;Travel to end
; Adjusted extrusion move
; feature travel
PRIO_OFF
G0 X11.86450 Y-5.8794 Z0.72 ;Travel to start
; ; feature fill
PRIO_ON
G1 X5.40626 Y11.8645 E2627.69541 ; EInc=37.02478 cartesianDistance=18.88264 angle=0.000 pulseDistance=0.51000; EInc=37.02477999999974
; feature travel
PRIO_OFF
G0 X5.88514 Y11.8645  ;Travel to end
; Adjusted extrusion move
; feature travel
PRIO_OFF
G0 X5.88514 Y11.8645 Z0.72 ;Travel to start
; ; feature fill
PRIO_ON
G1 X11.86450 Y-4.5637 E2661.97479 ; EInc=34.27938 cartesianDistance=17.48248 angle=0.000 pulseDistance=0.51000; EInc=34.2793800000004
; feature travel
PRIO_OFF
G0 X11.86450 Y-3.2479  ;Travel to end
; Adjusted extrusion move
; feature travel
PRIO_OFF
G0 X11.86450 Y-3.2479 Z0.72 ;Travel to start
; ; feature fill
PRIO_ON
G1 X6.36402 Y11.8645 E2693.50878 ; EInc=31.53399 cartesianDistance=16.08233 angle=0.000 pulseDistance=0.51000; EInc=31.533989999999903
; feature travel
PRIO_OFF
G0 X6.84290 Y11.8645  ;Travel to end
; Adjusted extrusion move
; feature travel
PRIO_OFF
G0 X6.84290 Y11.8645 Z0.72 ;Travel to start
; ; feature fill
PRIO_ON
G1 X11.86450 Y-1.9322 E2722.29737 ; EInc=28.78859 cartesianDistance=14.68218 angle=0.000 pulseDistance=0.51000; EInc=28.788589999999658
; feature travel
PRIO_OFF
G0 X11.86450 Y-0.6165  ;Travel to end
; Adjusted extrusion move
; feature travel
PRIO_OFF
G0 X11.86450 Y-0.6165 Z0.72 ;Travel to start
; ; feature fill
PRIO_ON
G1 X7.32178 Y11.8645 E2748.34056 ; EInc=26.04320 cartesianDistance=13.28203 angle=0.000 pulseDistance=0.51000; EInc=26.043190000000322
; feature travel
PRIO_OFF
G0 X7.80066 Y11.8645  ;Travel to end
; Adjusted extrusion move
; feature travel
PRIO_OFF
G0 X7.80066 Y11.8645 Z0.72 ;Travel to start
; ; feature fill
PRIO_ON
G1 X11.86450 Y0.6992 E2771.63837 ; EInc=23.29780 cartesianDistance=11.88188 angle=0.000 pulseDistance=0.51000; EInc=23.297810000000027
; feature travel
PRIO_OFF
G0 X11.86450 Y2.0149  ;Travel to end
; Adjusted extrusion move
; feature travel
PRIO_OFF
G0 X11.86450 Y2.0149 Z0.72 ;Travel to start
; ; feature fill
PRIO_ON
G1 X8.27954 Y11.8645 E2792.19077 ; EInc=20.55241 cartesianDistance=10.48173 angle=0.000 pulseDistance=0.51000; EInc=20.552400000000034
; feature travel
PRIO_OFF
G0 X8.75842 Y11.8645  ;Travel to end
; Adjusted extrusion move
; feature travel
PRIO_OFF
G0 X8.75842 Y11.8645 Z0.72 ;Travel to start
; ; feature fill
PRIO_ON
G1 X11.86450 Y3.3306 E2809.99778 ; EInc=17.80701 cartesianDistance=9.08158 angle=0.000 pulseDistance=0.51000; EInc=17.80700999999999
; feature travel
PRIO_OFF
G0 X11.86450 Y4.6463  ;Travel to end
; Adjusted extrusion move
; feature travel
PRIO_OFF
G0 X11.86450 Y4.6463 Z0.72 ;Travel to start
; ; feature fill
PRIO_ON
G1 X9.23730 Y11.8645 E2825.05940 ; EInc=15.06162 cartesianDistance=7.68142 angle=0.000 pulseDistance=0.51000; EInc=15.061619999999948
; feature travel
PRIO_OFF
G0 X9.71618 Y11.8645  ;Travel to end
; Adjusted extrusion move
; feature travel
PRIO_OFF
G0 X9.71618 Y11.8645 Z0.72 ;Travel to start
; ; feature fill
PRIO_ON
G1 X11.86450 Y5.9620 E2837.37562 ; EInc=12.31622 cartesianDistance=6.28127 angle=0.000 pulseDistance=0.51000; EInc=12.316219999999703
; feature travel
PRIO_OFF
G0 X11.86450 Y7.2778  ;Travel to end
; Adjusted extrusion move
; feature travel
PRIO_OFF
G0 X11.86450 Y7.2778 Z0.72 ;Travel to start
; ; feature fill
PRIO_ON
G1 X10.19506 Y11.8645 E2846.94645 ; EInc=9.57083 cartesianDistance=4.88112 angle=0.000 pulseDistance=0.51000; EInc=9.570830000000115
; feature travel
PRIO_OFF
G0 X10.67394 Y11.8645  ;Travel to end
; Adjusted extrusion move
; feature travel
PRIO_OFF
G0 X10.67394 Y11.8645 Z0.72 ;Travel to start
; ; feature fill
PRIO_ON
G1 X11.86450 Y8.5935 E2853.77188 ; EInc=6.82543 cartesianDistance=3.48097 angle=0.000 pulseDistance=0.51000; EInc=6.825429999999869
; feature travel
PRIO_OFF
G0 X11.86450 Y9.9092  ;Travel to end
; Adjusted extrusion move
; feature travel
PRIO_OFF
G0 X11.86450 Y9.9092 Z0.72 ;Travel to start
; ; feature fill
PRIO_ON
G1 X11.15282 Y11.8645 E2857.85191 ; EInc=4.08004 cartesianDistance=2.08082 angle=0.000 pulseDistance=0.51000; EInc=4.080030000000079
; feature travel
PRIO_OFF
G0 X11.63170 Y11.8645  ;Travel to end
; Adjusted extrusion move
; feature travel
PRIO_OFF
G0 X11.63170 Y11.8645 Z0.72 ;Travel to start
; ; feature fill
PRIO_ON
G1 X11.86450 Y11.2249 E2859.18656 ; EInc=1.33464 cartesianDistance=0.68067 angle=0.000 pulseDistance=0.51000; EInc=1.334650000000238
; End queued infill moves
PRIO_OFF
LayersCompleted=3
M1
; 
;========================
; layer 3, Z = 0.9600
; 
; reset extrusion
STOPRE
PRESETON(E, 0)
DO PRIO_PULSE_DISTANCE=DROP_SCALE
DO PRIO_ON_PATH_OFFSET=0.5*PRIO_PULSE_DISTANCE
;outer: (12.6302,-12.6302) (12.6302,12.6302) (-12.6302,12.6302) (-12.6302,-12.6302) (-10.5302,-12.6302) holes: !
;overhangs:!
; 
; feature plane change
G0 X11.8645 Y11.22488 Z0.96 ; cartesianDistance=0.00000 (Plane Change)
; 
; feature travel
; queued 1 travel movement
; Start 1 queued infill moves
; feature travel
PRIO_OFF
G0 X9.11469 Y-12.2152  ;Travel to end
; End queued infill moves
; feature inner perimeter
G1 F24000 FL[E] = OuterPerimeterFrequency * DROP_SCALE * 60
PRIO_ON
G1 X-12.2152 Y-12.2152 E50.18797 ; EInc=50.18797 cartesianDistance=21.32989 angle=90.000 pulseDistance=0.42500
G1 X-12.2152 Y12.2152 E107.67126 ; EInc=57.48329 cartesianDistance=24.43040 angle=90.000 pulseDistance=0.42500
G1 X12.2152 Y12.2152 E165.15456 ; EInc=57.48329 cartesianDistance=24.43040 angle=90.000 pulseDistance=0.42500
G1 X12.2152 Y-12.2152 E222.63785 ; EInc=57.48329 cartesianDistance=24.43040 angle=90.000 pulseDistance=0.42500
G1 X9.11469 Y-12.2152 E229.93318 ; EInc=7.29533 cartesianDistance=3.10051 angle=180.000 pulseDistance=0.42500
; 
; feature travel
; queued 1 travel movement
; Start 1 queued infill moves
; feature travel
PRIO_OFF
G0 X9.11469 Y-11.8642  ;Travel to end
; End queued infill moves
; feature inner perimeter
G1 F24000 FL[E] = InnerPerimeterFrequency * DROP_SCALE * 60
PRIO_ON
G1 X11.8642 Y-11.8642 E235.02487 ; EInc=5.09169 cartesianDistance=2.74951 angle=90.000 pulseDistance=0.54000
G1 X11.8642 Y11.8642 E278.96635 ; EInc=43.94148 cartesianDistance=23.72840 angle=90.000 pulseDistance=0.54000
G1 X-11.8642 Y11.8642 E322.90783 ; EInc=43.94148 cartesianDistance=23.72840 angle=90.000 pulseDistance=0.54000
G1 X-11.8642 Y-11.8642 E366.84931 ; EInc=43.94148 cartesianDistance=23.72840 angle=90.000 pulseDistance=0.54000
G1 X9.11469 Y-11.8642 E405.6991 ; EInc=38.84979 cartesianDistance=20.97889 angle=180.000 pulseDistance=0.54000
; 
; feature travel
; queued 1 travel movement
; feature fill
; queued 1 infill movement
; feature travel
; queued 1 travel movement
; feature fill
; queued 1 infill movement
; feature travel
; queued 1 travel movement
; feature fill
; queued 1 infill movement
; feature travel
; queued 1 travel movement
; feature fill
; queued 1 infill movement
; feature travel
; queued 1 travel movement
; feature fill
; queued 1 infill movement
; feature travel
; queued 1 travel movement
; feature fill
; queued 1 infill movement
; feature travel
; queued 1 travel movement
; feature fill
; queued 1 infill movement
; feature travel
; queued 1 travel movement
; feature fill
; queued 1 infill movement
; feature travel
; queued 1 travel movement
; feature fill
; queued 1 infill movement
; feature travel
; queued 1 travel movement
; feature fill
; queued 1 infill movement
; feature travel
; queued 1 travel movement
; feature fill
; queued 1 infill movement
; feature travel
; queued 1 travel movement
; feature fill
; queued 1 infill movement
; feature travel
; queued 1 travel movement
; feature fill
; queued 1 infill movement
; feature travel
; queued 1 travel movement
; feature fill
; queued 1 infill movement
; feature travel
; queued 1 travel movement
; feature fill
; queued 1 infill movement
; feature travel
; queued 1 travel movement
; feature fill
; queued 1 infill movement
; feature travel
; queued 1 travel movement
; feature fill
; queued 1 infill movement
; feature travel
; queued 1 travel movement
; feature fill
; queued 1 infill movement
; feature travel
; queued 1 travel movement
; feature fill
; queued 1 infill movement
; feature travel
; queued 1 travel movement
; feature fill
; queued 1 infill movement
; feature travel
; queued 1 travel movement
; feature fill
; queued 1 infill movement
; feature travel
; queued 1 travel movement
; feature fill
; queued 1 infill movement
; feature travel
; queued 1 travel movement
; feature fill
; queued 1 infill movement
; feature travel
; queued 1 travel movement
; feature fill
; queued 1 infill movement
; feature travel
; queued 1 travel movement
; feature fill
; queued 1 infill movement
; feature travel
; queued 1 travel movement
; feature fill
; queued 1 infill movement
; feature travel
; queued 1 travel movement
; feature fill
; queued 1 infill movement
; feature travel
; queued 1 travel movement
; feature fill
; queued 1 infill movement
; feature travel
; queued 1 travel movement
; feature fill
; queued 1 infill movement
; feature travel
; queued 1 travel movement
; feature fill
; queued 1 infill movement
; feature travel
; queued 1 travel movement
; feature fill
; queued 1 infill movement
; feature travel
; queued 1 travel movement
; feature fill
; queued 1 infill movement
; feature travel
; queued 1 travel movement
; feature fill
; queued 1 infill movement
; feature travel
; queued 1 travel movement
; feature fill
; queued 1 infill movement
; feature travel
; queued 1 travel movement
; feature fill
; queued 1 infill movement
; feature travel
; queued 1 travel movement
; feature fill
; queued 1 infill movement
; feature travel
; queued 1 travel movement
; feature fill
; queued 1 infill movement
; feature travel
; queued 1 travel movement
; feature fill
; queued 1 infill movement
; feature travel
; queued 1 travel movement
; feature fill
; queued 1 infill movement
; feature travel
; queued 1 travel movement
; feature fill
; queued 1 infill movement
; feature travel
; queued 1 travel movement
; feature fill
; queued 1 infill movement
; feature travel
; queued 1 travel movement
; feature fill
; queued 1 infill movement
; feature travel
; queued 1 travel movement
; feature fill
; queued 1 infill movement
; feature travel
; queued 1 travel movement
; feature fill
; queued 1 infill movement
; feature travel
; queued 1 travel movement
; feature fill
; queued 1 infill movement
; feature travel
; queued 1 travel movement
; feature fill
; queued 1 infill movement
; feature travel
; queued 1 travel movement
; feature fill
; queued 1 infill movement
; feature travel
; queued 1 travel movement
; feature fill
; queued 1 infill movement
; feature travel
; queued 1 travel movement
; feature fill
; queued 1 infill movement
; feature travel
; queued 1 travel movement
; feature fill
; queued 1 infill movement
; feature travel
; queued 1 travel movement
; feature fill
; queued 1 infill movement
; feature travel
; queued 1 travel movement
; feature fill
; queued 1 infill movement
; feature travel
; queued 1 travel movement
; feature fill
; queued 1 infill movement
; feature travel
; queued 1 travel movement
; feature fill
; queued 1 infill movement
; feature travel
; queued 1 travel movement
; feature fill
; queued 1 infill movement
; feature travel
; queued 1 travel movement
; feature fill
; queued 1 infill movement
; feature travel
; queued 1 travel movement
; feature fill
; queued 1 infill movement
; feature travel
; queued 1 travel movement
; feature fill
; queued 1 infill movement
; feature travel
; queued 1 travel movement
; feature fill
; queued 1 infill movement
; feature travel
; queued 1 travel movement
; feature fill
; queued 1 infill movement
; feature travel
; queued 1 travel movement
; feature fill
; queued 1 infill movement
; feature travel
; queued 1 travel movement
; feature fill
; queued 1 infill movement
; feature travel
; queued 1 travel movement
; feature fill
; queued 1 infill movement
; feature travel
; queued 1 travel movement
; feature fill
; queued 1 infill movement
; feature travel
; queued 1 travel movement
; feature fill
; queued 1 infill movement
; feature travel
; queued 1 travel movement
; feature fill
; queued 1 infill movement
; feature travel
; queued 1 travel movement
; feature fill
; queued 1 infill movement
; feature travel
; queued 1 travel movement
; feature fill
; queued 1 infill movement
; feature travel
; queued 1 travel movement
; feature fill
; queued 1 infill movement
; feature travel
; queued 1 travel movement
; feature fill
; queued 1 infill movement
; Start 140 queued infill moves
; feature travel
PRIO_OFF
G0 X9.53779 Y-11.8645  ;Travel to end
; Adjusted extrusion move
; feature travel
PRIO_OFF
