;---BEGIN HEADER
; Generated by DropletSlicer
; Version: 3.4.4
; Date: Wednesday, May 29, 2024
; Time: 04:22:00 PM
G64 ;continuous path mode
G71 ;millimeters
G56 ;origin at center
OVR=100
OVRRAP=20
DO PRIO_ON_PATH_OFFSET=0.5*PRIO_PULSE_DISTANCE
RECOMMENDED_RECIPE="4008 Aluminum Wire"
CheckRecommendedRecipe
BUILDPROCESSORINTERFACEVERSION=1177
CheckBPVersion
OuterPerimeterFrequency=300
InnerPerimeterFrequency=400
ThinFeatureFrequency=300
UnsupportedStepoutFrequency=300
SupportedStepoutFrequency=300
FillFrequency=400
SupportWallFrequency=100
SupportPillarFrequency=100
;BUILDPROCESSORINTERFACEVERSION=1177
PART_MASS_CONSUMPTION=0
SUPPORT_MASS_CONSUMPTION=0
G0 X0 Y0 ;reset z
MSG("Print Started")
;---END HEADER
;---BEGIN PRINT STATISTICS
;TOTAL WIRE FEED ESTIMATE:
;    Total Drops: 97,460.43
;      Total Mass: 14.13 g
;    Part Drops: 97,460.43
;      Part Mass: 14.13 g
;    Support Drops: 0.00
;      Support Mass: 0.00 g
;    Part Density: 100.0%
;---END PRINT STATISTICS
;XY Extents: [-24.845 -4.637] [24.845 4.637]
;NaiveEstimatedPrintTime=484.25931344209994
;SupportedStepoutFrequency=300
EstimatedPrintTime=453.9104919433594
;ZCount = 1
;ExtraChevronOffset = 10
NumberOfLayers=42
LayersCompleted=0
;Mass values below are in kilograms
TOTAL_MASS=0.014131762
PART_MASS=0.014131762
SUPPORT_MASS=0.000000000
CheckMass
DO PRIO_PULSE_DISTANCE=DROP_SCALE
DO PRIO_ON_PATH_OFFSET=0.5*PRIO_PULSE_DISTANCE
PARAM_SETUP
;ChunkSize=5
; 
;========================
; layer 0, Z = 0.2400
; 
; reset extrusion
STOPRE
PRESETON(E, 0)
DO PRIO_PULSE_DISTANCE=DROP_SCALE
DO PRIO_ON_PATH_OFFSET=0.5*PRIO_PULSE_DISTANCE
FEATURE_TYPE=0
;outer: (25.2604,-5.0521) (25.2604,5.0521) (-25.2604,5.0521) (-25.2604,-5.0521) (24.6604,-5.0521) holes: !
;overhangs:!
; 
; feature plane change
G0 X0 Y0 Z0.24 ;Plane Change
; 
; feature travel
G0 X17.63483 Y-4.637 ;Travel
; 
; feature outer perimeter
G1 F24000 FL[E] = OuterPerimeterFrequency * DROP_SCALE * 60
DO PRIO_PULSE_DISTANCE=DROP_SCALE
DO PRIO_ON_PATH_OFFSET=0.5*PRIO_PULSE_DISTANCE
PRIO_ON
G1 X24.8454 Y-4.637 E16.96604 
G1 X24.8454 Y4.637 E38.78721 
G1 X-24.8454 Y4.637 E155.70674 
G1 X-24.8454 Y-4.637 E177.52792 
G1 X17.63483 Y-4.637 E277.48141 
; 
; feature travel
PRIO_OFF
G0 X17.63483 Y-4.286 ;Travel
; 
; feature inner perimeter
G1 F24000 FL[E] = InnerPerimeterFrequency * DROP_SCALE * 60
PRIO_ON
G1 X-24.4944 Y-4.286 E355.49851 
G1 X-24.4944 Y4.286 E371.37259 
G1 X24.4944 Y4.286 E462.09259 
G1 X24.4944 Y-4.286 E477.96666 
G1 X17.63483 Y-4.286 E490.66956 
; 
; feature travel
PRIO_OFF
G0 X17.86945 Y-4.2863 ;Travel
; 
; feature fill
G1 F24000 FL[E] = FillFrequency * DROP_SCALE * 60
PRIO_ON
G1 X24.4947 Y-1.8749 E504.49397 
; 
; feature travel
PRIO_OFF
G0 X24.4947 Y-1.39602 ;Travel
; 
; feature fill
PRIO_ON
G1 X16.55373 Y-4.2863 E521.06377 
; 
; feature travel
PRIO_OFF
G0 X15.23802 Y-4.2863 ;Travel
; 
; feature fill
PRIO_ON
G1 X24.4947 Y-0.91714 E540.37897 
; 
; feature travel
PRIO_OFF
G0 X24.4947 Y-0.43826 ;Travel
; 
; feature fill
PRIO_ON
G1 X13.92231 Y-4.2863 E562.43957 
; 
; feature travel
PRIO_OFF
G0 X12.6066 Y-4.2863 ;Travel
; 
; feature fill
PRIO_ON
G1 X24.4947 Y0.04062 E587.24556 
; 
; feature travel
PRIO_OFF
G0 X24.4947 Y0.5195 ;Travel
; 
; feature fill
PRIO_ON
G1 X11.29089 Y-4.2863 E614.79694 
; 
; feature travel
PRIO_OFF
G0 X9.97517 Y-4.2863 ;Travel
; 
; feature fill
PRIO_ON
G1 X24.4947 Y0.99838 E645.09372 
; 
; feature travel
PRIO_OFF
G0 X24.4947 Y1.47726 ;Travel
; 
; feature fill
PRIO_ON
G1 X8.65946 Y-4.2863 E678.1359 
; 
; feature travel
PRIO_OFF
G0 X7.34375 Y-4.2863 ;Travel
; 
; feature fill
PRIO_ON
G1 X24.4947 Y1.95614 E713.92346 
; 
; feature travel
PRIO_OFF
G0 X24.4947 Y2.43502 ;Travel
; 
; feature fill
PRIO_ON
G1 X6.02804 Y-4.2863 E752.45643 
; 
; feature travel
PRIO_OFF
G0 X4.71233 Y-4.2863 ;Travel
; 
; feature fill
PRIO_ON
G1 X24.4947 Y2.9139 E793.73479 
; 
; feature travel
PRIO_OFF
G0 X24.4947 Y3.39278 ;Travel
; 
; feature fill
PRIO_ON
G1 X3.39661 Y-4.2863 E837.75854 
; 
; feature travel
PRIO_OFF
G0 X2.0809 Y-4.2863 ;Travel
; 
; feature fill
PRIO_ON
G1 X24.4947 Y3.87166 E884.52769 
; 
; feature travel
PRIO_OFF
G0 X24.31821 Y4.2863 ;Travel
; 
; feature fill
PRIO_ON
G1 X0.76519 Y-4.2863 E933.67398 
; 
; feature travel
PRIO_OFF
G0 X-0.55052 Y-4.2863 ;Travel
; 
; feature fill
PRIO_ON
G1 X23.0025 Y4.2863 E982.82026 
; 
; feature travel
PRIO_OFF
G0 X21.68679 Y4.2863 ;Travel
; 
; feature fill
PRIO_ON
G1 X-1.86623 Y-4.2863 E1031.96655 
; 
; feature travel
PRIO_OFF
G0 X-3.18195 Y-4.2863 ;Travel
; 
; feature fill
PRIO_ON
G1 X20.37108 Y4.2863 E1081.11283 
; 
; feature travel
PRIO_OFF
G0 X19.05537 Y4.2863 ;Travel
; 
; feature fill
PRIO_ON
G1 X-4.49766 Y-4.2863 E1130.25912 
; 
; feature travel
PRIO_OFF
G0 X-5.81337 Y-4.2863 ;Travel
; 
; feature fill
PRIO_ON
G1 X17.73965 Y4.2863 E1179.4054 
; 
; feature travel
PRIO_OFF
G0 X16.42394 Y4.2863 ;Travel
; 
; feature fill
PRIO_ON
G1 X-7.12908 Y-4.2863 E1228.55169 
; 
; feature travel
PRIO_OFF
G0 X-8.44479 Y-4.2863 ;Travel
; 
; feature fill
PRIO_ON
G1 X15.10823 Y4.2863 E1277.69798 
; 
; feature travel
PRIO_OFF
G0 X13.79252 Y4.2863 ;Travel
; 
; feature fill
PRIO_ON
G1 X-9.76051 Y-4.2863 E1326.84426 
; 
; feature travel
PRIO_OFF
G0 X-11.07622 Y-4.2863 ;Travel
; 
; feature fill
PRIO_ON
G1 X12.47681 Y4.2863 E1375.99055 
; 
; feature travel
PRIO_OFF
G0 X11.16109 Y4.2863 ;Travel
; 
; feature fill
PRIO_ON
G1 X-12.39193 Y-4.2863 E1425.13683 
; 
; feature travel
PRIO_OFF
G0 X-13.70764 Y-4.2863 ;Travel
; 
; feature fill
PRIO_ON
G1 X9.84538 Y4.2863 E1474.28312 
; 
; feature travel
PRIO_OFF
G0 X8.52967 Y4.2863 ;Travel
; 
; feature fill
PRIO_ON
G1 X-15.02335 Y-4.2863 E1523.4294 
; 
; feature travel
PRIO_OFF
G0 X-16.33907 Y-4.2863 ;Travel
; 
; feature fill
PRIO_ON
G1 X7.21396 Y4.2863 E1572.57569 
; 
; feature travel
PRIO_OFF
G0 X5.89825 Y4.2863 ;Travel
; 
; feature fill
PRIO_ON
G1 X-17.65478 Y-4.2863 E1621.72197 
; 
; feature travel
PRIO_OFF
G0 X-18.97049 Y-4.2863 ;Travel
; 
; feature fill
PRIO_ON
G1 X4.58253 Y4.2863 E1670.86826 
; 
; feature travel
PRIO_OFF
G0 X3.26682 Y4.2863 ;Travel
; 
; feature fill
PRIO_ON
G1 X-20.2862 Y-4.2863 E1720.01455 
; 
; feature travel
PRIO_OFF
G0 X-21.60191 Y-4.2863 ;Travel
; 
; feature fill
PRIO_ON
G1 X1.95111 Y4.2863 E1769.16083 
; 
; feature travel
PRIO_OFF
G0 X0.6354 Y4.2863 ;Travel
; 
; feature fill
PRIO_ON
G1 X-22.91763 Y-4.2863 E1818.30712 
; 
; feature travel
PRIO_OFF
G0 X-24.23334 Y-4.2863 ;Travel
; 
; feature fill
PRIO_ON
G1 X-0.68031 Y4.2863 E1867.4534 
; 
; feature travel
PRIO_OFF
G0 X-1.99603 Y4.2863 ;Travel
; 
; feature fill
PRIO_ON
G1 X-24.4947 Y-3.90255 E1914.39966 
; 
; feature travel
PRIO_OFF
G0 X-24.4947 Y-3.42367 ;Travel
; 
; feature fill
PRIO_ON
G1 X-3.31174 Y4.2863 E1958.60052 
; 
; feature travel
PRIO_OFF
G0 X-4.62745 Y4.2863 ;Travel
; 
; feature fill
PRIO_ON
G1 X-24.4947 Y-2.94479 E2000.05598 
; 
; feature travel
PRIO_OFF
G0 X-24.4947 Y-2.46591 ;Travel
; 
; feature fill
PRIO_ON
G1 X-5.94316 Y4.2863 E2038.76605 
; 
; feature travel
PRIO_OFF
G0 X-7.25887 Y4.2863 ;Travel
; 
; feature fill
PRIO_ON
G1 X-24.4947 Y-1.98703 E2074.73072 
; 
; feature travel
PRIO_OFF
G0 X-24.4947 Y-1.50815 ;Travel
; 
; feature fill
PRIO_ON
G1 X-8.57459 Y4.2863 E2107.95 
; 
; feature travel
PRIO_OFF
G0 X-9.8903 Y4.2863 ;Travel
; 
; feature fill
PRIO_ON
G1 X-24.4947 Y-1.02927 E2138.42389 
; 
; feature travel
PRIO_OFF
G0 X-24.4947 Y-0.55039 ;Travel
; 
; feature fill
PRIO_ON
G1 X-11.20601 Y4.2863 E2166.15238 
; 
; feature travel
PRIO_OFF
G0 X-12.52172 Y4.2863 ;Travel
; 
; feature fill
PRIO_ON
G1 X-24.4947 Y-0.07151 E2191.13547 
; 
; feature travel
PRIO_OFF
G0 X-24.4947 Y0.40737 ;Travel
; 
; feature fill
PRIO_ON
G1 X-13.83743 Y4.2863 E2213.37317 
; 
; feature travel
PRIO_OFF
G0 X-15.15314 Y4.2863 ;Travel
; 
; feature fill
PRIO_ON
G1 X-24.4947 Y0.88625 E2232.86547 
; 
; feature travel
PRIO_OFF
G0 X-24.4947 Y1.36513 ;Travel
; 
; feature fill
PRIO_ON
G1 X-16.46886 Y4.2863 E2249.61238 
; 
; feature travel
PRIO_OFF
G0 X-17.78457 Y4.2863 ;Travel
; 
; feature fill
PRIO_ON
G1 X-24.4947 Y1.84401 E2263.6139 
; 
; feature travel
PRIO_OFF
G0 X-24.4947 Y2.32289 ;Travel
; 
; feature fill
PRIO_ON
G1 X-19.10028 Y4.2863 E2274.87002 
; 
; feature travel
PRIO_OFF
G0 X-20.41599 Y4.2863 ;Travel
; 
; feature fill
PRIO_ON
G1 X-24.4947 Y2.80177 E2283.38074 
; 
; feature travel
PRIO_OFF
G0 X-24.4947 Y3.28065 ;Travel
; 
; feature fill
PRIO_ON
G1 X-21.7317 Y4.2863 E2289.14607 
; 
; feature travel
PRIO_OFF
G0 X-23.04742 Y4.2863 ;Travel
; 
; feature fill
PRIO_ON
G1 X-24.4947 Y3.75953 E2292.16601 
; 
; feature travel
PRIO_OFF
G0 X-24.4947 Y4.23841 ;Travel
; 
; feature fill
PRIO_ON
G1 X-24.36313 Y4.2863 E2292.44055 
; 
; feature travel
PRIO_OFF
G0 X19.18516 Y-4.2863 ;Travel
; 
; feature fill
PRIO_ON
G1 X24.4947 Y-2.35378 E2303.51956 
; 
; feature travel
PRIO_OFF
G0 X24.4947 Y-2.83266 ;Travel
; 
; feature fill
PRIO_ON
G1 X20.50087 Y-4.2863 E2311.85318 
; 
; feature travel
PRIO_OFF
G0 X21.81658 Y-4.2863 ;Travel
; 
; feature fill
PRIO_ON
G1 X24.4947 Y-3.31154 E2317.4414 
; 
; feature travel
PRIO_OFF
G0 X24.4947 Y-3.79042 ;Travel
; 
; feature fill
PRIO_ON
G1 X23.13229 Y-4.2863 E2320.28423 
PRIO_OFF
LayersCompleted=1
M1
; 
;========================
; layer 1, Z = 0.4800
; 
; reset extrusion
STOPRE
PRESETON(E, 0)
DO PRIO_PULSE_DISTANCE=DROP_SCALE
DO PRIO_ON_PATH_OFFSET=0.5*PRIO_PULSE_DISTANCE
;outer: (25.2604,-5.0521) (25.2604,5.0521) (-25.2604,5.0521) (-25.2604,-5.0521) (23.4604,-5.0521) holes: !
;overhangs:!
; 
; feature plane change
G0 X23.13229 Y-4.2863 Z0.48 ;Plane Change
; 
; feature travel
G0 X20.77862 Y4.637 ;Travel
; 
; feature outer perimeter
G1 F24000 FL[E] = OuterPerimeterFrequency * DROP_SCALE * 60
PRIO_ON
G1 X24.8454 Y4.637 E9.5689 
G1 X24.8454 Y-4.637 E31.39008 
G1 X-24.8454 Y-4.637 E148.30961 
G1 X-24.8454 Y4.637 E170.13078 
G1 X20.77862 Y4.637 E277.48141 
; 
; feature travel
PRIO_OFF
G0 X20.77862 Y4.286 ;Travel
; 
; feature inner perimeter
G1 F24000 FL[E] = InnerPerimeterFrequency * DROP_SCALE * 60
PRIO_ON
G1 X-24.4944 Y4.286 E361.32033 
G1 X-24.4944 Y-4.286 E377.19441 
G1 X24.4944 Y-4.286 E467.91441 
G1 X24.4944 Y4.286 E483.78848 
G1 X20.77862 Y4.286 E490.66956 
; 
; feature travel
PRIO_OFF
G0 X20.73828 Y4.2863 ;Travel
; 
; feature fill
G1 F24000 FL[E] = FillFrequency * DROP_SCALE * 60
PRIO_ON
G1 X16.74081 Y-4.2863 E509.21626 
; 
; feature travel
PRIO_OFF
G0 X17.23733 Y-4.2863 ;Travel
; 
; feature fill
PRIO_ON
G1 X21.2348 Y4.2863 E527.76296 
; 
; feature travel
PRIO_OFF
G0 X21.73132 Y4.2863 ;Travel
; 
; feature fill
PRIO_ON
G1 X17.73385 Y-4.2863 E546.30966 
; 
; feature travel
PRIO_OFF
G0 X18.23037 Y-4.2863 ;Travel
; 
; feature fill
PRIO_ON
G1 X22.22784 Y4.2863 E564.85636 
; 
; feature travel
PRIO_OFF
G0 X22.72436 Y4.2863 ;Travel
; 
; feature fill
PRIO_ON
G1 X18.72689 Y-4.2863 E583.40307 
; 
; feature travel
PRIO_OFF
G0 X19.22341 Y-4.2863 ;Travel
; 
; feature fill
PRIO_ON
G1 X23.22088 Y4.2863 E601.94977 
; 
; feature travel
PRIO_OFF
G0 X23.7174 Y4.2863 ;Travel
; 
; feature fill
PRIO_ON
G1 X19.71993 Y-4.2863 E620.49647 
; 
; feature travel
PRIO_OFF
G0 X20.21645 Y-4.2863 ;Travel
; 
; feature fill
PRIO_ON
G1 X24.21392 Y4.2863 E639.04317 
; 
; feature travel
PRIO_OFF
G0 X24.4947 Y3.82365 ;Travel
; 
; feature fill
PRIO_ON
G1 X20.71297 Y-4.2863 E656.58893 
; 
; feature travel
PRIO_OFF
G0 X21.20949 Y-4.2863 ;Travel
; 
; feature fill
PRIO_ON
G1 X24.4947 Y2.75886 E671.83103 
; 
; feature travel
PRIO_OFF
G0 X24.4947 Y1.69407 ;Travel
; 
; feature fill
PRIO_ON
G1 X21.70601 Y-4.2863 E684.76947 
; 
; feature travel
PRIO_OFF
G0 X22.20253 Y-4.2863 ;Travel
; 
; feature fill
PRIO_ON
G1 X24.4947 Y0.62928 E695.40425 
; 
; feature travel
PRIO_OFF
G0 X24.4947 Y-0.43552 ;Travel
; 
; feature fill
PRIO_ON
G1 X22.69905 Y-4.2863 E703.73537 
; 
; feature travel
PRIO_OFF
G0 X23.19557 Y-4.2863 ;Travel
; 
; feature fill
PRIO_ON
G1 X24.4947 Y-1.50031 E709.76283 
; 
; feature travel
PRIO_OFF
G0 X24.4947 Y-2.5651 ;Travel
; 
; feature fill
PRIO_ON
G1 X23.69209 Y-4.2863 E713.48663 
; 
; feature travel
PRIO_OFF
G0 X24.18861 Y-4.2863 ;Travel
; 
; feature fill
PRIO_ON
G1 X24.4947 Y-3.62989 E714.90677 
; 
; feature travel
PRIO_OFF
G0 X16.24429 Y-4.2863 ;Travel
; 
; feature fill
PRIO_ON
G1 X20.24176 Y4.2863 E733.45347 
; 
; feature travel
PRIO_OFF
G0 X19.74524 Y4.2863 ;Travel
; 
; feature fill
PRIO_ON
G1 X15.74777 Y-4.2863 E752.00017 
; 
; feature travel
PRIO_OFF
G0 X15.25125 Y-4.2863 ;Travel
; 
; feature fill
PRIO_ON
G1 X19.24872 Y4.2863 E770.54687 
; 
; feature travel
PRIO_OFF
G0 X18.7522 Y4.2863 ;Travel
; 
; feature fill
PRIO_ON
G1 X14.75473 Y-4.2863 E789.09357 
; 
; feature travel
PRIO_OFF
G0 X14.25821 Y-4.2863 ;Travel
; 
; feature fill
PRIO_ON
G1 X18.25568 Y4.2863 E807.64027 
; 
; feature travel
PRIO_OFF
G0 X17.75916 Y4.2863 ;Travel
; 
; feature fill
PRIO_ON
G1 X13.76169 Y-4.2863 E826.18697 
; 
; feature travel
PRIO_OFF
G0 X13.26517 Y-4.2863 ;Travel
; 
; feature fill
PRIO_ON
G1 X17.26264 Y4.2863 E844.73367 
; 
; feature travel
PRIO_OFF
G0 X16.76612 Y4.2863 ;Travel
; 
; feature fill
PRIO_ON
G1 X12.76865 Y-4.2863 E863.28037 
; 
; feature travel
PRIO_OFF
G0 X12.27213 Y-4.2863 ;Travel
; 
; feature fill
PRIO_ON
G1 X16.2696 Y4.2863 E881.82707 
; 
; feature travel
PRIO_OFF
G0 X15.77308 Y4.2863 ;Travel
; 
; feature fill
PRIO_ON
G1 X11.77561 Y-4.2863 E900.37378 
; 
; feature travel
PRIO_OFF
G0 X11.27909 Y-4.2863 ;Travel
; 
; feature fill
PRIO_ON
G1 X15.27656 Y4.2863 E918.92048 
; 
; feature travel
PRIO_OFF
G0 X14.78004 Y4.2863 ;Travel
; 
; feature fill
PRIO_ON
G1 X10.78257 Y-4.2863 E937.46718 
; 
; feature travel
PRIO_OFF
G0 X10.28605 Y-4.2863 ;Travel
; 
; feature fill
PRIO_ON
G1 X14.28352 Y4.2863 E956.01388 
; 
; feature travel
PRIO_OFF
G0 X13.787 Y4.2863 ;Travel
; 
; feature fill
PRIO_ON
G1 X9.78953 Y-4.2863 E974.56058 
; 
; feature travel
PRIO_OFF
G0 X9.29301 Y-4.2863 ;Travel
; 
; feature fill
PRIO_ON
G1 X13.29048 Y4.2863 E993.10728 
; 
; feature travel
PRIO_OFF
G0 X12.79396 Y4.2863 ;Travel
; 
; feature fill
PRIO_ON
G1 X8.79649 Y-4.2863 E1011.65398 
; 
; feature travel
PRIO_OFF
G0 X8.29997 Y-4.2863 ;Travel
; 
; feature fill
PRIO_ON
G1 X12.29744 Y4.2863 E1030.20068 
; 
; feature travel
PRIO_OFF
G0 X11.80092 Y4.2863 ;Travel
; 
; feature fill
PRIO_ON
G1 X7.80345 Y-4.2863 E1048.74738 
; 
; feature travel
PRIO_OFF
G0 X7.30693 Y-4.2863 ;Travel
; 
; feature fill
PRIO_ON
G1 X11.3044 Y4.2863 E1067.29409 
; 
; feature travel
PRIO_OFF
G0 X10.80788 Y4.2863 ;Travel
; 
; feature fill
PRIO_ON
G1 X6.81041 Y-4.2863 E1085.84079 
; 
; feature travel
PRIO_OFF
G0 X6.31389 Y-4.2863 ;Travel
; 
; feature fill
PRIO_ON
G1 X10.31136 Y4.2863 E1104.38749 
; 
; feature travel
PRIO_OFF
G0 X9.81484 Y4.2863 ;Travel
; 
; feature fill
PRIO_ON
G1 X5.81737 Y-4.2863 E1122.93419 
; 
; feature travel
PRIO_OFF
G0 X5.32085 Y-4.2863 ;Travel
; 
; feature fill
PRIO_ON
G1 X9.31832 Y4.2863 E1141.48089 
; 
; feature travel
PRIO_OFF
G0 X8.8218 Y4.2863 ;Travel
; 
; feature fill
PRIO_ON
G1 X4.82433 Y-4.2863 E1160.02759 
; 
; feature travel
PRIO_OFF
G0 X4.32781 Y-4.2863 ;Travel
; 
; feature fill
PRIO_ON
G1 X8.32528 Y4.2863 E1178.57429 
; 
; feature travel
PRIO_OFF
G0 X7.82876 Y4.2863 ;Travel
; 
; feature fill
PRIO_ON
G1 X3.83129 Y-4.2863 E1197.12099 
; 
; feature travel
PRIO_OFF
G0 X3.33477 Y-4.2863 ;Travel
; 
; feature fill
PRIO_ON
G1 X7.33224 Y4.2863 E1215.66769 
; 
; feature travel
PRIO_OFF
G0 X6.83572 Y4.2863 ;Travel
; 
; feature fill
PRIO_ON
G1 X2.83825 Y-4.2863 E1234.2144 
; 
; feature travel
PRIO_OFF
G0 X2.34173 Y-4.2863 ;Travel
; 
; feature fill
PRIO_ON
G1 X6.3392 Y4.2863 E1252.7611 
; 
; feature travel
PRIO_OFF
G0 X5.84268 Y4.2863 ;Travel
; 
; feature fill
PRIO_ON
G1 X1.84521 Y-4.2863 E1271.3078 
; 
; feature travel
PRIO_OFF
G0 X1.34869 Y-4.2863 ;Travel
; 
; feature fill
PRIO_ON
G1 X5.34616 Y4.2863 E1289.8545 
; 
; feature travel
PRIO_OFF
G0 X4.84964 Y4.2863 ;Travel
; 
; feature fill
PRIO_ON
G1 X0.85217 Y-4.2863 E1308.4012 
; 
; feature travel
PRIO_OFF
G0 X0.35565 Y-4.2863 ;Travel
; 
; feature fill
PRIO_ON
G1 X4.35312 Y4.2863 E1326.9479 
; 
; feature travel
PRIO_OFF
G0 X3.8566 Y4.2863 ;Travel
; 
; feature fill
PRIO_ON
G1 X-0.14087 Y-4.2863 E1345.4946 
; 
; feature travel
PRIO_OFF
G0 X-0.63739 Y-4.2863 ;Travel
; 
; feature fill
PRIO_ON
G1 X3.36008 Y4.2863 E1364.0413 
; 
; feature travel
PRIO_OFF
G0 X2.86356 Y4.2863 ;Travel
; 
; feature fill
PRIO_ON
G1 X-1.13391 Y-4.2863 E1382.588 
; 
; feature travel
PRIO_OFF
G0 X-1.63043 Y-4.2863 ;Travel
; 
; feature fill
PRIO_ON
G1 X2.36704 Y4.2863 E1401.1347 
; 
; feature travel
PRIO_OFF
G0 X1.87052 Y4.2863 ;Travel
; 
; feature fill
PRIO_ON
G1 X-2.12695 Y-4.2863 E1419.68141 
; 
; feature travel
PRIO_OFF
G0 X-2.62347 Y-4.2863 ;Travel
; 
; feature fill
PRIO_ON
G1 X1.374 Y4.2863 E1438.22811 
; 
; feature travel
PRIO_OFF
G0 X0.87748 Y4.2863 ;Travel
; 
; feature fill
PRIO_ON
G1 X-3.11999 Y-4.2863 E1456.77481 
; 
; feature travel
PRIO_OFF
G0 X-3.61651 Y-4.2863 ;Travel
; 
; feature fill
PRIO_ON
G1 X0.38096 Y4.2863 E1475.32151 
; 
; feature travel
PRIO_OFF
G0 X-0.11556 Y4.2863 ;Travel
; 
; feature fill
PRIO_ON
G1 X-4.11303 Y-4.2863 E1493.86821 
; 
; feature travel
PRIO_OFF
G0 X-4.60955 Y-4.2863 ;Travel
; 
; feature fill
PRIO_ON
G1 X-0.61208 Y4.2863 E1512.41491 
; 
; feature travel
PRIO_OFF
G0 X-1.10861 Y4.2863 ;Travel
; 
; feature fill
PRIO_ON
G1 X-5.10607 Y-4.2863 E1530.96161 
; 
; feature travel
PRIO_OFF
G0 X-5.60259 Y-4.2863 ;Travel
; 
; feature fill
PRIO_ON
G1 X-1.60513 Y4.2863 E1549.50831 
; 
; feature travel
PRIO_OFF
G0 X-2.10165 Y4.2863 ;Travel
; 
; feature fill
PRIO_ON
G1 X-6.09911 Y-4.2863 E1568.05501 
; 
; feature travel
PRIO_OFF
G0 X-6.59563 Y-4.2863 ;Travel
; 
; feature fill
PRIO_ON
G1 X-2.59817 Y4.2863 E1586.60172 
; 
; feature travel
PRIO_OFF
G0 X-3.09469 Y4.2863 ;Travel
; 
; feature fill
PRIO_ON
G1 X-7.09215 Y-4.2863 E1605.14842 
; 
; feature travel
PRIO_OFF
G0 X-7.58867 Y-4.2863 ;Travel
; 
; feature fill
PRIO_ON
G1 X-3.59121 Y4.2863 E1623.69512 
; 
; feature travel
PRIO_OFF
G0 X-4.08773 Y4.2863 ;Travel
; 
; feature fill
PRIO_ON
G1 X-8.08519 Y-4.2863 E1642.24182 
; 
; feature travel
PRIO_OFF
G0 X-8.58171 Y-4.2863 ;Travel
; 
; feature fill
PRIO_ON
G1 X-4.58425 Y4.2863 E1660.78852 
; 
; feature travel
PRIO_OFF
G0 X-5.08077 Y4.2863 ;Travel
; 
; feature fill
PRIO_ON
G1 X-9.07823 Y-4.2863 E1679.33522 
; 
; feature travel
PRIO_OFF
G0 X-9.57475 Y-4.2863 ;Travel
; 
; feature fill
PRIO_ON
G1 X-5.57729 Y4.2863 E1697.88192 
; 
; feature travel
PRIO_OFF
G0 X-6.07381 Y4.2863 ;Travel
; 
; feature fill
PRIO_ON
G1 X-10.07127 Y-4.2863 E1716.42862 
; 
; feature travel
PRIO_OFF
G0 X-10.56779 Y-4.2863 ;Travel
; 
; feature fill
PRIO_ON
G1 X-6.57033 Y4.2863 E1734.97532 
; 
; feature travel
PRIO_OFF
G0 X-7.06685 Y4.2863 ;Travel
; 
; feature fill
PRIO_ON
G1 X-11.06431 Y-4.2863 E1753.52203 
; 
; feature travel
PRIO_OFF
G0 X-11.56083 Y-4.2863 ;Travel
; 
; feature fill
PRIO_ON
G1 X-7.56337 Y4.2863 E1772.06873 
; 
; feature travel
PRIO_OFF
G0 X-8.05989 Y4.2863 ;Travel
; 
; feature fill
PRIO_ON
G1 X-12.05735 Y-4.2863 E1790.61543 
; 
; feature travel
PRIO_OFF
G0 X-12.55387 Y-4.2863 ;Travel
; 
; feature fill
PRIO_ON
G1 X-8.55641 Y4.2863 E1809.16213 
; 
; feature travel
PRIO_OFF
G0 X-9.05293 Y4.2863 ;Travel
; 
; feature fill
PRIO_ON
G1 X-13.0504 Y-4.2863 E1827.70883 
; 
; feature travel
PRIO_OFF
G0 X-13.54692 Y-4.2863 ;Travel
; 
; feature fill
PRIO_ON
G1 X-9.54945 Y4.2863 E1846.25553 
; 
; feature travel
PRIO_OFF
G0 X-10.04597 Y4.2863 ;Travel
; 
; feature fill
PRIO_ON
G1 X-14.04344 Y-4.2863 E1864.80223 
; 
; feature travel
PRIO_OFF
G0 X-14.53996 Y-4.2863 ;Travel
; 
; feature fill
PRIO_ON
G1 X-10.54249 Y4.2863 E1883.34893 
; 
; feature travel
PRIO_OFF
G0 X-11.03901 Y4.2863 ;Travel
; 
; feature fill
PRIO_ON
G1 X-15.03648 Y-4.2863 E1901.89563 
; 
; feature travel
PRIO_OFF
G0 X-15.533 Y-4.2863 ;Travel
; 
; feature fill
PRIO_ON
G1 X-11.53553 Y4.2863 E1920.44234 
; 
; feature travel
PRIO_OFF
G0 X-12.03205 Y4.2863 ;Travel
; 
; feature fill
PRIO_ON
G1 X-16.02952 Y-4.2863 E1938.98904 
; 
; feature travel
PRIO_OFF
G0 X-16.52604 Y-4.2863 ;Travel
; 
; feature fill
PRIO_ON
G1 X-12.52857 Y4.2863 E1957.53574 
; 
; feature travel
PRIO_OFF
G0 X-13.02509 Y4.2863 ;Travel
; 
; feature fill
PRIO_ON
G1 X-17.02256 Y-4.2863 E1976.08244 
; 
; feature travel
PRIO_OFF
G0 X-17.51908 Y-4.2863 ;Travel
; 
; feature fill
PRIO_ON
G1 X-13.52161 Y4.2863 E1994.62914 
; 
; feature travel
PRIO_OFF
G0 X-14.01813 Y4.2863 ;Travel
; 
; feature fill
PRIO_ON
G1 X-18.0156 Y-4.2863 E2013.17584 
; 
; feature travel
PRIO_OFF
G0 X-18.51212 Y-4.2863 ;Travel
; 
; feature fill
PRIO_ON
G1 X-14.51465 Y4.2863 E2031.72254 
; 
; feature travel
PRIO_OFF
G0 X-15.01117 Y4.2863 ;Travel
; 
; feature fill
PRIO_ON
G1 X-19.00864 Y-4.2863 E2050.26924 
; 
; feature travel
PRIO_OFF
G0 X-19.50516 Y-4.2863 ;Travel
; 
; feature fill
PRIO_ON
G1 X-15.50769 Y4.2863 E2068.81594 
; 
; feature travel
PRIO_OFF
G0 X-16.00421 Y4.2863 ;Travel
; 
; feature fill
PRIO_ON
G1 X-20.00168 Y-4.2863 E2087.36264 
; 
; feature travel
PRIO_OFF
G0 X-20.4982 Y-4.2863 ;Travel
; 
; feature fill
PRIO_ON
G1 X-16.50073 Y4.2863 E2105.90935 
; 
; feature travel
PRIO_OFF
G0 X-16.99725 Y4.2863 ;Travel
; 
; feature fill
PRIO_ON
G1 X-20.99472 Y-4.2863 E2124.45605 
; 
; feature travel
PRIO_OFF
G0 X-21.49124 Y-4.2863 ;Travel
; 
; feature fill
PRIO_ON
G1 X-17.49377 Y4.2863 E2143.00275 
; 
; feature travel
PRIO_OFF
G0 X-17.99029 Y4.2863 ;Travel
; 
; feature fill
PRIO_ON
G1 X-21.98776 Y-4.2863 E2161.54945 
; 
; feature travel
PRIO_OFF
G0 X-22.48428 Y-4.2863 ;Travel
; 
; feature fill
PRIO_ON
G1 X-18.48681 Y4.2863 E2180.09615 
; 
; feature travel
PRIO_OFF
G0 X-18.98333 Y4.2863 ;Travel
; 
; feature fill
PRIO_ON
G1 X-22.9808 Y-4.2863 E2198.64285 
; 
; feature travel
PRIO_OFF
G0 X-23.47732 Y-4.2863 ;Travel
; 
; feature fill
PRIO_ON
G1 X-19.47985 Y4.2863 E2217.18955 
; 
; feature travel
PRIO_OFF
G0 X-19.97637 Y4.2863 ;Travel
; 
; feature fill
PRIO_ON
G1 X-23.97384 Y-4.2863 E2235.73625 
; 
; feature travel
PRIO_OFF
G0 X-24.47036 Y-4.2863 ;Travel
; 
; feature fill
PRIO_ON
G1 X-20.47289 Y4.2863 E2254.28295 
; 
; feature travel
PRIO_OFF
G0 X-20.96941 Y4.2863 ;Travel
; 
; feature fill
PRIO_ON
G1 X-24.4947 Y-3.27371 E2270.63894 
; 
; feature travel
PRIO_OFF
G0 X-24.4947 Y-2.20892 ;Travel
; 
; feature fill
PRIO_ON
G1 X-21.46593 Y4.2863 E2284.69127 
; 
; feature travel
PRIO_OFF
G0 X-21.96245 Y4.2863 ;Travel
; 
; feature fill
PRIO_ON
G1 X-24.4947 Y-1.14413 E2296.43993 
; 
; feature travel
PRIO_OFF
G0 X-24.4947 Y-0.07934 ;Travel
; 
; feature fill
PRIO_ON
G1 X-22.45897 Y4.2863 E2305.88494 
; 
; feature travel
PRIO_OFF
G0 X-22.95549 Y4.2863 ;Travel
; 
; feature fill
PRIO_ON
G1 X-24.4947 Y0.98545 E2313.02628 
; 
; feature travel
PRIO_OFF
G0 X-24.4947 Y2.05024 ;Travel
; 
; feature fill
PRIO_ON
G1 X-23.45201 Y4.2863 E2317.86397 
; 
; feature travel
PRIO_OFF
G0 X-23.94853 Y4.2863 ;Travel
; 
; feature fill
PRIO_ON
G1 X-24.4947 Y3.11503 E2320.39799 
; 
; feature travel
PRIO_OFF
G0 X-24.4947 Y4.17982 ;Travel
; 
; feature fill
PRIO_ON
G1 X-24.44505 Y4.2863 E2320.62836 
PRIO_OFF
LayersCompleted=2
M1
; 
;========================
; layer 2, Z = 0.7200
; 
; reset extrusion
STOPRE
PRESETON(E, 0)
DO PRIO_PULSE_DISTANCE=DROP_SCALE
DO PRIO_ON_PATH_OFFSET=0.5*PRIO_PULSE_DISTANCE
;outer: (25.2604,-5.0521) (25.2604,5.0521) (-25.2604,5.0521) (-25.2604,-5.0521) (22.2604,-5.0521) holes: !
;overhangs:!
; 
; feature plane change
G0 X-24.44505 Y4.2863 Z0.72 ;Plane Change
; 
; feature travel
G0 X18.80579 Y-4.637 ;Travel
; 

; ADD STUFF HERE
;***** DELAY 10 seconds ****
STOPRE
PRESETON(E, 0)
G4 F10 
;***** DELAY 10 seconds ****

;Travel to lower tick -23,-5
PRIO_OFF
G0 X-23.00000 Y-5.0000 ;Travel
;Extrude to -23,-3
PRIO_ON
G1 X-23.00000 Y-3.0000 E2328.31463 ; EInc=7.686274509803752
;Travel to upper tick -23,5
PRIO_OFF
G0 X-23.00000 Y5.0000 ;Travel
;Extrude to -23,3
PRIO_ON
G1 X-23.00000 Y3.0000 E2336.00091 ; EInc=7.686274509803752
;Travel to lower tick -17,-5
PRIO_OFF
G0 X-17.00000 Y-5.0000 ;Travel
;Extrude to -17,-3
PRIO_ON
G1 X-17.00000 Y-3.0000 E2343.68718 ; EInc=7.686274509803752
;Travel to upper tick -17,5
PRIO_OFF
G0 X-17.00000 Y5.0000 ;Travel
;Extrude to -17,3
PRIO_ON
G1 X-17.00000 Y3.0000 E2351.37346 ; EInc=7.686274509803752
;Travel to lower tick -11,-5
PRIO_OFF
G0 X-11.00000 Y-5.0000 ;Travel
;Extrude to -11,-3
PRIO_ON
G1 X-11.00000 Y-3.0000 E2359.05973 ; EInc=7.686274509803752
;Travel to upper tick -11,5
PRIO_OFF
G0 X-11.00000 Y5.0000 ;Travel
;Extrude to -11,3
PRIO_ON
G1 X-11.00000 Y3.0000 E2366.74601 ; EInc=7.686274509803752
;Travel to lower tick -5,-5
PRIO_OFF
G0 X-5.00000 Y-5.0000 ;Travel
;Extrude to -5,-3
PRIO_ON
G1 X-5.00000 Y-3.0000 E2374.43228 ; EInc=7.686274509803752
;Travel to upper tick -5,5
PRIO_OFF
G0 X-5.00000 Y5.0000 ;Travel
;Extrude to -5,3
PRIO_ON
G1 X-5.00000 Y3.0000 E2382.11856 ; EInc=7.686274509803752
;Travel to lower tick 1,-5
PRIO_OFF
G0 X1.00000 Y-5.0000 ;Travel
;Extrude to 1,-3
PRIO_ON
G1 X1.00000 Y-3.0000 E2389.80483 ; EInc=7.686274509803752
;Travel to upper tick 1,5
PRIO_OFF
G0 X1.00000 Y5.0000 ;Travel
;Extrude to 1,3
PRIO_ON
G1 X1.00000 Y3.0000 E2397.49111 ; EInc=7.686274509803752
;Travel to lower tick 7,-5
PRIO_OFF
G0 X7.00000 Y-5.0000 ;Travel
;Extrude to 7,-3
PRIO_ON
G1 X7.00000 Y-3.0000 E2405.17738 ; EInc=7.686274509803752
;Travel to upper tick 7,5
PRIO_OFF
G0 X7.00000 Y5.0000 ;Travel
;Extrude to 7,3
PRIO_ON
G1 X7.00000 Y3.0000 E2412.86365 ; EInc=7.686274509803752
;Travel to lower tick 13,-5
PRIO_OFF
G0 X13.00000 Y-5.0000 ;Travel
;Extrude to 13,-3
PRIO_ON
G1 X13.00000 Y-3.0000 E2420.54993 ; EInc=7.686274509803752
;Travel to upper tick 13,5
PRIO_OFF
G0 X13.00000 Y5.0000 ;Travel
;Extrude to 13,3
PRIO_ON
G1 X13.00000 Y3.0000 E2428.23620 ; EInc=7.686274509803752
;Travel to lower tick 19,-5
PRIO_OFF
G0 X19.00000 Y-5.0000 ;Travel
;Extrude to 19,-3
PRIO_ON
G1 X19.00000 Y-3.0000 E2435.92248 ; EInc=7.686274509803752
;Travel to upper tick 19,5
PRIO_OFF
G0 X19.00000 Y5.0000 ;Travel
;Extrude to 19,3
PRIO_ON
G1 X19.00000 Y3.0000 E2443.60875 ; EInc=7.686274509803752
;Travel to droplet -23,-2
PRIO_OFF
G0 X-23.00000 Y-2.0000 ;Travel
;Extrude droplet -23,-2 with multiplier 1
PRIO_ON
G1 E2445.5687521568602 ; EInc=1.9600000000000364
;Travel to droplet -17,-2
PRIO_OFF
G0 X-17.00000 Y-2.0000 ;Travel
;Extrude droplet -17,-2 with multiplier 2
PRIO_ON
G1 E2449.4887521568603 ; EInc=3.9200000000000728
;Travel to droplet -11,-2
PRIO_OFF
G0 X-11.00000 Y-2.0000 ;Travel
;Extrude droplet -11,-2 with multiplier 4
PRIO_ON
G1 E2457.3287521568604 ; EInc=7.8400000000001455
;Travel to droplet -5,-2
PRIO_OFF
G0 X-5.00000 Y-2.0000 ;Travel
;Extrude droplet -5,-2 with multiplier 6
PRIO_ON
G1 E2469.0887521568607 ; EInc=11.760000000000218
;Travel to droplet 1,-2
PRIO_OFF
G0 X1.00000 Y-2.0000 ;Travel
;Extrude droplet 1,-2 with multiplier 8
PRIO_ON
G1 E2484.7687521568605 ; EInc=15.679999999999836
;Travel to droplet 7,-2
PRIO_OFF
G0 X7.00000 Y-2.0000 ;Travel
;Extrude droplet 7,-2 with multiplier 10
PRIO_ON
G1 E2504.3687521568604 ; EInc=19.59999999999991
;Travel to droplet 13,-2
PRIO_OFF
G0 X13.00000 Y-2.0000 ;Travel
;Extrude droplet 13,-2 with multiplier 12
PRIO_ON
G1 E2527.8887521568604 ; EInc=23.519999999999982
;Travel to droplet 19,-2
PRIO_OFF
G0 X19.00000 Y-2.0000 ;Travel
;Extrude droplet 19,-2 with multiplier 14
PRIO_ON
G1 E2555.3287521568604 ; EInc=27.440000000000055
;Travel to droplet -23,2
PRIO_OFF
G0 X-23.00000 Y2.0000 ;Travel
;Extrude droplet -19,2 with multiplier 1
PRIO_ON
G1 X-19.00000 Y2.0000 E2570.70130 ; EInc=15.372549019607959
;Travel to droplet -17,2
PRIO_OFF
G0 X-17.00000 Y2.0000 ;Travel
;Extrude droplet -13,2 with multiplier 2
PRIO_ON
G1 X-13.00000 Y2.0000 E2601.44640 ; EInc=30.745098039215463
;Travel to droplet -11,2
PRIO_OFF
G0 X-11.00000 Y2.0000 ;Travel
;Extrude droplet -7,2 with multiplier 4
PRIO_ON
G1 X-7.00000 Y2.0000 E2662.93660 ; EInc=61.49019607843138
;Travel to droplet -5,2
PRIO_OFF
G0 X-5.00000 Y2.0000 ;Travel
;Extrude droplet -1,2 with multiplier 6
PRIO_ON
G1 X-1.00000 Y2.0000 E2755.17189 ; EInc=92.23529411764684
;Travel to droplet 1,2
PRIO_OFF
G0 X1.00000 Y2.0000 ;Travel
;Extrude droplet 5,2 with multiplier 2
PRIO_ON
G1 X5.00000 Y2.0000 E2785.91699 ; EInc=30.745098039215463
;Extrude droplet 1,2 with multiplier 2
G1 X1.00000 Y2.0000 E2816.66209 ; EInc=30.745098039215463
;Travel to droplet 7,2
PRIO_OFF
G0 X7.00000 Y2.0000 ;Travel
;Extrude droplet 11,2 with multiplier 4
PRIO_ON
G1 X11.00000 Y2.0000 E2878.15228 ; EInc=61.49019607843138
;Extrude droplet 7,2 with multiplier 4
G1 X7.00000 Y2.0000 E2939.64248 ; EInc=61.49019607843138
;Travel to droplet 13,2
PRIO_OFF
G0 X13.00000 Y2.0000 ;Travel
;Extrude droplet 17,2 with multiplier 6
PRIO_ON
G1 X17.00000 Y2.0000 E3031.87777 ; EInc=92.23529411764684
;Extrude droplet 13,2 with multiplier 6
G1 X13.00000 Y2.0000 E3124.11307 ; EInc=92.23529411764684
;Travel to droplet 19,2
PRIO_OFF
G0 X19.00000 Y2.0000 ;Travel
;Extrude droplet 23,2 with multiplier 8
PRIO_ON
G1 X23.00000 Y2.0000 E3247.09346 ; EInc=122.98039215686276
;Extrude droplet 19,2 with multiplier 8
G1 X19.00000 Y2.0000 E3370.07385 ; EInc=122.98039215686276

;STOP ADD STUFF

PRIO_OFF
LayersCompleted=42
M1
G0 Z15.08 
G53 G0 Z=$MA_POS_LIMIT_PLUS[Z]-1
PARAM_SETUP
M30 
;-------------------------------------------------------------------------------
; TOOLPATH SETTINGS
;-------------------------------------------------------------------------------
;   AlignmentControl : droplet.Lib.PrintProfileDroplet+AlignmentSettings
;   CompatibilityVersion : 23
;   LayerHeightMM : 0.24
;   Machine : BedSizeXMM : 300
;   Machine : BedSizeYMM : 300
;   Machine : BedSizeZMM : 290
;   Machine : Class : MetalDODPrinter
;   Machine : CompatibilityVersion : 23
;   Machine : EnableAutoBedLeveling : False
;   Machine : Firmware : RepRap
;   Machine : HasAutoBedLeveling : False
;   Machine : HasHeatedBed : True
;   Machine : LinearTravelOverrideP : 100
;   Machine : ManufacturerName : ADDiTEC
;   Machine : MaxBedTempC : 500
;   Machine : MaxExtruderTempC : 1000
;   Machine : MaxExtrudeSpeedMMM : 60000
;   Machine : MaxHeightMM : 290
;   Machine : MaxLayerHeightMM : 0.8
;   Machine : MaxRetractSpeedMMM : 1200
;   Machine : MaxTravelSpeedMMM : 60000
;   Machine : MaxZTravelSpeedMMM : 6000
;   Machine : MetricUnits : True
;   Machine : MinBedTempC : 0
;   Machine : MinExtruderTempC : 20
;   Machine : MinLayerHeightMM : 0.05
;   Machine : MinPointSpacingMM : 0
;   Machine : ModelIdentifier : Generic
;   Machine : Name : ElemX 3D Printer
;   Machine : NozzleDiamMM : 0.45
;   Machine : OriginX : Left
;   Machine : OriginY : Front
;   Machine : RapidTravelOverrideP : 20
;   Machine : SchemaVersion : 1
;   Machine : TargetMachine : VERSION_11
;   Machine : Version : 1
;   Machine : WorkOffset : 56
;   MachineProfile : BedSizeXMM : 300
;   MachineProfile : BedSizeYMM : 300
;   MachineProfile : BedSizeZMM : 290
;   MachineProfile : Class : MetalDODPrinter
;   MachineProfile : CompatibilityVersion : 23
;   MachineProfile : EnableAutoBedLeveling : False
;   MachineProfile : Firmware : RepRap
;   MachineProfile : HasAutoBedLeveling : False
;   MachineProfile : HasHeatedBed : True
;   MachineProfile : LinearTravelOverrideP : 100
;   MachineProfile : ManufacturerName : ADDiTEC
;   MachineProfile : MaxBedTempC : 500
;   MachineProfile : MaxExtruderTempC : 1000
;   MachineProfile : MaxExtrudeSpeedMMM : 60000
;   MachineProfile : MaxHeightMM : 290
;   MachineProfile : MaxLayerHeightMM : 0.8
;   MachineProfile : MaxRetractSpeedMMM : 1200
;   MachineProfile : MaxTravelSpeedMMM : 60000
;   MachineProfile : MaxZTravelSpeedMMM : 6000
;   MachineProfile : MetricUnits : True
;   MachineProfile : MinBedTempC : 0
;   MachineProfile : MinExtruderTempC : 20
;   MachineProfile : MinLayerHeightMM : 0.05
;   MachineProfile : MinPointSpacingMM : 0
;   MachineProfile : ModelIdentifier : Generic
;   MachineProfile : Name : ElemX 3D Printer
;   MachineProfile : NozzleDiamMM : 0.45
;   MachineProfile : OriginX : Left
;   MachineProfile : OriginY : Front
;   MachineProfile : RapidTravelOverrideP : 20
;   MachineProfile : SchemaVersion : 1
;   MachineProfile : TargetMachine : VERSION_11
;   MachineProfile : Version : 1
;   MachineProfile : WorkOffset : 56
;   Material : Color : Silver
;   Material : CompatibilityVersion : 23
;   Material : CostPerKG : 19.19
;   Material : Density : 2.66 - 2.68 g/cc
;   Material : DerivedFromProfile : 4008 Aluminum Wire
;   Material : ExtruderTempC : 700
;   Material : FilamentDiamMM : 1.75
;   Material : GramsPerCubicMM : 0.00125
;   Material : HeatedBedTempC : 100
;   Material : MassPer10000Drops : 1.45
;   Material : Material : 4008 Aluminum Wire
;   Material : MaterialName : 4008 Aluminum Wire
;   Material : MaxMassLimit : 910
;   Material : Name : 4008 Aluminum Wire
;   Material : ScalingCorrection : 1.010416
;   Material : SchemaVersion : 1
;   Material : Supplier : ADDiTEC
;   Material : Version : 1
;   Material : XYCompensation : -0.19
;   MaterialProfile : Color : Silver
;   MaterialProfile : CompatibilityVersion : 23
;   MaterialProfile : CostPerKG : 19.19
;   MaterialProfile : Density : 2.66 - 2.68 g/cc
;   MaterialProfile : DerivedFromProfile : 4008 Aluminum Wire
;   MaterialProfile : ExtruderTempC : 700
;   MaterialProfile : FilamentDiamMM : 1.75
;   MaterialProfile : GramsPerCubicMM : 0.00125
;   MaterialProfile : HeatedBedTempC : 100
;   MaterialProfile : MassPer10000Drops : 1.45
;   MaterialProfile : Material : 4008 Aluminum Wire
;   MaterialProfile : MaterialName : 4008 Aluminum Wire
;   MaterialProfile : MaxMassLimit : 910
;   MaterialProfile : Name : 4008 Aluminum Wire
;   MaterialProfile : ScalingCorrection : 1.010416
;   MaterialProfile : SchemaVersion : 1
;   MaterialProfile : Supplier : ADDiTEC
;   MaterialProfile : Version : 1
;   MaterialProfile : XYCompensation : -0.19
;   Part : AddInfillBorderShell : True
;   Part : AlternatePerimeterWinding : True
;   Part : BridgeExtrudeSpeedX : 0.5
;   Part : BridgeFillNozzleDiamStepX : 0.85
;   Part : BridgePulseDistance : 0.15
;   Part : BridgeVolumeScale : 1
;   Part : CarefulExtrudeSpeed : 24000
;   Part : ChunkOverrideUpSkinArea : 25
;   Part : ChunkOverrideUpSkinInset : 0.9
;   Part : ClipSelfOverlaps : False
;   Part : ClipSelfOverlapsOuter : True
;   Part : CompatibilityVersion : 23
;   Part : CompleteSkeletonSpine : True
;   Part : DefaultChunkSize : 5
;   Part : DefaultPulseDistance : 0.5
;   Part : DerivedFromProfile : 4008 Standard
;   Part : DoubleSwathCornerPulseDistanceOffset : 1.5
;   Part : DoubleSwathCornerPulseDistanceSlope : 1.1
;   Part : EnableBridging : False
;   Part : EnableSupportReleaseOpt : True
;   Part : EnableSupportShell : True
;   Part : ExpandTinyPolygons : False
;   Part : ExtraAlignmentAccuracy : False
;   Part : FillFrequency : 400
;   Part : FirstLayerHeightOverride : 0
;   Part : FloorLayers : 3
;   Part : GCodeAppendBeadDimensions : True
;   Part : GenerateSupport : True
;   Part : HighQualityMode : False
;   Part : InfillAngles : [20, 65, 110, 155, 200, 245, 290, 335]
;   Part : InfillOnlyShells : False
;   Part : InfillPulseDistance : 0.51
;   Part : InnerPerimeterFrequency : 400
;   Part : InnerPerimeterPulseDistance : 0.54
;   Part : InnerPerimeterSpacingX : 1
;   Part : InnerPerimeterSpeedX : 1
;   Part : IntegerizePerimeters : False
;   Part : InteriorSolidRegionShells : 0
;   Part : Jitter : True
;   Part : LayerHeightMM : 0.24
;   Part : LayerRangeFilter : [0,999999999]
;   Part : MaxBridgeWidthMM : 10
;   Part : MinExtrudeSpeed : 24000
;   Part : MinGap : 1
;   Part : MinHoleDiameter : 1
;   Part : MinimumPulseDistance : 0.1
;   Part : MinInfillLengthMM : 0
;   Part : MinLayerTime : 5
;   Part : MinWallThickness : 1
;   Part : MultipassOverhangEnabled : True
;   Part : Name : 4008 Standard - Copy (1)
;   Part : OctetInfillSlope : 60
;   Part : OctetInfillWallSpacing : 10
;   Part : OpenPerimeterLeadInLeadOutMM : 0
;   Part : OutermostPerimeterPulseDistance : 0.425
;   Part : OutermostPerimeterPulseDistanceMultiplierSinglePass : 1
;   Part : OutermostPerimeterPulseDistanceMultiplierThreePass : 0.24
;   Part : OutermostPerimeterPulseDistanceMultiplierTwoPass : 0.24
;   Part : OutermostPerimeterPulseDistanceThreePassReduction : 0.1895
;   Part : OutermostPerimeterPulseDistanceTwoPassReduction : 0.188
;   Part : OutermostPerimetersFirst : True
;   Part : OuterPerimeterFrequency : 300
;   Part : OuterPerimeterSpeedX : 1
;   Part : OuterShellLast : False
;   Part : OutputSettings : True
;   Part : PartSkirtToSupportSkirtMinSpacing : 0.5
;   Part : PerimeterStartAlignedToVertex : False
;   Part : PolygonSaveLocation : logs
;   Part : PreserveOverhangs : True
;   Part : PrintSizeWarningX : 300
;   Part : PrintSizeWarningY : 300
;   Part : PrintSizeWarningZ : 250
;   Part : QuadSwathInfillPulseDistanceOffset : -1.3
;   Part : QuadSwathInfillPulseDistanceSlope : 2.3
;   Part : RandomSeed : 1
;   Part : RapidExtrudeSpeed : 24000
;   Part : RapidTravelSpeed : 24000
;   Part : RasterFillEnforceOrderedScheduling : False
;   Part : RepairMesh : True
;   Part : RetractSpeed : 1500
;   Part : RoofLayers : 3
;   Part : SavePolygons : False
;   Part : SchemaVersion : 1
;   Part : SelfOverlapToleranceX : 0.45
;   Part : ShellRandomizeStart : True
;   Part : Shells : 2
;   Part : ShellsFillNozzleDiamStepX : 0.78
;   Part : SingleSwathCornerPulseDistanceMax : 0.305
;   Part : SingleSwathCornerPulseDistanceMin : 0.305
;   Part : SkirtCount : 0
;   Part : SkirtGap : 0.2
;   Part : SkirtLayers : 1
;   Part : SkirtPulseDistance : 0.5
;   Part : SkirtSpacingStepX : 1
;   Part : SolidFillBorderOverlapX : 1
;   Part : SolidFillNozzleDiamStepX : 1
;   Part : SolidFillPulseDistance : 0.51
;   Part : SolidFillSpeedX : 1
;   Part : SparseFillBorderOverlapX : 0.22
;   Part : SparseFillEnabled : False
;   Part : SparseFillPulseDistance : 0.59
;   Part : SparseLinearInfillStepX : 1
;   Part : SplineMaxAngleD : 20
;   Part : SplineMaxDistanceMM : 2.5
;   Part : SplineMinNumPoints : 6
;   Part : SplitCornerAngleDeg : 60
;   Part : StartLayerHeightMM : 0
;   Part : StartLayers : 0
;   Part : Stepout : AnchorDistanceX : 0.5
;   Part : Stepout : DynamicSupportIntervalEnabled : True
;   Part : Stepout : DynamicSupportIntervalEndOffset : 2
;   Part : Stepout : LayerThickness : 0.4501
;   Part : Stepout : MinimumWidthMM : 0.12
;   Part : Stepout : MultipassTrimAmount : 0
;   Part : Stepout : OverhangCorrectionEndAngleDeg : 40
;   Part : Stepout : OverhangCorrectionEndScaleX : 0.9563
;   Part : Stepout : OverhangCorrectionStartAngleDeg : 0
;   Part : Stepout : PerimeterAdjacentSubdivisionLengthMM : 0.25
;   Part : Stepout : PerimeterInsetInitialOffsetMM : 0.5
;   Part : Stepout : PerimeterOverlapX : 0.85
;   Part : Stepout : SchedulingStrategy : ByIndexInRegion
;   Part : Stepout : SpacingCoefficient0 : 0.25
;   Part : Stepout : SpacingCoefficient1 : 0
;   Part : Stepout : SpacingMinimimum : 0
;   Part : Stepout : SpacingX : 0.55
;   Part : Stepout : SupportedStepoutParameters : Frequency : 300
;   Part : Stepout : SupportedStepoutParameters : FrequencyGUD : UnsupportedStepoutFrequency
;   Part : Stepout : SupportedStepoutParameters : PulseDistance : 0.2
;   Part : Stepout : SupportedStepoutParameters : Version : 2
;   Part : Stepout : SupportedTrimAmount : 0.2
;   Part : Stepout : SupportedTrimMaxAngleDeg : 75
;   Part : Stepout : SupportedTrimMinAngleDeg : 30
;   Part : Stepout : SupportInterval : 7
;   Part : Stepout : SupportIntervalFirst : 7
;   Part : Stepout : UnsupportedStepoutDefaultParameters : Frequency : 300
;   Part : Stepout : UnsupportedStepoutDefaultParameters : FrequencyGUD : UnsupportedStepoutFrequency
;   Part : Stepout : UnsupportedStepoutDefaultParameters : PulseDistance : 0.28
;   Part : Stepout : UnsupportedStepoutDefaultParameters : Version : 2
;   Part : Stepout : UnsupportedStepoutFirstParameters : Frequency : 300
;   Part : Stepout : UnsupportedStepoutFirstParameters : FrequencyGUD : UnsupportedStepoutFrequency
;   Part : Stepout : UnsupportedStepoutFirstParameters : PulseDistance : 0.28
;   Part : Stepout : UnsupportedStepoutFirstParameters : Version : 2
;   Part : Stepout : UnsupportedStepoutLastParameters : Frequency : 300
;   Part : Stepout : UnsupportedStepoutLastParameters : FrequencyGUD : UnsupportedStepoutFrequency
;   Part : Stepout : UnsupportedStepoutLastParameters : PulseDistance : 0.28
;   Part : Stepout : UnsupportedStepoutLastParameters : Version : 2
;   Part : Stepout : Version : 1
;   Part : StepoutChunkOverrideThreshold : 2
;   Part : Support : AlternateThinWallDirection : True
;   Part : Support : BridgeChunkLayers : 4
;   Part : Support : BridgeChunkSize : 2
;   Part : Support : CleanEndsCurvatureThreshold : 2.2
;   Part : Support : ExtensionMM : 0.5
;   Part : Support : FilterSelfOverlaps : True
;   Part : Support : MatchPerimeterSupportToFirstSupportedStepout : False
;   Part : Support : MaxUnsupportedLength : 1.75
;   Part : Support : MinimumEndSpacing : 0.65
;   Part : Support : MinimumLayerTime : 5
;   Part : Support : MinimumLayerZMM : 0.07
;   Part : Support : MinimumPathLength : 0.425
;   Part : Support : MinimumPerimeterSpacing : 0.5
;   Part : Support : MinimumStepoutSpacing : 0.5
;   Part : Support : MinimumWallLayersOverPart : 2
;   Part : Support : OverhangBiasMM : 0.001
;   Part : Support : OverhangEndDetectionThresholdMM : 3.5
;   Part : Support : OverhangThresholdMM : 0.02
;   Part : Support : Perimeter : Frequency : 100
;   Part : Support : Perimeter : FrequencyGUD : OuterPerimeterFrequency
;   Part : Support : Perimeter : PulseDistance : 0.293
;   Part : Support : Perimeter : Version : 2
;   Part : Support : Pillar : Frequency : 100
;   Part : Support : Pillar : FrequencyGUD : SupportPillarFrequency
;   Part : Support : Pillar : PulseDistance : 0.85
;   Part : Support : Pillar : Version : 2
;   Part : Support : PillarBottomLayerCount : 12
;   Part : Support : PillarLayerCount : 12
;   Part : Support : PillarLayerHeight : 0.1625
;   Part : Support : SelfOverlapTolerance : 0.45
;   Part : Support : SpacingThreshold : 1
;   Part : Support : Version : 1
;   Part : Support : Wall : Frequency : 100
;   Part : Support : Wall : FrequencyGUD : SupportWallFrequency
;   Part : Support : Wall : PulseDistance : 0.293
;   Part : Support : Wall : Version : 2
;   Part : Support : WallPillarGap : 0.5
;   Part : Support : WallSupportLayerHeight : 0.24
;   Part : SupportAreaOffsetX : -0.5
;   Part : SupportedStepoutFrequency : 300
;   Part : SupportMinDimension : 1.5
;   Part : SupportMinZTips : True
;   Part : SupportOverhangAngleDeg : 40
;   Part : SupportPillarFrequency : 100
;   Part : SupportPointDiam : 2.5
;   Part : SupportPointSides : 4
;   Part : SupportRegionJoinTolX : 2
;   Part : SupportReleaseGap : 0.2
;   Part : SupportSolidSpace : 0.9
;   Part : SupportSolidSpaceLayerDepth : 4
;   Part : SupportSpacingStepX : 2
;   Part : SupportVolumeScale : 1
;   Part : SupportWallFrequency : 100
;   Part : ThinFeatureCleanDistanceMM : 0.2
;   Part : ThinFeatureDetection : True
;   Part : ThinFeatureDetectionInner : True
;   Part : ThinFeatureDetectionThesholdX : 3.5
;   Part : ThinFeatureDoubleFillThresholdX : 3
;   Part : ThinFeatureFrequency : 300
;   Part : ThinFeaturePointSpacing : 0.2
;   Part : ThinFeaturesAlongSkeleton : False
;   Part : ThinFeatureSingleFillThresholdX : 2
;   Part : ThinFeatureThicknessX : 3
;   Part : TravelLiftDistanceThreshold : 5
;   Part : TravelLiftHeight : 0.2
;   Part : TripleSwathInfillPulseDistanceOffset : -1.47
;   Part : TripleSwathInfillPulseDistanceSlope : 2.8
;   Part : UnsupportedStepoutFrequency : 300
;   Part : UseSplines : True
;   Part : VerboseComments : False
;   Part : Version : 2
;   Part : VisualizerConstants : DefaultFrequency : 10
;   Part : VisualizerConstants : DROP_SCALE : 1
;   Part : VisualizerConstants : OutermostShellFrequency : 7
;   Part : VisualizerConstants : PRIO_PULSE_DISTANCE : 1
;   Part : ZigZagFillEnabled : False
;   Part : ZipperAlignedToPoint : False
;   Part : ZipperLocationX : -50
;   Part : ZipperLocationY : -50
;   Part : ZTravelSpeed : 3000
;   PartProfile : AddInfillBorderShell : True
;   PartProfile : AlternatePerimeterWinding : True
;   PartProfile : BridgeExtrudeSpeedX : 0.5
;   PartProfile : BridgeFillNozzleDiamStepX : 0.85
;   PartProfile : BridgePulseDistance : 0.15
;   PartProfile : BridgeVolumeScale : 1
;   PartProfile : CarefulExtrudeSpeed : 24000
;   PartProfile : ChunkOverrideUpSkinArea : 25
;   PartProfile : ChunkOverrideUpSkinInset : 0.9
;   PartProfile : ClipSelfOverlaps : False
;   PartProfile : ClipSelfOverlapsOuter : True
;   PartProfile : CompatibilityVersion : 23
;   PartProfile : CompleteSkeletonSpine : True
;   PartProfile : DefaultChunkSize : 5
;   PartProfile : DefaultPulseDistance : 0.5
;   PartProfile : DerivedFromProfile : 4008 Standard
;   PartProfile : DoubleSwathCornerPulseDistanceOffset : 1.5
;   PartProfile : DoubleSwathCornerPulseDistanceSlope : 1.1
;   PartProfile : EnableBridging : False
;   PartProfile : EnableSupportReleaseOpt : True
;   PartProfile : EnableSupportShell : True
;   PartProfile : ExpandTinyPolygons : False
;   PartProfile : ExtraAlignmentAccuracy : False
;   PartProfile : FillFrequency : 400
;   PartProfile : FirstLayerHeightOverride : 0
;   PartProfile : FloorLayers : 3
;   PartProfile : GCodeAppendBeadDimensions : True
;   PartProfile : GenerateSupport : True
;   PartProfile : HighQualityMode : False
;   PartProfile : InfillAngles : [20, 65, 110, 155, 200, 245, 290, 335]
;   PartProfile : InfillOnlyShells : False
;   PartProfile : InfillPulseDistance : 0.51
;   PartProfile : InnerPerimeterFrequency : 400
;   PartProfile : InnerPerimeterPulseDistance : 0.54
;   PartProfile : InnerPerimeterSpacingX : 1
;   PartProfile : InnerPerimeterSpeedX : 1
;   PartProfile : IntegerizePerimeters : False
;   PartProfile : InteriorSolidRegionShells : 0
;   PartProfile : Jitter : True
;   PartProfile : LayerHeightMM : 0.24
;   PartProfile : LayerRangeFilter : [0,999999999]
;   PartProfile : MaxBridgeWidthMM : 10
;   PartProfile : MinExtrudeSpeed : 24000
;   PartProfile : MinGap : 1
;   PartProfile : MinHoleDiameter : 1
;   PartProfile : MinimumPulseDistance : 0.1
;   PartProfile : MinInfillLengthMM : 0
;   PartProfile : MinLayerTime : 5
;   PartProfile : MinWallThickness : 1
;   PartProfile : MultipassOverhangEnabled : True
;   PartProfile : Name : 4008 Standard - Copy (1)
;   PartProfile : OctetInfillSlope : 60
;   PartProfile : OctetInfillWallSpacing : 10
;   PartProfile : OpenPerimeterLeadInLeadOutMM : 0
;   PartProfile : OutermostPerimeterPulseDistance : 0.425
;   PartProfile : OutermostPerimeterPulseDistanceMultiplierSinglePass : 1
;   PartProfile : OutermostPerimeterPulseDistanceMultiplierThreePass : 0.24
;   PartProfile : OutermostPerimeterPulseDistanceMultiplierTwoPass : 0.24
;   PartProfile : OutermostPerimeterPulseDistanceThreePassReduction : 0.1895
;   PartProfile : OutermostPerimeterPulseDistanceTwoPassReduction : 0.188
;   PartProfile : OutermostPerimetersFirst : True
;   PartProfile : OuterPerimeterFrequency : 300
;   PartProfile : OuterPerimeterSpeedX : 1
;   PartProfile : OuterShellLast : False
;   PartProfile : OutputSettings : True
;   PartProfile : PartSkirtToSupportSkirtMinSpacing : 0.5
;   PartProfile : PerimeterStartAlignedToVertex : False
;   PartProfile : PolygonSaveLocation : logs
;   PartProfile : PreserveOverhangs : True
;   PartProfile : PrintSizeWarningX : 300
;   PartProfile : PrintSizeWarningY : 300
;   PartProfile : PrintSizeWarningZ : 250
;   PartProfile : QuadSwathInfillPulseDistanceOffset : -1.3
;   PartProfile : QuadSwathInfillPulseDistanceSlope : 2.3
;   PartProfile : RandomSeed : 1
;   PartProfile : RapidExtrudeSpeed : 24000
;   PartProfile : RapidTravelSpeed : 24000
;   PartProfile : RasterFillEnforceOrderedScheduling : False
;   PartProfile : RepairMesh : True
;   PartProfile : RetractSpeed : 1500
;   PartProfile : RoofLayers : 3
;   PartProfile : SavePolygons : False
;   PartProfile : SchemaVersion : 1
;   PartProfile : SelfOverlapToleranceX : 0.45
;   PartProfile : ShellRandomizeStart : True
;   PartProfile : Shells : 2
;   PartProfile : ShellsFillNozzleDiamStepX : 0.78
;   PartProfile : SingleSwathCornerPulseDistanceMax : 0.305
;   PartProfile : SingleSwathCornerPulseDistanceMin : 0.305
;   PartProfile : SkirtCount : 0
;   PartProfile : SkirtGap : 0.2
;   PartProfile : SkirtLayers : 1
;   PartProfile : SkirtPulseDistance : 0.5
;   PartProfile : SkirtSpacingStepX : 1
;   PartProfile : SolidFillBorderOverlapX : 1
;   PartProfile : SolidFillNozzleDiamStepX : 1
;   PartProfile : SolidFillPulseDistance : 0.51
;   PartProfile : SolidFillSpeedX : 1
;   PartProfile : SparseFillBorderOverlapX : 0.22
;   PartProfile : SparseFillEnabled : False
;   PartProfile : SparseFillPulseDistance : 0.59
;   PartProfile : SparseLinearInfillStepX : 1
;   PartProfile : SplineMaxAngleD : 20
;   PartProfile : SplineMaxDistanceMM : 2.5
;   PartProfile : SplineMinNumPoints : 6
;   PartProfile : SplitCornerAngleDeg : 60
;   PartProfile : StartLayerHeightMM : 0
;   PartProfile : StartLayers : 0
;   PartProfile : Stepout : AnchorDistanceX : 0.5
;   PartProfile : Stepout : DynamicSupportIntervalEnabled : True
;   PartProfile : Stepout : DynamicSupportIntervalEndOffset : 2
;   PartProfile : Stepout : LayerThickness : 0.4501
;   PartProfile : Stepout : MinimumWidthMM : 0.12
;   PartProfile : Stepout : MultipassTrimAmount : 0
;   PartProfile : Stepout : OverhangCorrectionEndAngleDeg : 40
;   PartProfile : Stepout : OverhangCorrectionEndScaleX : 0.9563
;   PartProfile : Stepout : OverhangCorrectionStartAngleDeg : 0
;   PartProfile : Stepout : PerimeterAdjacentSubdivisionLengthMM : 0.25
;   PartProfile : Stepout : PerimeterInsetInitialOffsetMM : 0.5
;   PartProfile : Stepout : PerimeterOverlapX : 0.85
;   PartProfile : Stepout : SchedulingStrategy : ByIndexInRegion
;   PartProfile : Stepout : SpacingCoefficient0 : 0.25
;   PartProfile : Stepout : SpacingCoefficient1 : 0
;   PartProfile : Stepout : SpacingMinimimum : 0
;   PartProfile : Stepout : SpacingX : 0.55
;   PartProfile : Stepout : SupportedStepoutParameters : Frequency : 300
;   PartProfile : Stepout : SupportedStepoutParameters : FrequencyGUD : UnsupportedStepoutFrequency
;   PartProfile : Stepout : SupportedStepoutParameters : PulseDistance : 0.2
;   PartProfile : Stepout : SupportedStepoutParameters : Version : 2
;   PartProfile : Stepout : SupportedTrimAmount : 0.2
;   PartProfile : Stepout : SupportedTrimMaxAngleDeg : 75
;   PartProfile : Stepout : SupportedTrimMinAngleDeg : 30
;   PartProfile : Stepout : SupportInterval : 7
;   PartProfile : Stepout : SupportIntervalFirst : 7
;   PartProfile : Stepout : UnsupportedStepoutDefaultParameters : Frequency : 300
;   PartProfile : Stepout : UnsupportedStepoutDefaultParameters : FrequencyGUD : UnsupportedStepoutFrequency
;   PartProfile : Stepout : UnsupportedStepoutDefaultParameters : PulseDistance : 0.28
;   PartProfile : Stepout : UnsupportedStepoutDefaultParameters : Version : 2
;   PartProfile : Stepout : UnsupportedStepoutFirstParameters : Frequency : 300
;   PartProfile : Stepout : UnsupportedStepoutFirstParameters : FrequencyGUD : UnsupportedStepoutFrequency
;   PartProfile : Stepout : UnsupportedStepoutFirstParameters : PulseDistance : 0.28
;   PartProfile : Stepout : UnsupportedStepoutFirstParameters : Version : 2
;   PartProfile : Stepout : UnsupportedStepoutLastParameters : Frequency : 300
;   PartProfile : Stepout : UnsupportedStepoutLastParameters : FrequencyGUD : UnsupportedStepoutFrequency
;   PartProfile : Stepout : UnsupportedStepoutLastParameters : PulseDistance : 0.28
;   PartProfile : Stepout : UnsupportedStepoutLastParameters : Version : 2
;   PartProfile : Stepout : Version : 1
;   PartProfile : StepoutChunkOverrideThreshold : 2
;   PartProfile : Support : AlternateThinWallDirection : True
;   PartProfile : Support : BridgeChunkLayers : 4
;   PartProfile : Support : BridgeChunkSize : 2
;   PartProfile : Support : CleanEndsCurvatureThreshold : 2.2
;   PartProfile : Support : ExtensionMM : 0.5
;   PartProfile : Support : FilterSelfOverlaps : True
;   PartProfile : Support : MatchPerimeterSupportToFirstSupportedStepout : False
;   PartProfile : Support : MaxUnsupportedLength : 1.75
;   PartProfile : Support : MinimumEndSpacing : 0.65
;   PartProfile : Support : MinimumLayerTime : 5
;   PartProfile : Support : MinimumLayerZMM : 0.07
;   PartProfile : Support : MinimumPathLength : 0.425
;   PartProfile : Support : MinimumPerimeterSpacing : 0.5
;   PartProfile : Support : MinimumStepoutSpacing : 0.5
;   PartProfile : Support : MinimumWallLayersOverPart : 2
;   PartProfile : Support : OverhangBiasMM : 0.001
;   PartProfile : Support : OverhangEndDetectionThresholdMM : 3.5
;   PartProfile : Support : OverhangThresholdMM : 0.02
;   PartProfile : Support : Perimeter : Frequency : 100
;   PartProfile : Support : Perimeter : FrequencyGUD : OuterPerimeterFrequency
;   PartProfile : Support : Perimeter : PulseDistance : 0.293
;   PartProfile : Support : Perimeter : Version : 2
;   PartProfile : Support : Pillar : Frequency : 100
;   PartProfile : Support : Pillar : FrequencyGUD : SupportPillarFrequency
;   PartProfile : Support : Pillar : PulseDistance : 0.85
;   PartProfile : Support : Pillar : Version : 2
;   PartProfile : Support : PillarBottomLayerCount : 12
;   PartProfile : Support : PillarLayerCount : 12
;   PartProfile : Support : PillarLayerHeight : 0.1625
;   PartProfile : Support : SelfOverlapTolerance : 0.45
;   PartProfile : Support : SpacingThreshold : 1
;   PartProfile : Support : Version : 1
;   PartProfile : Support : Wall : Frequency : 100
;   PartProfile : Support : Wall : FrequencyGUD : SupportWallFrequency
;   PartProfile : Support : Wall : PulseDistance : 0.293
;   PartProfile : Support : Wall : Version : 2
;   PartProfile : Support : WallPillarGap : 0.5
;   PartProfile : Support : WallSupportLayerHeight : 0.24
;   PartProfile : SupportAreaOffsetX : -0.5
;   PartProfile : SupportedStepoutFrequency : 300
;   PartProfile : SupportMinDimension : 1.5
;   PartProfile : SupportMinZTips : True
;   PartProfile : SupportOverhangAngleDeg : 40
;   PartProfile : SupportPillarFrequency : 100
;   PartProfile : SupportPointDiam : 2.5
;   PartProfile : SupportPointSides : 4
;   PartProfile : SupportRegionJoinTolX : 2
;   PartProfile : SupportReleaseGap : 0.2
;   PartProfile : SupportSolidSpace : 0.9
;   PartProfile : SupportSolidSpaceLayerDepth : 4
;   PartProfile : SupportSpacingStepX : 2
;   PartProfile : SupportVolumeScale : 1
;   PartProfile : SupportWallFrequency : 100
;   PartProfile : ThinFeatureCleanDistanceMM : 0.2
;   PartProfile : ThinFeatureDetection : True
;   PartProfile : ThinFeatureDetectionInner : True
;   PartProfile : ThinFeatureDetectionThesholdX : 3.5
;   PartProfile : ThinFeatureDoubleFillThresholdX : 3
;   PartProfile : ThinFeatureFrequency : 300
;   PartProfile : ThinFeaturePointSpacing : 0.2
;   PartProfile : ThinFeaturesAlongSkeleton : False
;   PartProfile : ThinFeatureSingleFillThresholdX : 2
;   PartProfile : ThinFeatureThicknessX : 3
;   PartProfile : TravelLiftDistanceThreshold : 5
;   PartProfile : TravelLiftHeight : 0.2
;   PartProfile : TripleSwathInfillPulseDistanceOffset : -1.47
;   PartProfile : TripleSwathInfillPulseDistanceSlope : 2.8
;   PartProfile : UnsupportedStepoutFrequency : 300
;   PartProfile : UseSplines : True
;   PartProfile : VerboseComments : False
;   PartProfile : Version : 2
;   PartProfile : VisualizerConstants : DefaultFrequency : 10
;   PartProfile : VisualizerConstants : DROP_SCALE : 1
;   PartProfile : VisualizerConstants : OutermostShellFrequency : 7
;   PartProfile : VisualizerConstants : PRIO_PULSE_DISTANCE : 1
;   PartProfile : ZigZagFillEnabled : False
;   PartProfile : ZipperAlignedToPoint : False
;   PartProfile : ZipperLocationX : -50
;   PartProfile : ZipperLocationY : -50
;   PartProfile : ZTravelSpeed : 3000
;-------------------------------------------------------------------------------
; 
