;---BEGIN HEADER
; Generated by DropletSlicer
; Version: 3.4.4
; Date: Wednesday, May 29, 2024
; Time: 04:22:00 PM
G64 ;continuous path mode
G71 ;millimeters
G56 ;origin at center
OVR=100
OVRRAP=20
DO PRIO_ON_PATH_OFFSET=0.5*PRIO_PULSE_DISTANCE
RECOMMENDED_RECIPE="4008 Aluminum Wire"
CheckRecommendedRecipe
BUILDPROCESSORINTERFACEVERSION=1177
CheckBPVersion
OuterPerimeterFrequency=300
InnerPerimeterFrequency=400
ThinFeatureFrequency=300
UnsupportedStepoutFrequency=300
SupportedStepoutFrequency=300
FillFrequency=400
SupportWallFrequency=100
SupportPillarFrequency=100
;BUILDPROCESSORINTERFACEVERSION=1177
PART_MASS_CONSUMPTION=0
SUPPORT_MASS_CONSUMPTION=0
G0 X0 Y0 ;reset z
MSG("Print Started")
;---END HEADER
;---BEGIN PRINT STATISTICS
;TOTAL WIRE FEED ESTIMATE:
;    Total Drops: 97,460.43
;      Total Mass: 14.13 g
;    Part Drops: 97,460.43
;      Part Mass: 14.13 g
;    Support Drops: 0.00
;      Support Mass: 0.00 g
;    Part Density: 100.0%
;---END PRINT STATISTICS
;XY Extents: [-24.845 -4.637] [24.845 4.637]
;NaiveEstimatedPrintTime=484.25931344209994
;SupportedStepoutFrequency=300
EstimatedPrintTime=453.9104919433594
;ZCount = 1
;ExtraChevronOffset = 10
NumberOfLayers=42
LayersCompleted=0
;Mass values below are in kilograms
TOTAL_MASS=0.014131762
PART_MASS=0.014131762
SUPPORT_MASS=0.000000000
CheckMass
DO PRIO_PULSE_DISTANCE=DROP_SCALE
DO PRIO_ON_PATH_OFFSET=0.5*PRIO_PULSE_DISTANCE
PARAM_SETUP
;ChunkSize=5
; 
;========================
; layer 0, Z = 0.2400
; 
; reset extrusion
STOPRE
PRESETON(E, 0)
DO PRIO_PULSE_DISTANCE=DROP_SCALE
DO PRIO_ON_PATH_OFFSET=0.5*PRIO_PULSE_DISTANCE
FEATURE_TYPE=0
;outer: (25.2604,-5.0521) (25.2604,5.0521) (-25.2604,5.0521) (-25.2604,-5.0521) (24.6604,-5.0521) holes: !
;overhangs:!
; 
; feature plane change
G0 X0 Y0 Z0.24 ;Plane Change
; 
; feature travel
G0 X17.63483 Y-4.637 ;Travel
; 
; feature outer perimeter
G1 F24000 FL[E] = OuterPerimeterFrequency * DROP_SCALE * 60
DO PRIO_PULSE_DISTANCE=DROP_SCALE
DO PRIO_ON_PATH_OFFSET=0.5*PRIO_PULSE_DISTANCE
PRIO_ON
G1 X24.84540 Y-4.6370 E16.96604 
G1 X24.84540 Y4.6370 E38.78721 
G1 X-24.84540 Y4.6370 E155.70674 
G1 X-24.84540 Y-4.6370 E177.52792 
G1 X17.63483 Y-4.6370 E277.48141 
; 
; feature travel
PRIO_OFF
G0 X17.63483 Y-4.286 ;Travel
; 
; feature inner perimeter
G1 F24000 FL[E] = InnerPerimeterFrequency * DROP_SCALE * 60
PRIO_ON
G1 X-24.49440 Y-4.2860 E355.49851 
G1 X-24.49440 Y4.2860 E371.37259 
G1 X24.49440 Y4.2860 E462.09259 
G1 X24.49440 Y-4.2860 E477.96666 
G1 X17.63483 Y-4.2860 E490.66956 
; 
; feature travel
PRIO_OFF
G0 X17.86945 Y-4.2863 ;Travel
; 
; feature fill
G1 F24000 FL[E] = FillFrequency * DROP_SCALE * 60
PRIO_ON
G1 X24.49470 Y-1.8749 E497.58177 ; => originalEInc=13.82441 adjustedEInc=6.91221 density=0.5
; 
; feature travel
PRIO_OFF
G0 X24.4947 Y-1.39602 ;Travel
; 
; feature fill
PRIO_ON
G1 X16.55373 Y-4.2863 E505.86667 ; => originalEInc=16.56980 adjustedEInc=8.28490 density=0.5
; 
; feature travel
PRIO_OFF
G0 X15.23802 Y-4.2863 ;Travel
; 
; feature fill
PRIO_ON
G1 X24.49470 Y-0.9171 E515.52427 ; => originalEInc=19.31520 adjustedEInc=9.65760 density=0.5
; 
; feature travel
PRIO_OFF
G0 X24.4947 Y-0.43826 ;Travel
; 
; feature fill
PRIO_ON
G1 X13.92231 Y-4.2863 E526.55457 ; => originalEInc=22.06060 adjustedEInc=11.03030 density=0.5
; 
; feature travel
PRIO_OFF
G0 X12.6066 Y-4.2863 ;Travel
; 
; feature fill
PRIO_ON
G1 X24.49470 Y0.0406 E538.95756 ; => originalEInc=24.80599 adjustedEInc=12.40299 density=0.5
; 
; feature travel
PRIO_OFF
G0 X24.4947 Y0.5195 ;Travel
; 
; feature fill
PRIO_ON
G1 X11.29089 Y-4.2863 E552.73325 ; => originalEInc=27.55138 adjustedEInc=13.77569 density=0.5
; 
; feature travel
PRIO_OFF
G0 X9.97517 Y-4.2863 ;Travel
; 
; feature fill
PRIO_ON
G1 X24.49470 Y0.9984 E567.88164 ; => originalEInc=30.29678 adjustedEInc=15.14839 density=0.5
; 
; feature travel
PRIO_OFF
G0 X24.4947 Y1.47726 ;Travel
; 
; feature fill
PRIO_ON
G1 X8.65946 Y-4.2863 E584.40273 ; => originalEInc=33.04218 adjustedEInc=16.52109 density=0.5
; 
; feature travel
PRIO_OFF
G0 X7.34375 Y-4.2863 ;Travel
; 
; feature fill
PRIO_ON
G1 X24.49470 Y1.9561 E602.29651 ; => originalEInc=35.78756 adjustedEInc=17.89378 density=0.5
; 
; feature travel
PRIO_OFF
G0 X24.4947 Y2.43502 ;Travel
; 
; feature fill
PRIO_ON
G1 X6.02804 Y-4.2863 E621.56300 ; => originalEInc=38.53297 adjustedEInc=19.26648 density=0.5
; 
; feature travel
PRIO_OFF
G0 X4.71233 Y-4.2863 ;Travel
; 
; feature fill
PRIO_ON
G1 X24.49470 Y2.9139 E642.20218 ; => originalEInc=41.27836 adjustedEInc=20.63918 density=0.5
; 
; feature travel
PRIO_OFF
G0 X24.4947 Y3.39278 ;Travel
; 
; feature fill
PRIO_ON
G1 X3.39661 Y-4.2863 E664.21405 ; => originalEInc=44.02375 adjustedEInc=22.01188 density=0.5
; 
; feature travel
PRIO_OFF
G0 X2.0809 Y-4.2863 ;Travel
; 
; feature fill
PRIO_ON
G1 X24.49470 Y3.8717 E687.59863 ; => originalEInc=46.76915 adjustedEInc=23.38458 density=0.5
; 
; feature travel
PRIO_OFF
G0 X24.31821 Y4.2863 ;Travel
; 
; feature fill
PRIO_ON
G1 X0.76519 Y-4.2863 E712.17177 ; => originalEInc=49.14629 adjustedEInc=24.57314 density=0.5
; 
; feature travel
PRIO_OFF
G0 X-0.55052 Y-4.2863 ;Travel
; 
; feature fill
PRIO_ON
G1 X0.00000 Y-4.0859 E713.32050 
G1 X23.00250 Y4.2863 E737.31927 ; => originalEInc=47.99755 adjustedEInc=23.99878 density=0.5
; 
; feature travel
PRIO_OFF
G0 X21.68679 Y4.2863 ;Travel
; 
; feature fill
PRIO_ON
G1 X0.00000 Y-3.6070 E759.94536 ; => originalEInc=45.25217 adjustedEInc=22.62609 density=0.5
G1 X-1.86623 Y-4.2863 E763.83948 
; 
; feature travel
PRIO_OFF
G0 X-3.18195 Y-4.2863 ;Travel
; 
; feature fill
PRIO_ON
G1 X0.00000 Y-3.1282 E770.47901 
G1 X20.37108 Y4.2863 E791.73238 ; => originalEInc=42.50675 adjustedEInc=21.25338 density=0.5
; 
; feature travel
PRIO_OFF
G0 X19.05537 Y4.2863 ;Travel
; 
; feature fill
PRIO_ON
G1 X0.00000 Y-2.6493 E811.61307 ; => originalEInc=39.76137 adjustedEInc=19.88068 density=0.5
G1 X-4.49766 Y-4.2863 E820.99799 
; 
; feature travel
PRIO_OFF
G0 X-5.81337 Y-4.2863 ;Travel
; 
; feature fill
PRIO_ON
G1 X0.00000 Y-2.1704 E833.12830 
G1 X17.73965 Y4.2863 E851.63628 ; => originalEInc=37.01597 adjustedEInc=18.50798 density=0.5
; 
; feature travel
PRIO_OFF
G0 X16.42394 Y4.2863 ;Travel
; 
; feature fill
PRIO_ON
G1 X0.00000 Y-1.6915 E868.77158 ; => originalEInc=34.27058 adjustedEInc=17.13529 density=0.5
G1 X-7.12908 Y-4.2863 E883.64728 
; 
; feature travel
PRIO_OFF
G0 X-8.44479 Y-4.2863 ;Travel
; 
; feature fill
PRIO_ON
G1 X0.00000 Y-1.2126 E901.26838 
G1 X15.10823 Y4.2863 E917.03098 ; => originalEInc=31.52519 adjustedEInc=15.76260 density=0.5
; 
; feature travel
PRIO_OFF
G0 X13.79252 Y4.2863 ;Travel
; 
; feature fill
PRIO_ON
G1 X0.00000 Y-0.7338 E931.42087 ; => originalEInc=28.77978 adjustedEInc=14.38989 density=0.5
G1 X-9.76051 Y-4.2863 E951.78737 
; 
; feature travel
PRIO_OFF
G0 X-11.07622 Y-4.2863 ;Travel
; 
; feature fill
PRIO_ON
G1 X-0.00000 Y-0.2549 E974.89926 
G1 X12.47681 Y4.2863 E987.91646 ; => originalEInc=26.03440 adjustedEInc=13.01720 density=0.5
; 
; feature travel
PRIO_OFF
G0 X11.16109 Y4.2863 ;Travel
; 
; feature fill
PRIO_ON
G1 X0.00000 Y0.2240 E999.56095 ; => originalEInc=23.28899 adjustedEInc=11.64450 density=0.5
G1 X-12.39193 Y-4.2863 E1025.41824 
; 
; feature travel
PRIO_OFF
G0 X-13.70764 Y-4.2863 ;Travel
; 
; feature fill
PRIO_ON
G1 X0.00000 Y0.7029 E1054.02093 
G1 X9.84538 Y4.2863 E1064.29273 ; => originalEInc=20.54360 adjustedEInc=10.27180 density=0.5
; 
; feature travel
PRIO_OFF
G0 X8.52967 Y4.2863 ;Travel
; 
; feature fill
PRIO_ON
G1 X0.00000 Y1.1818 E1073.19184 ; => originalEInc=17.79821 adjustedEInc=8.89910 density=0.5
G1 X-15.02335 Y-4.2863 E1104.53991 
; 
; feature travel
PRIO_OFF
G0 X-16.33907 Y-4.2863 ;Travel
; 
; feature fill
PRIO_ON
G1 X0.00000 Y1.6606 E1138.63338 
G1 X7.21396 Y4.2863 E1146.15979 ; => originalEInc=15.05281 adjustedEInc=7.52641 density=0.5
; 
; feature travel
PRIO_OFF
G0 X5.89825 Y4.2863 ;Travel
; 
; feature fill
PRIO_ON
G1 X0.00000 Y2.1395 E1152.31350 ; => originalEInc=12.30742 adjustedEInc=6.15371 density=0.5
G1 X-17.65478 Y-4.2863 E1189.15236 
; 
; feature travel
PRIO_OFF
G0 X-18.97049 Y-4.2863 ;Travel
; 
; feature fill
PRIO_ON
G1 X-0.00000 Y2.6184 E1228.73664 
G1 X4.58253 Y4.2863 E1233.51764 ; => originalEInc=9.56202 adjustedEInc=4.78101 density=0.5
; 
; feature travel
PRIO_OFF
G0 X3.26682 Y4.2863 ;Travel
; 
; feature fill
PRIO_ON
G1 X0.00000 Y3.0973 E1236.92596 ; => originalEInc=6.81662 adjustedEInc=3.40831 density=0.5
G1 X-20.28620 Y-4.2863 E1279.25562 
; 
; feature travel
PRIO_OFF
G0 X-21.60191 Y-4.2863 ;Travel
; 
; feature fill
PRIO_ON
G1 X0.00000 Y3.5762 E1324.33067 
G1 X1.95111 Y4.2863 E1326.36629 ; => originalEInc=4.07123 adjustedEInc=2.03562 density=0.5
; 
; feature travel
PRIO_OFF
G0 X0.6354 Y4.2863 ;Travel
; 
; feature fill
PRIO_ON
G1 X0.00000 Y4.0550 E1327.02921 ; => originalEInc=1.32584 adjustedEInc=0.66292 density=0.5
G1 X-22.91763 Y-4.2863 E1374.84966 
; 
; feature travel
PRIO_OFF
G0 X-24.23334 Y-4.2863 ;Travel
; 
; feature fill
PRIO_ON
G1 X-0.68031 Y4.2863 E1423.99594 
; 
; feature travel
PRIO_OFF
G0 X-1.99603 Y4.2863 ;Travel
; 
; feature fill
PRIO_ON
G1 X-24.49470 Y-3.9026 E1470.94220 
; 
; feature travel
PRIO_OFF
G0 X-24.4947 Y-3.42367 ;Travel
; 
; feature fill
PRIO_ON
G1 X-3.31174 Y4.2863 E1515.14306 
; 
; feature travel
PRIO_OFF
G0 X-4.62745 Y4.2863 ;Travel
; 
; feature fill
PRIO_ON
G1 X-24.49470 Y-2.9448 E1556.59852 
; 
; feature travel
PRIO_OFF
G0 X-24.4947 Y-2.46591 ;Travel
; 
; feature fill
PRIO_ON
G1 X-5.94316 Y4.2863 E1595.30859 
; 
; feature travel
PRIO_OFF
G0 X-7.25887 Y4.2863 ;Travel
; 
; feature fill
PRIO_ON
G1 X-24.49470 Y-1.9870 E1631.27326 
; 
; feature travel
PRIO_OFF
G0 X-24.4947 Y-1.50815 ;Travel
; 
; feature fill
PRIO_ON
G1 X-8.57459 Y4.2863 E1664.49254 
; 
; feature travel
PRIO_OFF
G0 X-9.8903 Y4.2863 ;Travel
; 
; feature fill
PRIO_ON
G1 X-24.49470 Y-1.0293 E1694.96643 
; 
; feature travel
PRIO_OFF
G0 X-24.4947 Y-0.55039 ;Travel
; 
; feature fill
PRIO_ON
G1 X-11.20601 Y4.2863 E1722.69492 
; 
; feature travel
PRIO_OFF
G0 X-12.52172 Y4.2863 ;Travel
; 
; feature fill
PRIO_ON
G1 X-24.49470 Y-0.0715 E1747.67801 
; 
; feature travel
PRIO_OFF
G0 X-24.4947 Y0.40737 ;Travel
; 
; feature fill
PRIO_ON
G1 X-13.83743 Y4.2863 E1769.91571 
; 
; feature travel
PRIO_OFF
G0 X-15.15314 Y4.2863 ;Travel
; 
; feature fill
PRIO_ON
G1 X-24.49470 Y0.8862 E1789.40801 
; 
; feature travel
PRIO_OFF
G0 X-24.4947 Y1.36513 ;Travel
; 
; feature fill
PRIO_ON
G1 X-16.46886 Y4.2863 E1806.15492 
; 
; feature travel
PRIO_OFF
G0 X-17.78457 Y4.2863 ;Travel
; 
; feature fill
PRIO_ON
G1 X-24.49470 Y1.8440 E1820.15644 
; 
; feature travel
PRIO_OFF
G0 X-24.4947 Y2.32289 ;Travel
; 
; feature fill
PRIO_ON
G1 X-19.10028 Y4.2863 E1831.41256 
; 
; feature travel
PRIO_OFF
G0 X-20.41599 Y4.2863 ;Travel
; 
; feature fill
PRIO_ON
G1 X-24.49470 Y2.8018 E1839.92328 
; 
; feature travel
PRIO_OFF
G0 X-24.4947 Y3.28065 ;Travel
; 
; feature fill
PRIO_ON
G1 X-21.73170 Y4.2863 E1845.68861 
; 
; feature travel
PRIO_OFF
G0 X-23.04742 Y4.2863 ;Travel
; 
; feature fill
PRIO_ON
G1 X-24.49470 Y3.7595 E1848.70855 
; 
; feature travel
PRIO_OFF
G0 X-24.4947 Y4.23841 ;Travel
; 
; feature fill
PRIO_ON
G1 X-24.36313 Y4.2863 E1848.98309 
; 
; feature travel
PRIO_OFF
G0 X19.18516 Y-4.2863 ;Travel
; 
; feature fill
PRIO_ON
G1 X24.49470 Y-2.3538 E1854.52259 ; => originalEInc=11.07901 adjustedEInc=5.53951 density=0.5
; 
; feature travel
PRIO_OFF
G0 X24.4947 Y-2.83266 ;Travel
; 
; feature fill
PRIO_ON
G1 X20.50087 Y-4.2863 E1858.68940 ; => originalEInc=8.33362 adjustedEInc=4.16681 density=0.5
; 
; feature travel
PRIO_OFF
G0 X21.81658 Y-4.2863 ;Travel
; 
; feature fill
PRIO_ON
G1 X24.49470 Y-3.3115 E1861.48351 ; => originalEInc=5.58822 adjustedEInc=2.79411 density=0.5
; 
; feature travel
PRIO_OFF
G0 X24.4947 Y-3.79042 ;Travel
; 
; feature fill
PRIO_ON
G1 X23.13229 Y-4.2863 E1862.90493 ; => originalEInc=2.84283 adjustedEInc=1.42142 density=0.5
PRIO_OFF
LayersCompleted=1
M1
; 
;========================
; layer 1, Z = 0.4800
; 
; reset extrusion
STOPRE
PRESETON(E, 0)
DO PRIO_PULSE_DISTANCE=DROP_SCALE
DO PRIO_ON_PATH_OFFSET=0.5*PRIO_PULSE_DISTANCE
;outer: (25.2604,-5.0521) (25.2604,5.0521) (-25.2604,5.0521) (-25.2604,-5.0521) (23.4604,-5.0521) holes: !
;overhangs:!
; 
; feature plane change
G0 X23.13229 Y-4.2863 Z0.48 ;Plane Change
; 
; feature travel
G0 X20.77862 Y4.637 ;Travel
; 
; feature outer perimeter
G1 F24000 FL[E] = OuterPerimeterFrequency * DROP_SCALE * 60
PRIO_ON
G1 X24.84540 Y4.6370 E9.56890 
G1 X24.84540 Y-4.6370 E31.39008 
G1 X-24.84540 Y-4.6370 E148.30961 
G1 X-24.84540 Y4.6370 E170.13078 
G1 X20.77862 Y4.6370 E277.48141 
; 
; feature travel
PRIO_OFF
G0 X20.77862 Y4.286 ;Travel
; 
; feature inner perimeter
G1 F24000 FL[E] = InnerPerimeterFrequency * DROP_SCALE * 60
PRIO_ON
G1 X-24.49440 Y4.2860 E361.32033 
G1 X-24.49440 Y-4.2860 E377.19441 
G1 X24.49440 Y-4.2860 E467.91441 
G1 X24.49440 Y4.2860 E483.78848 
G1 X20.77862 Y4.2860 E490.66956 
; 
; feature travel
PRIO_OFF
G0 X20.73828 Y4.2863 ;Travel
; 
; feature fill
G1 F24000 FL[E] = FillFrequency * DROP_SCALE * 60
PRIO_ON
G1 X16.74081 Y-4.2863 E499.94291 ; => originalEInc=18.54670 adjustedEInc=9.27335 density=0.5
; 
; feature travel
PRIO_OFF
G0 X17.23733 Y-4.2863 ;Travel
; 
; feature fill
PRIO_ON
G1 X21.23480 Y4.2863 E509.21626 ; => originalEInc=18.54670 adjustedEInc=9.27335 density=0.5
; 
; feature travel
PRIO_OFF
G0 X21.73132 Y4.2863 ;Travel
; 
; feature fill
PRIO_ON
G1 X17.73385 Y-4.2863 E518.48961 ; => originalEInc=18.54670 adjustedEInc=9.27335 density=0.5
; 
; feature travel
PRIO_OFF
G0 X18.23037 Y-4.2863 ;Travel
; 
; feature fill
PRIO_ON
G1 X22.22784 Y4.2863 E527.76296 ; => originalEInc=18.54670 adjustedEInc=9.27335 density=0.5
; 
; feature travel
PRIO_OFF
G0 X22.72436 Y4.2863 ;Travel
; 
; feature fill
PRIO_ON
G1 X18.72689 Y-4.2863 E537.03632 ; => originalEInc=18.54671 adjustedEInc=9.27336 density=0.5
; 
; feature travel
PRIO_OFF
G0 X19.22341 Y-4.2863 ;Travel
; 
; feature fill
PRIO_ON
G1 X23.22088 Y4.2863 E546.30966 ; => originalEInc=18.54670 adjustedEInc=9.27335 density=0.5
; 
; feature travel
PRIO_OFF
G0 X23.7174 Y4.2863 ;Travel
; 
; feature fill
PRIO_ON
G1 X19.71993 Y-4.2863 E555.58302 ; => originalEInc=18.54670 adjustedEInc=9.27335 density=0.5
; 
; feature travel
PRIO_OFF
G0 X20.21645 Y-4.2863 ;Travel
; 
; feature fill
PRIO_ON
G1 X24.21392 Y4.2863 E564.85637 ; => originalEInc=18.54670 adjustedEInc=9.27335 density=0.5
; 
; feature travel
PRIO_OFF
G0 X24.4947 Y3.82365 ;Travel
; 
; feature fill
PRIO_ON
G1 X20.71297 Y-4.2863 E573.62925 ; => originalEInc=17.54576 adjustedEInc=8.77288 density=0.5
; 
; feature travel
PRIO_OFF
G0 X21.20949 Y-4.2863 ;Travel
; 
; feature fill
PRIO_ON
G1 X24.49470 Y2.7589 E581.25030 ; => originalEInc=15.24210 adjustedEInc=7.62105 density=0.5
; 
; feature travel
PRIO_OFF
G0 X24.4947 Y1.69407 ;Travel
; 
; feature fill
PRIO_ON
G1 X21.70601 Y-4.2863 E587.71952 ; => originalEInc=12.93844 adjustedEInc=6.46922 density=0.5
; 
; feature travel
PRIO_OFF
G0 X22.20253 Y-4.2863 ;Travel
; 
; feature fill
PRIO_ON
G1 X24.49470 Y0.6293 E593.03691 ; => originalEInc=10.63478 adjustedEInc=5.31739 density=0.5
; 
; feature travel
PRIO_OFF
G0 X24.4947 Y-0.43552 ;Travel
; 
; feature fill
PRIO_ON
G1 X22.69905 Y-4.2863 E597.20247 ; => originalEInc=8.33112 adjustedEInc=4.16556 density=0.5
; 
; feature travel
PRIO_OFF
G0 X23.19557 Y-4.2863 ;Travel
; 
; feature fill
PRIO_ON
G1 X24.49470 Y-1.5003 E600.21619 ; => originalEInc=6.02746 adjustedEInc=3.01373 density=0.5
; 
; feature travel
PRIO_OFF
G0 X24.4947 Y-2.5651 ;Travel
; 
; feature fill
PRIO_ON
G1 X23.69209 Y-4.2863 E602.07810 ; => originalEInc=3.72380 adjustedEInc=1.86190 density=0.5
; 
; feature travel
PRIO_OFF
G0 X24.18861 Y-4.2863 ;Travel
; 
; feature fill
PRIO_ON
G1 X24.49470 Y-3.6299 E602.78816 ; => originalEInc=1.42014 adjustedEInc=0.71007 density=0.5
; 
; feature travel
PRIO_OFF
G0 X16.24429 Y-4.2863 ;Travel
; 
; feature fill
PRIO_ON
G1 X20.24176 Y4.2863 E612.06151 ; => originalEInc=18.54670 adjustedEInc=9.27335 density=0.5
; 
; feature travel
PRIO_OFF
G0 X19.74524 Y4.2863 ;Travel
; 
; feature fill
PRIO_ON
G1 X15.74777 Y-4.2863 E621.33487 ; => originalEInc=18.54670 adjustedEInc=9.27335 density=0.5
; 
; feature travel
PRIO_OFF
G0 X15.25125 Y-4.2863 ;Travel
; 
; feature fill
PRIO_ON
G1 X19.24872 Y4.2863 E630.60821 ; => originalEInc=18.54670 adjustedEInc=9.27335 density=0.5
; 
; feature travel
PRIO_OFF
G0 X18.7522 Y4.2863 ;Travel
; 
; feature fill
PRIO_ON
G1 X14.75473 Y-4.2863 E639.88156 ; => originalEInc=18.54670 adjustedEInc=9.27335 density=0.5
; 
; feature travel
PRIO_OFF
G0 X14.25821 Y-4.2863 ;Travel
; 
; feature fill
PRIO_ON
G1 X18.25568 Y4.2863 E649.15491 ; => originalEInc=18.54670 adjustedEInc=9.27335 density=0.5
; 
; feature travel
PRIO_OFF
G0 X17.75916 Y4.2863 ;Travel
; 
; feature fill
PRIO_ON
G1 X13.76169 Y-4.2863 E658.42827 ; => originalEInc=18.54670 adjustedEInc=9.27335 density=0.5
; 
; feature travel
PRIO_OFF
G0 X13.26517 Y-4.2863 ;Travel
; 
; feature fill
PRIO_ON
G1 X17.26264 Y4.2863 E667.70161 ; => originalEInc=18.54670 adjustedEInc=9.27335 density=0.5
; 
; feature travel
PRIO_OFF
G0 X16.76612 Y4.2863 ;Travel
; 
; feature fill
PRIO_ON
G1 X12.76865 Y-4.2863 E676.97496 ; => originalEInc=18.54670 adjustedEInc=9.27335 density=0.5
; 
; feature travel
PRIO_OFF
G0 X12.27213 Y-4.2863 ;Travel
; 
; feature fill
PRIO_ON
G1 X16.26960 Y4.2863 E686.24832 ; => originalEInc=18.54670 adjustedEInc=9.27335 density=0.5
; 
; feature travel
PRIO_OFF
G0 X15.77308 Y4.2863 ;Travel
; 
; feature fill
PRIO_ON
G1 X11.77561 Y-4.2863 E695.52167 ; => originalEInc=18.54671 adjustedEInc=9.27336 density=0.5
; 
; feature travel
PRIO_OFF
G0 X11.27909 Y-4.2863 ;Travel
; 
; feature fill
PRIO_ON
G1 X15.27656 Y4.2863 E704.79502 ; => originalEInc=18.54670 adjustedEInc=9.27335 density=0.5
; 
; feature travel
PRIO_OFF
G0 X14.78004 Y4.2863 ;Travel
; 
; feature fill
PRIO_ON
G1 X10.78257 Y-4.2863 E714.06837 ; => originalEInc=18.54670 adjustedEInc=9.27335 density=0.5
; 
; feature travel
PRIO_OFF
G0 X10.28605 Y-4.2863 ;Travel
; 
; feature fill
PRIO_ON
G1 X14.28352 Y4.2863 E723.34172 ; => originalEInc=18.54670 adjustedEInc=9.27335 density=0.5
; 
; feature travel
PRIO_OFF
G0 X13.787 Y4.2863 ;Travel
; 
; feature fill
PRIO_ON
G1 X9.78953 Y-4.2863 E732.61507 ; => originalEInc=18.54670 adjustedEInc=9.27335 density=0.5
; 
; feature travel
PRIO_OFF
G0 X9.29301 Y-4.2863 ;Travel
; 
; feature fill
PRIO_ON
G1 X13.29048 Y4.2863 E741.88842 ; => originalEInc=18.54670 adjustedEInc=9.27335 density=0.5
; 
; feature travel
PRIO_OFF
G0 X12.79396 Y4.2863 ;Travel
; 
; feature fill
PRIO_ON
G1 X8.79649 Y-4.2863 E751.16177 ; => originalEInc=18.54670 adjustedEInc=9.27335 density=0.5
; 
; feature travel
PRIO_OFF
G0 X8.29997 Y-4.2863 ;Travel
; 
; feature fill
PRIO_ON
G1 X12.29744 Y4.2863 E760.43512 ; => originalEInc=18.54670 adjustedEInc=9.27335 density=0.5
; 
; feature travel
PRIO_OFF
G0 X11.80092 Y4.2863 ;Travel
; 
; feature fill
PRIO_ON
G1 X7.80345 Y-4.2863 E769.70847 ; => originalEInc=18.54670 adjustedEInc=9.27335 density=0.5
; 
; feature travel
PRIO_OFF
G0 X7.30693 Y-4.2863 ;Travel
; 
; feature fill
PRIO_ON
G1 X11.30440 Y4.2863 E778.98183 ; => originalEInc=18.54671 adjustedEInc=9.27336 density=0.5
; 
; feature travel
PRIO_OFF
G0 X10.80788 Y4.2863 ;Travel
; 
; feature fill
PRIO_ON
G1 X6.81041 Y-4.2863 E788.25518 ; => originalEInc=18.54670 adjustedEInc=9.27335 density=0.5
; 
; feature travel
PRIO_OFF
G0 X6.31389 Y-4.2863 ;Travel
; 
; feature fill
PRIO_ON
G1 X10.31136 Y4.2863 E797.52853 ; => originalEInc=18.54670 adjustedEInc=9.27335 density=0.5
; 
; feature travel
PRIO_OFF
G0 X9.81484 Y4.2863 ;Travel
; 
; feature fill
PRIO_ON
G1 X5.81737 Y-4.2863 E806.80188 ; => originalEInc=18.54670 adjustedEInc=9.27335 density=0.5
; 
; feature travel
PRIO_OFF
G0 X5.32085 Y-4.2863 ;Travel
; 
; feature fill
PRIO_ON
G1 X9.31832 Y4.2863 E816.07523 ; => originalEInc=18.54670 adjustedEInc=9.27335 density=0.5
; 
; feature travel
PRIO_OFF
G0 X8.8218 Y4.2863 ;Travel
; 
; feature fill
PRIO_ON
G1 X4.82433 Y-4.2863 E825.34857 ; => originalEInc=18.54670 adjustedEInc=9.27335 density=0.5
; 
; feature travel
PRIO_OFF
G0 X4.32781 Y-4.2863 ;Travel
; 
; feature fill
PRIO_ON
G1 X8.32528 Y4.2863 E834.62193 ; => originalEInc=18.54670 adjustedEInc=9.27335 density=0.5
; 
; feature travel
PRIO_OFF
G0 X7.82876 Y4.2863 ;Travel
; 
; feature fill
PRIO_ON
G1 X3.83129 Y-4.2863 E843.89528 ; => originalEInc=18.54670 adjustedEInc=9.27335 density=0.5
; 
; feature travel
PRIO_OFF
G0 X3.33477 Y-4.2863 ;Travel
; 
; feature fill
PRIO_ON
G1 X7.33224 Y4.2863 E853.16863 ; => originalEInc=18.54670 adjustedEInc=9.27335 density=0.5
; 
; feature travel
PRIO_OFF
G0 X6.83572 Y4.2863 ;Travel
; 
; feature fill
PRIO_ON
G1 X2.83825 Y-4.2863 E862.44198 ; => originalEInc=18.54671 adjustedEInc=9.27336 density=0.5
; 
; feature travel
PRIO_OFF
G0 X2.34173 Y-4.2863 ;Travel
; 
; feature fill
PRIO_ON
G1 X6.33920 Y4.2863 E871.71533 ; => originalEInc=18.54670 adjustedEInc=9.27335 density=0.5
; 
; feature travel
PRIO_OFF
G0 X5.84268 Y4.2863 ;Travel
; 
; feature fill
PRIO_ON
G1 X1.84521 Y-4.2863 E880.98868 ; => originalEInc=18.54670 adjustedEInc=9.27335 density=0.5
; 
; feature travel
PRIO_OFF
G0 X1.34869 Y-4.2863 ;Travel
; 
; feature fill
PRIO_ON
G1 X5.34616 Y4.2863 E890.26203 ; => originalEInc=18.54670 adjustedEInc=9.27335 density=0.5
; 
; feature travel
PRIO_OFF
G0 X4.84964 Y4.2863 ;Travel
; 
; feature fill
PRIO_ON
G1 X0.85217 Y-4.2863 E899.53538 ; => originalEInc=18.54670 adjustedEInc=9.27335 density=0.5
; 
; feature travel
PRIO_OFF
G0 X0.35565 Y-4.2863 ;Travel
; 
; feature fill
PRIO_ON
G1 X4.35312 Y4.2863 E908.80873 ; => originalEInc=18.54670 adjustedEInc=9.27335 density=0.5
; 
; feature travel
PRIO_OFF
G0 X3.8566 Y4.2863 ;Travel
; 
; feature fill
PRIO_ON
G1 X0.00000 Y-3.9842 E917.75529 ; => originalEInc=17.89312 adjustedEInc=8.94656 density=0.5
G1 X-0.14087 Y-4.2863 E918.40887 
; 
; feature travel
PRIO_OFF
G0 X-0.63739 Y-4.2863 ;Travel
; 
; feature fill
PRIO_ON
G1 X0.00000 Y-2.9194 E921.36611 
G1 X3.36008 Y4.2863 E929.16084 ; => originalEInc=15.58946 adjustedEInc=7.79473 density=0.5
; 
; feature travel
PRIO_OFF
G0 X2.86356 Y4.2863 ;Travel
; 
; feature fill
PRIO_ON
G1 X0.00000 Y-1.8546 E935.80374 ; => originalEInc=13.28580 adjustedEInc=6.64290 density=0.5
G1 X-1.13391 Y-4.2863 E941.06464 
; 
; feature travel
PRIO_OFF
G0 X-1.63043 Y-4.2863 ;Travel
; 
; feature fill
PRIO_ON
G1 X0.00000 Y-0.7898 E948.62920 
G1 X2.36704 Y4.2863 E954.12027 ; => originalEInc=10.98214 adjustedEInc=5.49107 density=0.5
; 
; feature travel
PRIO_OFF
G0 X1.87052 Y4.2863 ;Travel
; 
; feature fill
PRIO_ON
G1 X0.00000 Y0.2750 E958.45951 ; => originalEInc=8.67849 adjustedEInc=4.33924 density=0.5
G1 X-2.12695 Y-4.2863 E968.32774 
; 
; feature travel
PRIO_OFF
G0 X-2.62347 Y-4.2863 ;Travel
; 
; feature fill
PRIO_ON
G1 X0.00000 Y1.3397 E980.49961 
G1 X1.37400 Y4.2863 E983.68703 ; => originalEInc=6.37482 adjustedEInc=3.18741 density=0.5
; 
; feature travel
PRIO_OFF
G0 X0.87748 Y4.2863 ;Travel
; 
; feature fill
PRIO_ON
G1 X0.00000 Y2.4045 E985.72261 ; => originalEInc=4.07116 adjustedEInc=2.03558 density=0.5
G1 X-3.11999 Y-4.2863 E1000.19814 
; 
; feature travel
PRIO_OFF
G0 X-3.61651 Y-4.2863 ;Travel
; 
; feature fill
PRIO_ON
G1 X0.00000 Y3.4693 E1016.97734 
G1 X0.38096 Y4.2863 E1017.86109 ; => originalEInc=1.76751 adjustedEInc=0.88375 density=0.5
; 
; feature travel
PRIO_OFF
G0 X-0.11556 Y4.2863 ;Travel
; 
; feature fill
PRIO_ON
G1 X-4.11303 Y-4.2863 E1036.40779 
; 
; feature travel
PRIO_OFF
G0 X-4.60955 Y-4.2863 ;Travel
; 
; feature fill
PRIO_ON
G1 X-0.61208 Y4.2863 E1054.95449 
; 
; feature travel
PRIO_OFF
G0 X-1.10861 Y4.2863 ;Travel
; 
; feature fill
PRIO_ON
G1 X-5.10607 Y-4.2863 E1073.50119 
; 
; feature travel
PRIO_OFF
G0 X-5.60259 Y-4.2863 ;Travel
; 
; feature fill
PRIO_ON
G1 X-1.60513 Y4.2863 E1092.04789 
; 
; feature travel
PRIO_OFF
G0 X-2.10165 Y4.2863 ;Travel
; 
; feature fill
PRIO_ON
G1 X-6.09911 Y-4.2863 E1110.59459 
; 
; feature travel
PRIO_OFF
G0 X-6.59563 Y-4.2863 ;Travel
; 
; feature fill
PRIO_ON
G1 X-2.59817 Y4.2863 E1129.14130 
; 
; feature travel
PRIO_OFF
G0 X-3.09469 Y4.2863 ;Travel
; 
; feature fill
PRIO_ON
G1 X-7.09215 Y-4.2863 E1147.68800 
; 
; feature travel
PRIO_OFF
G0 X-7.58867 Y-4.2863 ;Travel
; 
; feature fill
PRIO_ON
G1 X-3.59121 Y4.2863 E1166.23470 
; 
; feature travel
PRIO_OFF
G0 X-4.08773 Y4.2863 ;Travel
; 
; feature fill
PRIO_ON
G1 X-8.08519 Y-4.2863 E1184.78140 
; 
; feature travel
PRIO_OFF
G0 X-8.58171 Y-4.2863 ;Travel
; 
; feature fill
PRIO_ON
G1 X-4.58425 Y4.2863 E1203.32810 
; 
; feature travel
PRIO_OFF
G0 X-5.08077 Y4.2863 ;Travel
; 
; feature fill
PRIO_ON
G1 X-9.07823 Y-4.2863 E1221.87480 
; 
; feature travel
PRIO_OFF
G0 X-9.57475 Y-4.2863 ;Travel
; 
; feature fill
PRIO_ON
G1 X-5.57729 Y4.2863 E1240.42150 
; 
; feature travel
PRIO_OFF
G0 X-6.07381 Y4.2863 ;Travel
; 
; feature fill
PRIO_ON
G1 X-10.07127 Y-4.2863 E1258.96820 
; 
; feature travel
PRIO_OFF
G0 X-10.56779 Y-4.2863 ;Travel
; 
; feature fill
PRIO_ON
G1 X-6.57033 Y4.2863 E1277.51490 
; 
; feature travel
PRIO_OFF
G0 X-7.06685 Y4.2863 ;Travel
; 
; feature fill
PRIO_ON
G1 X-11.06431 Y-4.2863 E1296.06161 
; 
; feature travel
PRIO_OFF
G0 X-11.56083 Y-4.2863 ;Travel
; 
; feature fill
PRIO_ON
G1 X-7.56337 Y4.2863 E1314.60831 
; 
; feature travel
PRIO_OFF
G0 X-8.05989 Y4.2863 ;Travel
; 
; feature fill
PRIO_ON
G1 X-12.05735 Y-4.2863 E1333.15501 
; 
; feature travel
PRIO_OFF
G0 X-12.55387 Y-4.2863 ;Travel
; 
; feature fill
PRIO_ON
G1 X-8.55641 Y4.2863 E1351.70171 
; 
; feature travel
PRIO_OFF
G0 X-9.05293 Y4.2863 ;Travel
; 
; feature fill
PRIO_ON
G1 X-13.05040 Y-4.2863 E1370.24841 
; 
; feature travel
PRIO_OFF
G0 X-13.54692 Y-4.2863 ;Travel
; 
; feature fill
PRIO_ON
G1 X-9.54945 Y4.2863 E1388.79511 
; 
; feature travel
PRIO_OFF
G0 X-10.04597 Y4.2863 ;Travel
; 
; feature fill
PRIO_ON
G1 X-14.04344 Y-4.2863 E1407.34181 
; 
; feature travel
PRIO_OFF
G0 X-14.53996 Y-4.2863 ;Travel
; 
; feature fill
PRIO_ON
G1 X-10.54249 Y4.2863 E1425.88851 
; 
; feature travel
PRIO_OFF
G0 X-11.03901 Y4.2863 ;Travel
; 
; feature fill
PRIO_ON
G1 X-15.03648 Y-4.2863 E1444.43521 
; 
; feature travel
PRIO_OFF
G0 X-15.533 Y-4.2863 ;Travel
; 
; feature fill
PRIO_ON
G1 X-11.53553 Y4.2863 E1462.98192 
; 
; feature travel
PRIO_OFF
G0 X-12.03205 Y4.2863 ;Travel
; 
; feature fill
PRIO_ON
G1 X-16.02952 Y-4.2863 E1481.52862 
; 
; feature travel
PRIO_OFF
G0 X-16.52604 Y-4.2863 ;Travel
; 
; feature fill
PRIO_ON
G1 X-12.52857 Y4.2863 E1500.07532 
; 
; feature travel
PRIO_OFF
G0 X-13.02509 Y4.2863 ;Travel
; 
; feature fill
PRIO_ON
G1 X-17.02256 Y-4.2863 E1518.62202 
; 
; feature travel
PRIO_OFF
G0 X-17.51908 Y-4.2863 ;Travel
; 
; feature fill
PRIO_ON
G1 X-13.52161 Y4.2863 E1537.16872 
; 
; feature travel
PRIO_OFF
G0 X-14.01813 Y4.2863 ;Travel
; 
; feature fill
PRIO_ON
G1 X-18.01560 Y-4.2863 E1555.71542 
; 
; feature travel
PRIO_OFF
G0 X-18.51212 Y-4.2863 ;Travel
; 
; feature fill
PRIO_ON
G1 X-14.51465 Y4.2863 E1574.26212 
; 
; feature travel
PRIO_OFF
G0 X-15.01117 Y4.2863 ;Travel
; 
; feature fill
PRIO_ON
G1 X-19.00864 Y-4.2863 E1592.80882 
; 
; feature travel
PRIO_OFF
G0 X-19.50516 Y-4.2863 ;Travel
; 
; feature fill
PRIO_ON
G1 X-15.50769 Y4.2863 E1611.35552 
; 
; feature travel
PRIO_OFF
G0 X-16.00421 Y4.2863 ;Travel
; 
; feature fill
PRIO_ON
G1 X-20.00168 Y-4.2863 E1629.90222 
; 
; feature travel
PRIO_OFF
G0 X-20.4982 Y-4.2863 ;Travel
; 
; feature fill
PRIO_ON
G1 X-16.50073 Y4.2863 E1648.44893 
; 
; feature travel
PRIO_OFF
G0 X-16.99725 Y4.2863 ;Travel
; 
; feature fill
PRIO_ON
G1 X-20.99472 Y-4.2863 E1666.99563 
; 
; feature travel
PRIO_OFF
G0 X-21.49124 Y-4.2863 ;Travel
; 
; feature fill
PRIO_ON
G1 X-17.49377 Y4.2863 E1685.54233 
; 
; feature travel
PRIO_OFF
G0 X-17.99029 Y4.2863 ;Travel
; 
; feature fill
PRIO_ON
G1 X-21.98776 Y-4.2863 E1704.08903 
; 
; feature travel
PRIO_OFF
G0 X-22.48428 Y-4.2863 ;Travel
; 
; feature fill
PRIO_ON
G1 X-18.48681 Y4.2863 E1722.63573 
; 
; feature travel
PRIO_OFF
G0 X-18.98333 Y4.2863 ;Travel
; 
; feature fill
PRIO_ON
G1 X-22.98080 Y-4.2863 E1741.18243 
; 
; feature travel
PRIO_OFF
G0 X-23.47732 Y-4.2863 ;Travel
; 
; feature fill
PRIO_ON
G1 X-19.47985 Y4.2863 E1759.72913 
; 
; feature travel
PRIO_OFF
G0 X-19.97637 Y4.2863 ;Travel
; 
; feature fill
PRIO_ON
G1 X-23.97384 Y-4.2863 E1778.27583 
; 
; feature travel
PRIO_OFF
G0 X-24.47036 Y-4.2863 ;Travel
; 
; feature fill
PRIO_ON
G1 X-20.47289 Y4.2863 E1796.82253 
; 
; feature travel
PRIO_OFF
G0 X-20.96941 Y4.2863 ;Travel
; 
; feature fill
PRIO_ON
G1 X-24.49470 Y-3.2737 E1813.17852 
; 
; feature travel
PRIO_OFF
G0 X-24.4947 Y-2.20892 ;Travel
; 
; feature fill
PRIO_ON
G1 X-21.46593 Y4.2863 E1827.23085 
; 
; feature travel
PRIO_OFF
G0 X-21.96245 Y4.2863 ;Travel
; 
; feature fill
PRIO_ON
G1 X-24.49470 Y-1.1441 E1838.97951 
; 
; feature travel
PRIO_OFF
G0 X-24.4947 Y-0.07934 ;Travel
; 
; feature fill
PRIO_ON
G1 X-22.45897 Y4.2863 E1848.42452 
; 
; feature travel
PRIO_OFF
G0 X-22.95549 Y4.2863 ;Travel
; 
; feature fill
PRIO_ON
G1 X-24.49470 Y0.9855 E1855.56586 
; 
; feature travel
PRIO_OFF
G0 X-24.4947 Y2.05024 ;Travel
; 
; feature fill
PRIO_ON
G1 X-23.45201 Y4.2863 E1860.40355 
; 
; feature travel
PRIO_OFF
G0 X-23.94853 Y4.2863 ;Travel
; 
; feature fill
PRIO_ON
G1 X-24.49470 Y3.1150 E1862.93757 
; 
; feature travel
PRIO_OFF
G0 X-24.4947 Y4.17982 ;Travel
; 
; feature fill
PRIO_ON
G1 X-24.44505 Y4.2863 E1863.16794 
PRIO_OFF
LayersCompleted=2
M1
; 
;========================
; layer 2, Z = 0.7200
; 
; reset extrusion
STOPRE
PRESETON(E, 0)
DO PRIO_PULSE_DISTANCE=DROP_SCALE
DO PRIO_ON_PATH_OFFSET=0.5*PRIO_PULSE_DISTANCE
;outer: (25.2604,-5.0521) (25.2604,5.0521) (-25.2604,5.0521) (-25.2604,-5.0521) (22.2604,-5.0521) holes: !
;overhangs:!
; 
; feature plane change
G0 X-24.44505 Y4.2863 Z0.72 ;Plane Change
; 
; feature travel
G0 X18.80579 Y-4.637 ;Travel
; 
; feature outer perimeter
G1 F24000 FL[E] = OuterPerimeterFrequency * DROP_SCALE * 60
PRIO_ON
G1 X24.84540 Y-4.6370 E14.21084 
G1 X24.84540 Y4.6370 E36.03202 
G1 X-24.84540 Y4.6370 E152.95155 
G1 X-24.84540 Y-4.6370 E174.77272 
G1 X18.80579 Y-4.6370 E277.48141 
; 
; feature travel
PRIO_OFF
G0 X18.80579 Y-4.286 ;Travel
; 
; feature inner perimeter
G1 F24000 FL[E] = InnerPerimeterFrequency * DROP_SCALE * 60
PRIO_ON
G1 X-24.49440 Y-4.2860 E357.66695 
G1 X-24.49440 Y4.2860 E373.54103 
G1 X24.49440 Y4.2860 E464.26103 
G1 X24.49440 Y-4.2860 E480.13510 
G1 X18.80579 Y-4.2860 E490.66956 
; 
; feature travel
PRIO_OFF
G0 X18.65239 Y-4.2863 ;Travel
; 
; feature fill
G1 F24000 FL[E] = FillFrequency * DROP_SCALE * 60
PRIO_ON
G1 X15.53222 Y4.2863 E499.61345 ; => originalEInc=17.88778 adjustedEInc=8.94389 density=0.5
; 
; feature travel
PRIO_OFF
G0 X16.0111 Y4.2863 ;Travel
; 
; feature fill
PRIO_ON
G1 X19.13127 Y-4.2863 E508.55734 ; => originalEInc=17.88779 adjustedEInc=8.94389 density=0.5
; 
; feature travel
PRIO_OFF
G0 X19.61015 Y-4.2863 ;Travel
; 
; feature fill
PRIO_ON
G1 X16.48998 Y4.2863 E517.50124 ; => originalEInc=17.88779 adjustedEInc=8.94389 density=0.5
; 
; feature travel
PRIO_OFF
G0 X16.96886 Y4.2863 ;Travel
; 
; feature fill
PRIO_ON
G1 X20.08903 Y-4.2863 E526.44513 ; => originalEInc=17.88778 adjustedEInc=8.94389 density=0.5
; 
; feature travel
PRIO_OFF
G0 X20.56791 Y-4.2863 ;Travel
; 
; feature fill
PRIO_ON
G1 X17.44774 Y4.2863 E535.38902 ; => originalEInc=17.88779 adjustedEInc=8.94389 density=0.5
; 
; feature travel
PRIO_OFF
G0 X17.92662 Y4.2863 ;Travel
; 
; feature fill
PRIO_ON
G1 X21.04679 Y-4.2863 E544.33291 ; => originalEInc=17.88778 adjustedEInc=8.94389 density=0.5
; 
; feature travel
PRIO_OFF
G0 X21.52567 Y-4.2863 ;Travel
; 
; feature fill
PRIO_ON
G1 X18.40550 Y4.2863 E553.27681 ; => originalEInc=17.88779 adjustedEInc=8.94389 density=0.5
; 
; feature travel
PRIO_OFF
G0 X18.88438 Y4.2863 ;Travel
; 
; feature fill
PRIO_ON
G1 X22.00455 Y-4.2863 E562.22070 ; => originalEInc=17.88778 adjustedEInc=8.94389 density=0.5
; 
; feature travel
PRIO_OFF
G0 X22.48343 Y-4.2863 ;Travel
; 
; feature fill
PRIO_ON
G1 X19.36326 Y4.2863 E571.16459 ; => originalEInc=17.88779 adjustedEInc=8.94389 density=0.5
; 
; feature travel
PRIO_OFF
G0 X19.84214 Y4.2863 ;Travel
; 
; feature fill
PRIO_ON
G1 X22.96231 Y-4.2863 E580.10848 ; => originalEInc=17.88778 adjustedEInc=8.94389 density=0.5
; 
; feature travel
PRIO_OFF
G0 X23.44119 Y-4.2863 ;Travel
; 
; feature fill
PRIO_ON
G1 X20.32102 Y4.2863 E589.05238 ; => originalEInc=17.88779 adjustedEInc=8.94389 density=0.5
; 
; feature travel
PRIO_OFF
G0 X20.7999 Y4.2863 ;Travel
; 
; feature fill
PRIO_ON
G1 X23.92007 Y-4.2863 E597.99627 ; => originalEInc=17.88778 adjustedEInc=8.94389 density=0.5
; 
; feature travel
PRIO_OFF
G0 X24.39895 Y-4.2863 ;Travel
; 
; feature fill
PRIO_ON
G1 X21.27878 Y4.2863 E606.94016 ; => originalEInc=17.88779 adjustedEInc=8.94389 density=0.5
; 
; feature travel
PRIO_OFF
G0 X21.75766 Y4.2863 ;Travel
; 
; feature fill
PRIO_ON
G1 X24.49470 Y-3.2337 E614.78583 ; => originalEInc=15.69133 adjustedEInc=7.84566 density=0.5
; 
; feature travel
PRIO_OFF
G0 X24.4947 Y-1.91795 ;Travel
; 
; feature fill
PRIO_ON
G1 X22.23654 Y4.2863 E621.25880 ; => originalEInc=12.94594 adjustedEInc=6.47297 density=0.5
; 
; feature travel
PRIO_OFF
G0 X22.71542 Y4.2863 ;Travel
; 
; feature fill
PRIO_ON
G1 X24.49470 Y-0.6022 E626.35907 ; => originalEInc=10.20054 adjustedEInc=5.10027 density=0.5
; 
; feature travel
PRIO_OFF
G0 X24.4947 Y0.71347 ;Travel
; 
; feature fill
PRIO_ON
G1 X23.19430 Y4.2863 E630.08664 ; => originalEInc=7.45515 adjustedEInc=3.72758 density=0.5
; 
; feature travel
PRIO_OFF
G0 X23.67318 Y4.2863 ;Travel
; 
; feature fill
PRIO_ON
G1 X24.49470 Y2.0292 E632.44152 ; => originalEInc=4.70975 adjustedEInc=2.35487 density=0.5
; 
; feature travel
PRIO_OFF
G0 X24.4947 Y3.34489 ;Travel
; 
; feature fill
PRIO_ON
G1 X24.15206 Y4.2863 E633.42370 ; => originalEInc=1.96436 adjustedEInc=0.98218 density=0.5
; 
; feature travel
PRIO_OFF
G0 X15.05334 Y4.2863 ;Travel
; 
; feature fill
PRIO_ON
G1 X18.17351 Y-4.2863 E642.36759 ; => originalEInc=17.88778 adjustedEInc=8.94389 density=0.5
; 
; feature travel
PRIO_OFF
G0 X17.69463 Y-4.2863 ;Travel
; 
; feature fill
PRIO_ON
G1 X14.57446 Y4.2863 E651.31148 ; => originalEInc=17.88779 adjustedEInc=8.94389 density=0.5
; 
; feature travel
PRIO_OFF
G0 X14.09558 Y4.2863 ;Travel
; 
; feature fill
PRIO_ON
G1 X17.21575 Y-4.2863 E660.25537 ; => originalEInc=17.88778 adjustedEInc=8.94389 density=0.5
; 
; feature travel
PRIO_OFF
G0 X16.73687 Y-4.2863 ;Travel
; 
; feature fill
PRIO_ON
G1 X13.61670 Y4.2863 E669.19927 ; => originalEInc=17.88779 adjustedEInc=8.94389 density=0.5
; 
; feature travel
PRIO_OFF
G0 X13.13782 Y4.2863 ;Travel
; 
; feature fill
PRIO_ON
G1 X16.25799 Y-4.2863 E678.14316 ; => originalEInc=17.88778 adjustedEInc=8.94389 density=0.5
; 
; feature travel
PRIO_OFF
G0 X15.77911 Y-4.2863 ;Travel
; 
; feature fill
PRIO_ON
G1 X12.65894 Y4.2863 E687.08705 ; => originalEInc=17.88779 adjustedEInc=8.94389 density=0.5
; 
; feature travel
PRIO_OFF
G0 X12.18006 Y4.2863 ;Travel
; 
; feature fill
PRIO_ON
G1 X15.30023 Y-4.2863 E696.03094 ; => originalEInc=17.88778 adjustedEInc=8.94389 density=0.5
; 
; feature travel
PRIO_OFF
G0 X14.82135 Y-4.2863 ;Travel
; 
; feature fill
PRIO_ON
G1 X11.70118 Y4.2863 E704.97484 ; => originalEInc=17.88779 adjustedEInc=8.94389 density=0.5
; 
; feature travel
PRIO_OFF
G0 X11.2223 Y4.2863 ;Travel
; 
; feature fill
PRIO_ON
G1 X14.34247 Y-4.2863 E713.91873 ; => originalEInc=17.88778 adjustedEInc=8.94389 density=0.5
; 
; feature travel
PRIO_OFF
G0 X13.86359 Y-4.2863 ;Travel
; 
; feature fill
PRIO_ON
G1 X10.74342 Y4.2863 E722.86262 ; => originalEInc=17.88779 adjustedEInc=8.94389 density=0.5
; 
; feature travel
PRIO_OFF
G0 X10.26454 Y4.2863 ;Travel
; 
; feature fill
PRIO_ON
G1 X13.38471 Y-4.2863 E731.80651 ; => originalEInc=17.88778 adjustedEInc=8.94389 density=0.5
; 
; feature travel
PRIO_OFF
G0 X12.90583 Y-4.2863 ;Travel
; 
; feature fill
PRIO_ON
G1 X9.78566 Y4.2863 E740.75041 ; => originalEInc=17.88779 adjustedEInc=8.94389 density=0.5
; 
; feature travel
PRIO_OFF
G0 X9.30678 Y4.2863 ;Travel
; 
; feature fill
PRIO_ON
G1 X12.42695 Y-4.2863 E749.69430 ; => originalEInc=17.88778 adjustedEInc=8.94389 density=0.5
; 
; feature travel
PRIO_OFF
G0 X11.94807 Y-4.2863 ;Travel
; 
; feature fill
PRIO_ON
G1 X8.82790 Y4.2863 E758.63819 ; => originalEInc=17.88779 adjustedEInc=8.94389 density=0.5
; 
; feature travel
PRIO_OFF
G0 X8.34902 Y4.2863 ;Travel
; 
; feature fill
PRIO_ON
G1 X11.46919 Y-4.2863 E767.58208 ; => originalEInc=17.88778 adjustedEInc=8.94389 density=0.5
; 
; feature travel
PRIO_OFF
G0 X10.99031 Y-4.2863 ;Travel
; 
; feature fill
PRIO_ON
G1 X7.87014 Y4.2863 E776.52598 ; => originalEInc=17.88779 adjustedEInc=8.94390 density=0.5
; 
; feature travel
PRIO_OFF
G0 X7.39126 Y4.2863 ;Travel
; 
; feature fill
PRIO_ON
G1 X10.51143 Y-4.2863 E785.46987 ; => originalEInc=17.88778 adjustedEInc=8.94389 density=0.5
; 
; feature travel
PRIO_OFF
G0 X10.03255 Y-4.2863 ;Travel
; 
; feature fill
PRIO_ON
G1 X6.91238 Y4.2863 E794.41376 ; => originalEInc=17.88779 adjustedEInc=8.94389 density=0.5
; 
; feature travel
PRIO_OFF
G0 X6.4335 Y4.2863 ;Travel
; 
; feature fill
PRIO_ON
G1 X9.55367 Y-4.2863 E803.35765 ; => originalEInc=17.88778 adjustedEInc=8.94389 density=0.5
; 
; feature travel
PRIO_OFF
G0 X9.07479 Y-4.2863 ;Travel
; 
; feature fill
PRIO_ON
G1 X5.95462 Y4.2863 E812.30155 ; => originalEInc=17.88779 adjustedEInc=8.94390 density=0.5
; 
; feature travel
PRIO_OFF
G0 X5.47574 Y4.2863 ;Travel
; 
; feature fill
PRIO_ON
G1 X8.59591 Y-4.2863 E821.24544 ; => originalEInc=17.88778 adjustedEInc=8.94389 density=0.5
; 
; feature travel
PRIO_OFF
G0 X8.11703 Y-4.2863 ;Travel
; 
; feature fill
PRIO_ON
G1 X4.99686 Y4.2863 E830.18933 ; => originalEInc=17.88779 adjustedEInc=8.94389 density=0.5
; 
; feature travel
PRIO_OFF
G0 X4.51798 Y4.2863 ;Travel
; 
; feature fill
PRIO_ON
G1 X7.63815 Y-4.2863 E839.13322 ; => originalEInc=17.88778 adjustedEInc=8.94389 density=0.5
; 
; feature travel
PRIO_OFF
G0 X7.15927 Y-4.2863 ;Travel
; 
; feature fill
PRIO_ON
G1 X4.03910 Y4.2863 E848.07712 ; => originalEInc=17.88779 adjustedEInc=8.94390 density=0.5
; 
; feature travel
PRIO_OFF
G0 X3.56022 Y4.2863 ;Travel
; 
; feature fill
PRIO_ON
G1 X6.68039 Y-4.2863 E857.02101 ; => originalEInc=17.88778 adjustedEInc=8.94389 density=0.5
; 
; feature travel
PRIO_OFF
G0 X6.20151 Y-4.2863 ;Travel
; 
; feature fill
PRIO_ON
G1 X3.08134 Y4.2863 E865.96490 ; => originalEInc=17.88779 adjustedEInc=8.94389 density=0.5
; 
; feature travel
PRIO_OFF
G0 X2.60246 Y4.2863 ;Travel
; 
; feature fill
PRIO_ON
G1 X5.72263 Y-4.2863 E874.90879 ; => originalEInc=17.88778 adjustedEInc=8.94389 density=0.5
; 
; feature travel
PRIO_OFF
G0 X5.24375 Y-4.2863 ;Travel
; 
; feature fill
PRIO_ON
G1 X2.12358 Y4.2863 E883.85269 ; => originalEInc=17.88779 adjustedEInc=8.94390 density=0.5
; 
; feature travel
PRIO_OFF
G0 X1.6447 Y4.2863 ;Travel
; 
; feature fill
PRIO_ON
G1 X4.76487 Y-4.2863 E892.79658 ; => originalEInc=17.88778 adjustedEInc=8.94389 density=0.5
; 
; feature travel
PRIO_OFF
G0 X4.28599 Y-4.2863 ;Travel
; 
; feature fill
PRIO_ON
G1 X1.16582 Y4.2863 E901.74047 ; => originalEInc=17.88779 adjustedEInc=8.94389 density=0.5
; 
; feature travel
PRIO_OFF
G0 X0.68694 Y4.2863 ;Travel
; 
; feature fill
PRIO_ON
G1 X3.80711 Y-4.2863 E910.68436 ; => originalEInc=17.88778 adjustedEInc=8.94389 density=0.5
; 
; feature travel
PRIO_OFF
G0 X3.32823 Y-4.2863 ;Travel
; 
; feature fill
PRIO_ON
G1 X0.20806 Y4.2863 E919.62826 ; => originalEInc=17.88779 adjustedEInc=8.94390 density=0.5
; 
; feature travel
PRIO_OFF
G0 X-0.27082 Y4.2863 ;Travel
; 
; feature fill
PRIO_ON
G1 X0.00000 Y3.5422 E921.18086 
G1 X2.84935 Y-4.2863 E929.34845 ; => originalEInc=16.33518 adjustedEInc=8.16759 density=0.5
; 
; feature travel
PRIO_OFF
G0 X2.37047 Y-4.2863 ;Travel
; 
; feature fill
PRIO_ON
G1 X-0.00000 Y2.2265 E936.14335 ; => originalEInc=13.58979 adjustedEInc=6.79490 density=0.5
G1 X-0.74970 Y4.2863 E940.44134 
; 
; feature travel
PRIO_OFF
G0 X-1.22858 Y4.2863 ;Travel
; 
; feature fill
PRIO_ON
G1 X0.00000 Y0.9108 E947.48473 
G1 X1.89159 Y-4.2863 E952.90693 ; => originalEInc=10.84439 adjustedEInc=5.42220 density=0.5
; 
; feature travel
PRIO_OFF
G0 X1.41271 Y-4.2863 ;Travel
; 
; feature fill
PRIO_ON
G1 X0.00000 Y-0.4049 E956.95643 ; => originalEInc=8.09900 adjustedEInc=4.04950 density=0.5
G1 X-1.70746 Y4.2863 E966.74522 
; 
; feature travel
PRIO_OFF
G0 X-2.18634 Y4.2863 ;Travel
; 
; feature fill
PRIO_ON
G1 X0.00000 Y-1.7206 E979.27939 
G1 X0.93383 Y-4.2863 E981.95619 ; => originalEInc=5.35360 adjustedEInc=2.67680 density=0.5
; 
; feature travel
PRIO_OFF
G0 X0.45495 Y-4.2863 ;Travel
; 
; feature fill
PRIO_ON
G1 X0.00000 Y-3.0363 E983.26030 ; => originalEInc=2.60821 adjustedEInc=1.30410 density=0.5
G1 X-2.66522 Y4.2863 E998.53988 
; 
; feature travel
PRIO_OFF
G0 X-3.1441 Y4.2863 ;Travel
; 
; feature fill
PRIO_ON
G1 X-0.02393 Y-4.2863 E1016.42766 
; 
; feature travel
PRIO_OFF
G0 X-0.50281 Y-4.2863 ;Travel
; 
; feature fill
PRIO_ON
G1 X-3.62298 Y4.2863 E1034.31545 
; 
; feature travel
PRIO_OFF
G0 X-4.10186 Y4.2863 ;Travel
; 
; feature fill
PRIO_ON
G1 X-0.98169 Y-4.2863 E1052.20323 
; 
; feature travel
PRIO_OFF
G0 X-1.46057 Y-4.2863 ;Travel
; 
; feature fill
PRIO_ON
G1 X-4.58074 Y4.2863 E1070.09102 
; 
; feature travel
PRIO_OFF
G0 X-5.05962 Y4.2863 ;Travel
; 
; feature fill
PRIO_ON
G1 X-1.93945 Y-4.2863 E1087.97880 
; 
; feature travel
PRIO_OFF
G0 X-2.41833 Y-4.2863 ;Travel
; 
; feature fill
PRIO_ON
G1 X-5.53850 Y4.2863 E1105.86659 
; 
; feature travel
PRIO_OFF
G0 X-6.01738 Y4.2863 ;Travel
; 
; feature fill
PRIO_ON
G1 X-2.89721 Y-4.2863 E1123.75437 
; 
; feature travel
PRIO_OFF
G0 X-3.37609 Y-4.2863 ;Travel
; 
; feature fill
PRIO_ON
G1 X-6.49626 Y4.2863 E1141.64216 
; 
; feature travel
PRIO_OFF
G0 X-6.97514 Y4.2863 ;Travel
; 
; feature fill
PRIO_ON
G1 X-3.85497 Y-4.2863 E1159.52994 
; 
; feature travel
PRIO_OFF
G0 X-4.33385 Y-4.2863 ;Travel
; 
; feature fill
PRIO_ON
G1 X-7.45402 Y4.2863 E1177.41773 
; 
; feature travel
PRIO_OFF
G0 X-7.9329 Y4.2863 ;Travel
; 
; feature fill
PRIO_ON
G1 X-4.81273 Y-4.2863 E1195.30551 
; 
; feature travel
PRIO_OFF
G0 X-5.29161 Y-4.2863 ;Travel
; 
; feature fill
PRIO_ON
G1 X-8.41178 Y4.2863 E1213.19330 
; 
; feature travel
PRIO_OFF
G0 X-8.89066 Y4.2863 ;Travel
; 
; feature fill
PRIO_ON
G1 X-5.77049 Y-4.2863 E1231.08109 
; 
; feature travel
PRIO_OFF
G0 X-6.24937 Y-4.2863 ;Travel
; 
; feature fill
PRIO_ON
G1 X-9.36954 Y4.2863 E1248.96887 
; 
; feature travel
PRIO_OFF
G0 X-9.84842 Y4.2863 ;Travel
; 
; feature fill
PRIO_ON
G1 X-6.72825 Y-4.2863 E1266.85666 
; 
; feature travel
PRIO_OFF
G0 X-7.20713 Y-4.2863 ;Travel
; 
; feature fill
PRIO_ON
G1 X-10.32730 Y4.2863 E1284.74444 
; 
; feature travel
PRIO_OFF
G0 X-10.80618 Y4.2863 ;Travel
; 
; feature fill
PRIO_ON
G1 X-7.68601 Y-4.2863 E1302.63223 
; 
; feature travel
PRIO_OFF
G0 X-8.16489 Y-4.2863 ;Travel
; 
; feature fill
PRIO_ON
G1 X-11.28506 Y4.2863 E1320.52001 
; 
; feature travel
PRIO_OFF
G0 X-11.76394 Y4.2863 ;Travel
; 
; feature fill
PRIO_ON
G1 X-8.64377 Y-4.2863 E1338.40780 
; 
; feature travel
PRIO_OFF
G0 X-9.12265 Y-4.2863 ;Travel
; 
; feature fill
PRIO_ON
G1 X-12.24282 Y4.2863 E1356.29558 
; 
; feature travel
PRIO_OFF
G0 X-12.7217 Y4.2863 ;Travel
; 
; feature fill
PRIO_ON
G1 X-9.60153 Y-4.2863 E1374.18337 
; 
; feature travel
PRIO_OFF
G0 X-10.08041 Y-4.2863 ;Travel
; 
; feature fill
PRIO_ON
G1 X-13.20058 Y4.2863 E1392.07115 
; 
; feature travel
PRIO_OFF
G0 X-13.67946 Y4.2863 ;Travel
; 
; feature fill
PRIO_ON
G1 X-10.55929 Y-4.2863 E1409.95894 
; 
; feature travel
PRIO_OFF
G0 X-11.03817 Y-4.2863 ;Travel
; 
; feature fill
PRIO_ON
G1 X-14.15834 Y4.2863 E1427.84672 
; 
; feature travel
PRIO_OFF
G0 X-14.63722 Y4.2863 ;Travel
; 
; feature fill
PRIO_ON
G1 X-11.51705 Y-4.2863 E1445.73451 
; 
; feature travel
PRIO_OFF
G0 X-11.99593 Y-4.2863 ;Travel
; 
; feature fill
PRIO_ON
G1 X-15.11610 Y4.2863 E1463.62229 
; 
; feature travel
PRIO_OFF
G0 X-15.59498 Y4.2863 ;Travel
; 
; feature fill
PRIO_ON
G1 X-12.47481 Y-4.2863 E1481.51008 
; 
; feature travel
PRIO_OFF
G0 X-12.95369 Y-4.2863 ;Travel
; 
; feature fill
PRIO_ON
G1 X-16.07386 Y4.2863 E1499.39786 
; 
; feature travel
PRIO_OFF
G0 X-16.55274 Y4.2863 ;Travel
; 
; feature fill
PRIO_ON
G1 X-13.43257 Y-4.2863 E1517.28565 
; 
; feature travel
PRIO_OFF
G0 X-13.91145 Y-4.2863 ;Travel
; 
; feature fill
PRIO_ON
G1 X-17.03162 Y4.2863 E1535.17343 
; 
; feature travel
PRIO_OFF
G0 X-17.5105 Y4.2863 ;Travel
; 
; feature fill
PRIO_ON
G1 X-14.39033 Y-4.2863 E1553.06122 
; 
; feature travel
PRIO_OFF
G0 X-14.86921 Y-4.2863 ;Travel
; 
; feature fill
PRIO_ON
G1 X-17.98938 Y4.2863 E1570.94900 
; 
; feature travel
PRIO_OFF
G0 X-18.46826 Y4.2863 ;Travel
; 
; feature fill
PRIO_ON
G1 X-15.34809 Y-4.2863 E1588.83679 
; 
; feature travel
PRIO_OFF
G0 X-15.82697 Y-4.2863 ;Travel
; 
; feature fill
PRIO_ON
G1 X-18.94714 Y4.2863 E1606.72457 
; 
; feature travel
PRIO_OFF
G0 X-19.42602 Y4.2863 ;Travel
; 
; feature fill
PRIO_ON
G1 X-16.30585 Y-4.2863 E1624.61236 
; 
; feature travel
PRIO_OFF
G0 X-16.78473 Y-4.2863 ;Travel
; 
; feature fill
PRIO_ON
G1 X-19.90490 Y4.2863 E1642.50014 
; 
; feature travel
PRIO_OFF
G0 X-20.38378 Y4.2863 ;Travel
; 
; feature fill
PRIO_ON
G1 X-17.26361 Y-4.2863 E1660.38793 
; 
; feature travel
PRIO_OFF
G0 X-17.74249 Y-4.2863 ;Travel
; 
; feature fill
PRIO_ON
G1 X-20.86266 Y4.2863 E1678.27571 
; 
; feature travel
PRIO_OFF
G0 X-21.34154 Y4.2863 ;Travel
; 
; feature fill
PRIO_ON
G1 X-18.22137 Y-4.2863 E1696.16350 
; 
; feature travel
PRIO_OFF
G0 X-18.70025 Y-4.2863 ;Travel
; 
; feature fill
PRIO_ON
G1 X-21.82042 Y4.2863 E1714.05128 
; 
; feature travel
PRIO_OFF
G0 X-22.2993 Y4.2863 ;Travel
; 
; feature fill
PRIO_ON
G1 X-19.17913 Y-4.2863 E1731.93907 
; 
; feature travel
PRIO_OFF
G0 X-19.65801 Y-4.2863 ;Travel
; 
; feature fill
PRIO_ON
G1 X-22.77818 Y4.2863 E1749.82685 
; 
; feature travel
PRIO_OFF
G0 X-23.25706 Y4.2863 ;Travel
; 
; feature fill
PRIO_ON
G1 X-20.13689 Y-4.2863 E1767.71464 
; 
; feature travel
PRIO_OFF
G0 X-20.61577 Y-4.2863 ;Travel
; 
; feature fill
PRIO_ON
G1 X-23.73594 Y4.2863 E1785.60242 
; 
; feature travel
PRIO_OFF
G0 X-24.21482 Y4.2863 ;Travel
; 
; feature fill
PRIO_ON
G1 X-21.09465 Y-4.2863 E1803.49021 
; 
; feature travel
PRIO_OFF
G0 X-21.57353 Y-4.2863 ;Travel
; 
; feature fill
PRIO_ON
G1 X-24.49470 Y3.7395 E1820.23712 
; 
; feature travel
PRIO_OFF
G0 X-24.4947 Y2.42383 ;Travel
; 
; feature fill
PRIO_ON
G1 X-22.05241 Y-4.2863 E1834.23863 
; 
; feature travel
PRIO_OFF
G0 X-22.53129 Y-4.2863 ;Travel
; 
; feature fill
PRIO_ON
G1 X-24.49470 Y1.1081 E1845.49475 
; 
; feature travel
PRIO_OFF
G0 X-24.4947 Y-0.20759 ;Travel
; 
; feature fill
PRIO_ON
G1 X-23.01017 Y-4.2863 E1854.00547 
; 
; feature travel
PRIO_OFF
G0 X-23.48905 Y-4.2863 ;Travel
; 
; feature fill
PRIO_ON
G1 X-24.49470 Y-1.5233 E1859.77080 
; 
; feature travel
PRIO_OFF
G0 X-24.4947 Y-2.83902 ;Travel
; 
; feature fill
PRIO_ON
G1 X-23.96793 Y-4.2863 E1862.79074 
; 
; feature travel
PRIO_OFF
G0 X-24.44681 Y-4.2863 ;Travel
; 
; feature fill
PRIO_ON
G1 X-24.49470 Y-4.1547 E1863.06528 
PRIO_OFF
LayersCompleted=3
M1
; 
;========================
; layer 3, Z = 0.9600
; 
; reset extrusion
STOPRE
PRESETON(E, 0)
DO PRIO_PULSE_DISTANCE=DROP_SCALE
DO PRIO_ON_PATH_OFFSET=0.5*PRIO_PULSE_DISTANCE
;outer: (25.2604,-5.0521) (25.2604,5.0521) (-25.2604,5.0521) (-25.2604,-5.0521) (21.0604,-5.0521) holes: !
;overhangs:!
; 
; feature plane change
G0 X-24.4947 Y-4.15473 Z0.96 ;Plane Change
; 
; feature travel
G0 X-23.94903 Y4.637 ;Travel
; 
; feature outer perimeter
G1 F24000 FL[E] = OuterPerimeterFrequency * DROP_SCALE * 60
PRIO_ON
G1 X24.84540 Y4.6370 E114.81043 
G1 X24.84540 Y-4.6370 E136.63161 
G1 X-24.84540 Y-4.6370 E253.55114 
G1 X-24.84540 Y4.6370 E275.37231 
G1 X-23.94903 Y4.6370 E277.48141 
; 
; feature travel
PRIO_OFF
G0 X-23.94903 Y4.286 ;Travel
; 
; feature inner perimeter
G1 F24000 FL[E] = InnerPerimeterFrequency * DROP_SCALE * 60
PRIO_ON
G1 X-24.49440 Y4.2860 E278.49135 
G1 X-24.49440 Y-4.2860 E294.36543 
G1 X24.49440 Y-4.2860 E385.08543 
G1 X24.49440 Y4.2860 E400.95950 
G1 X-23.94903 Y4.2860 E490.66956 
; 
; feature travel
PRIO_OFF
G0 X-23.60599 Y4.2863 ;Travel
; 
; feature fill
G1 F24000 FL[E] = FillFrequency * DROP_SCALE * 60
PRIO_ON
G1 X-5.22199 Y-4.2863 E530.44309 
; 
; feature travel
PRIO_OFF
G0 X-6.28678 Y-4.2863 ;Travel
; 
; feature fill
PRIO_ON
G1 X-24.49470 Y4.2042 E569.83567 
; 
; feature travel
PRIO_OFF
G0 X-24.4947 Y3.70767 ;Travel
; 
; feature fill
PRIO_ON
G1 X-7.35157 Y-4.2863 E606.92460 
; 
; feature travel
PRIO_OFF
G0 X-8.41636 Y-4.2863 ;Travel
; 
; feature fill
PRIO_ON
G1 X-24.49470 Y3.2111 E641.70986 
; 
; feature travel
PRIO_OFF
G0 X-24.4947 Y2.71463 ;Travel
; 
; feature fill
PRIO_ON
G1 X-9.48115 Y-4.2863 E674.19147 
; 
; feature travel
PRIO_OFF
G0 X-10.54594 Y-4.2863 ;Travel
; 
; feature fill
PRIO_ON
G1 X-24.49470 Y2.2181 E704.36941 
; 
; feature travel
PRIO_OFF
G0 X-24.4947 Y1.72159 ;Travel
; 
; feature fill
PRIO_ON
G1 X-11.61073 Y-4.2863 E732.24370 
; 
; feature travel
PRIO_OFF
G0 X-12.67552 Y-4.2863 ;Travel
; 
; feature fill
PRIO_ON
G1 X-24.49470 Y1.2251 E757.81432 
; 
; feature travel
PRIO_OFF
G0 X-24.4947 Y0.72855 ;Travel
; 
; feature fill
PRIO_ON
G1 X-13.74031 Y-4.2863 E781.08129 
; 
; feature travel
PRIO_OFF
G0 X-14.8051 Y-4.2863 ;Travel
; 
; feature fill
PRIO_ON
G1 X-24.49470 Y0.2320 E802.04459 
; 
; feature travel
PRIO_OFF
G0 X-24.4947 Y-0.26449 ;Travel
; 
; feature fill
PRIO_ON
G1 X-15.86990 Y-4.2863 E820.70424 
; 
; feature travel
PRIO_OFF
G0 X-16.93469 Y-4.2863 ;Travel
; 
; feature fill
PRIO_ON
G1 X-24.49470 Y-0.7610 E837.06022 
; 
; feature travel
PRIO_OFF
G0 X-24.4947 Y-1.25753 ;Travel
; 
; feature fill
PRIO_ON
G1 X-17.99948 Y-4.2863 E851.11255 
; 
; feature travel
PRIO_OFF
G0 X-19.06427 Y-4.2863 ;Travel
; 
; feature fill
PRIO_ON
G1 X-24.49470 Y-1.7541 E862.86122 
; 
; feature travel
PRIO_OFF
G0 X-24.4947 Y-2.25057 ;Travel
; 
; feature fill
PRIO_ON
G1 X-20.12906 Y-4.2863 E872.30622 
; 
; feature travel
PRIO_OFF
G0 X-21.19385 Y-4.2863 ;Travel
; 
; feature fill
PRIO_ON
G1 X-24.49470 Y-2.7471 E879.44757 
; 
; feature travel
PRIO_OFF
G0 X-24.4947 Y-3.24361 ;Travel
; 
; feature fill
PRIO_ON
G1 X-22.25864 Y-4.2863 E884.28525 
; 
; feature travel
PRIO_OFF
G0 X-23.32343 Y-4.2863 ;Travel
; 
; feature fill
PRIO_ON
G1 X-24.49470 Y-3.7401 E886.81928 
; 
; feature travel
PRIO_OFF
G0 X-24.4947 Y-4.23665 ;Travel
; 
; feature fill
PRIO_ON
G1 X-24.38822 Y-4.2863 E887.04964 
; 
; feature travel
PRIO_OFF
G0 X-22.5412 Y4.2863 ;Travel
; 
; feature fill
PRIO_ON
G1 X-4.15720 Y-4.2863 E926.82317 
; 
; feature travel
PRIO_OFF
G0 X-3.09241 Y-4.2863 ;Travel
; 
; feature fill
PRIO_ON
G1 X-21.47641 Y4.2863 E966.59670 
; 
; feature travel
PRIO_OFF
G0 X-20.41162 Y4.2863 ;Travel
; 
; feature fill
PRIO_ON
G1 X-2.02762 Y-4.2863 E1006.37023 
; 
; feature travel
PRIO_OFF
G0 X-0.96283 Y-4.2863 ;Travel
; 
; feature fill
PRIO_ON
G1 X-19.34683 Y4.2863 E1046.14376 
; 
; feature travel
PRIO_OFF
G0 X-18.28203 Y4.2863 ;Travel
; 
; feature fill
PRIO_ON
G1 X0.00000 Y-4.2388 E1085.69668 
G1 X0.10197 Y-4.2863 E1085.80698 ; => originalEInc=0.22061 adjustedEInc=0.11031 density=0.5
; 
; feature travel
PRIO_OFF
G0 X1.16676 Y-4.2863 ;Travel
; 
; feature fill
PRIO_ON
G1 X0.00000 Y-3.7422 E1087.06912 ; => originalEInc=2.52427 adjustedEInc=1.26213 density=0.5
G1 X-17.21724 Y4.2863 E1124.31838 
; 
; feature travel
PRIO_OFF
G0 X-16.15245 Y4.2863 ;Travel
; 
; feature fill
PRIO_ON
G1 X0.00000 Y-3.2457 E1159.26398 
G1 X2.23155 Y-4.2863 E1161.67795 ; => originalEInc=4.82793 adjustedEInc=2.41396 density=0.5
; 
; feature travel
PRIO_OFF
G0 X3.29634 Y-4.2863 ;Travel
; 
; feature fill
PRIO_ON
G1 X0.00000 Y-2.7492 E1165.24374 ; => originalEInc=7.13159 adjustedEInc=3.56579 density=0.5
G1 X-15.08766 Y4.2863 E1197.88568 
; 
; feature travel
PRIO_OFF
G0 X-14.02287 Y4.2863 ;Travel
; 
; feature fill
PRIO_ON
G1 X0.00000 Y-2.2527 E1228.22396 
G1 X4.36113 Y-4.2863 E1232.94158 ; => originalEInc=9.43524 adjustedEInc=4.71762 density=0.5
; 
; feature travel
PRIO_OFF
G0 X5.42592 Y-4.2863 ;Travel
; 
; feature fill
PRIO_ON
G1 X0.00000 Y-1.7562 E1238.81103 ; => originalEInc=11.73890 adjustedEInc=5.86945 density=0.5
G1 X-12.95808 Y4.2863 E1266.84566 
; 
; feature travel
PRIO_OFF
G0 X-11.89329 Y4.2863 ;Travel
; 
; feature fill
PRIO_ON
G1 X0.00000 Y-1.2596 E1292.57663 
G1 X6.49071 Y-4.2863 E1299.59791 ; => originalEInc=14.04256 adjustedEInc=7.02128 density=0.5
; 
; feature travel
PRIO_OFF
G0 X7.5555 Y-4.2863 ;Travel
; 
; feature fill
PRIO_ON
G1 X0.00000 Y-0.7631 E1307.77102 ; => originalEInc=16.34622 adjustedEInc=8.17311 density=0.5
G1 X-10.82850 Y4.2863 E1331.19833 
; 
; feature travel
PRIO_OFF
G0 X-9.76371 Y4.2863 ;Travel
; 
; feature fill
PRIO_ON
G1 X0.00000 Y-0.2666 E1352.32198 
G1 X8.62029 Y-4.2863 E1361.64692 ; => originalEInc=18.64988 adjustedEInc=9.32494 density=0.5
; 
; feature travel
PRIO_OFF
G0 X9.68508 Y-4.2863 ;Travel
; 
; feature fill
PRIO_ON
G1 X0.00000 Y0.2299 E1372.12369 ; => originalEInc=20.95354 adjustedEInc=10.47677 density=0.5
G1 X-8.69892 Y4.2863 E1390.94368 
; 
; feature travel
PRIO_OFF
G0 X-7.63413 Y4.2863 ;Travel
; 
; feature fill
PRIO_ON
G1 X0.00000 Y0.7264 E1407.46002 
G1 X10.74987 Y-4.2863 E1419.08861 ; => originalEInc=23.25720 adjustedEInc=11.62860 density=0.5
; 
; feature travel
PRIO_OFF
G0 X11.81466 Y-4.2863 ;Travel
; 
; feature fill
PRIO_ON
G1 X0.00000 Y1.2230 E1431.86904 ; => originalEInc=25.56085 adjustedEInc=12.78043 density=0.5
G1 X-6.56934 Y4.2863 E1446.08172 
; 
; feature travel
PRIO_OFF
G0 X-5.50455 Y4.2863 ;Travel
; 
; feature fill
PRIO_ON
G1 X0.00000 Y1.7195 E1457.99073 
G1 X12.87945 Y-4.2863 E1471.92299 ; => originalEInc=27.86451 adjustedEInc=13.93225 density=0.5
; 
; feature travel
PRIO_OFF
G0 X13.94424 Y-4.2863 ;Travel
; 
; feature fill
PRIO_ON
G1 X-0.00000 Y2.2160 E1487.00707 ; => originalEInc=30.16817 adjustedEInc=15.08409 density=0.5
G1 X-4.43976 Y4.2863 E1496.61243 
; 
; feature travel
PRIO_OFF
G0 X-3.37496 Y4.2863 ;Travel
; 
; feature fill
PRIO_ON
G1 X-0.00000 Y2.7125 E1503.91411 
G1 X15.00904 Y-4.2863 E1520.15003 ; => originalEInc=32.47185 adjustedEInc=16.23593 density=0.5
; 
; feature travel
PRIO_OFF
G0 X16.07383 Y-4.2863 ;Travel
; 
; feature fill
PRIO_ON
G1 X0.00000 Y3.2091 E1537.53779 ; => originalEInc=34.77551 adjustedEInc=17.38775 density=0.5
G1 X-2.31017 Y4.2863 E1542.53581 
; 
; feature travel
PRIO_OFF
G0 X-1.24538 Y4.2863 ;Travel
; 
; feature fill
PRIO_ON
G1 X0.00000 Y3.7056 E1545.23017 
G1 X17.13862 Y-4.2863 E1563.76976 ; => originalEInc=37.07917 adjustedEInc=18.53958 density=0.5
; 
; feature travel
PRIO_OFF
G0 X18.20341 Y-4.2863 ;Travel
; 
; feature fill
PRIO_ON
G1 X0.00000 Y4.2021 E1583.46117 ; => originalEInc=39.38283 adjustedEInc=19.69141 density=0.5
G1 X-0.18059 Y4.2863 E1583.85187 
; 
; feature travel
PRIO_OFF
G0 X0.8842 Y4.2863 ;Travel
; 
; feature fill
PRIO_ON
G1 X19.26820 Y-4.2863 E1603.73864 ; => originalEInc=39.77353 adjustedEInc=19.88676 density=0.5
; 
; feature travel
PRIO_OFF
G0 X20.33299 Y-4.2863 ;Travel
; 
; feature fill
PRIO_ON
G1 X1.94899 Y4.2863 E1623.62540 ; => originalEInc=39.77353 adjustedEInc=19.88676 density=0.5
; 
; feature travel
PRIO_OFF
G0 X3.01378 Y4.2863 ;Travel
; 
; feature fill
PRIO_ON
G1 X21.39778 Y-4.2863 E1643.51216 ; => originalEInc=39.77352 adjustedEInc=19.88676 density=0.5
; 
; feature travel
PRIO_OFF
G0 X22.46257 Y-4.2863 ;Travel
; 
; feature fill
PRIO_ON
G1 X4.07857 Y4.2863 E1663.39893 ; => originalEInc=39.77353 adjustedEInc=19.88676 density=0.5
; 
; feature travel
PRIO_OFF
G0 X5.14336 Y4.2863 ;Travel
; 
; feature fill
PRIO_ON
G1 X23.52736 Y-4.2863 E1683.28569 ; => originalEInc=39.77353 adjustedEInc=19.88676 density=0.5
; 
; feature travel
PRIO_OFF
G0 X24.4947 Y-4.24086 ;Travel
; 
; feature fill
PRIO_ON
G1 X6.20815 Y4.2863 E1703.06704 ; => originalEInc=39.56270 adjustedEInc=19.78135 density=0.5
; 
; feature travel
PRIO_OFF
G0 X7.27294 Y4.2863 ;Travel
; 
; feature fill
PRIO_ON
G1 X24.49470 Y-3.7443 E1721.69656 ; => originalEInc=37.25903 adjustedEInc=18.62952 density=0.5
; 
; feature travel
PRIO_OFF
G0 X24.4947 Y-3.24782 ;Travel
; 
; feature fill
PRIO_ON
G1 X8.33773 Y4.2863 E1739.17424 ; => originalEInc=34.95537 adjustedEInc=17.47769 density=0.5
; 
; feature travel
PRIO_OFF
G0 X9.40252 Y4.2863 ;Travel
; 
; feature fill
PRIO_ON
G1 X24.49470 Y-2.7513 E1755.50010 ; => originalEInc=32.65172 adjustedEInc=16.32586 density=0.5
; 
; feature travel
PRIO_OFF
G0 X24.4947 Y-2.25478 ;Travel
; 
; feature fill
PRIO_ON
G1 X10.46731 Y4.2863 E1770.67413 ; => originalEInc=30.34805 adjustedEInc=15.17403 density=0.5
; 
; feature travel
PRIO_OFF
G0 X11.53211 Y4.2863 ;Travel
; 
; feature fill
PRIO_ON
G1 X24.49470 Y-1.7583 E1784.69632 ; => originalEInc=28.04439 adjustedEInc=14.02220 density=0.5
; 
; feature travel
PRIO_OFF
G0 X24.4947 Y-1.26174 ;Travel
; 
; feature fill
PRIO_ON
G1 X12.59690 Y4.2863 E1797.56669 ; => originalEInc=25.74074 adjustedEInc=12.87037 density=0.5
; 
; feature travel
PRIO_OFF
G0 X13.66169 Y4.2863 ;Travel
; 
; feature fill
PRIO_ON
G1 X24.49470 Y-0.7652 E1809.28523 ; => originalEInc=23.43707 adjustedEInc=11.71853 density=0.5
; 
; feature travel
PRIO_OFF
G0 X24.4947 Y-0.2687 ;Travel
; 
; feature fill
PRIO_ON
G1 X14.72648 Y4.2863 E1819.85193 ; => originalEInc=21.13341 adjustedEInc=10.56670 density=0.5
; 
; feature travel
PRIO_OFF
G0 X15.79127 Y4.2863 ;Travel
; 
; feature fill
PRIO_ON
G1 X24.49470 Y0.2278 E1829.26681 ; => originalEInc=18.82976 adjustedEInc=9.41488 density=0.5
; 
; feature travel
PRIO_OFF
G0 X24.4947 Y0.72434 ;Travel
; 
; feature fill
PRIO_ON
G1 X16.85606 Y4.2863 E1837.52986 ; => originalEInc=16.52609 adjustedEInc=8.26305 density=0.5
; 
; feature travel
PRIO_OFF
G0 X17.92085 Y4.2863 ;Travel
; 
; feature fill
PRIO_ON
G1 X24.49470 Y1.2209 E1844.64107 ; => originalEInc=14.22243 adjustedEInc=7.11121 density=0.5
; 
; feature travel
PRIO_OFF
G0 X24.4947 Y1.71738 ;Travel
; 
; feature fill
PRIO_ON
G1 X18.98564 Y4.2863 E1850.60046 ; => originalEInc=11.91878 adjustedEInc=5.95939 density=0.5
; 
; feature travel
PRIO_OFF
G0 X20.05043 Y4.2863 ;Travel
; 
; feature fill
PRIO_ON
G1 X24.49470 Y2.2139 E1855.40802 ; => originalEInc=9.61511 adjustedEInc=4.80755 density=0.5
; 
; feature travel
PRIO_OFF
G0 X24.4947 Y2.71042 ;Travel
; 
; feature fill
PRIO_ON
G1 X21.11522 Y4.2863 E1859.06375 ; => originalEInc=7.31146 adjustedEInc=3.65573 density=0.5
; 
; feature travel
PRIO_OFF
G0 X22.18001 Y4.2863 ;Travel
; 
; feature fill
PRIO_ON
G1 X24.49470 Y3.2069 E1861.56764 ; => originalEInc=5.00779 adjustedEInc=2.50389 density=0.5
; 
; feature travel
PRIO_OFF
G0 X24.4947 Y3.70346 ;Travel
; 
; feature fill
PRIO_ON
G1 X23.24480 Y4.2863 E1862.91971 ; => originalEInc=2.70414 adjustedEInc=1.35207 density=0.5
; 
; feature travel
PRIO_OFF
G0 X24.30959 Y4.2863 ;Travel
; 
; feature fill
PRIO_ON
G1 X24.49470 Y4.2000 E1863.11995 ; => originalEInc=0.40047 adjustedEInc=0.20023 density=0.5
PRIO_OFF
LayersCompleted=4
M1
; 
;========================
; layer 4, Z = 1.2000
; 
; reset extrusion
STOPRE
PRESETON(E, 0)
DO PRIO_PULSE_DISTANCE=DROP_SCALE
DO PRIO_ON_PATH_OFFSET=0.5*PRIO_PULSE_DISTANCE
;outer: (25.2604,-5.0521) (25.2604,5.0521) (-25.2604,5.0521) (-25.2604,-5.0521) (19.8604,-5.0521) holes: !
;overhangs:!
; 
; feature plane change
G0 X24.4947 Y4.19998 Z1.2 ;Plane Change
; 
; feature travel
G0 X10.87413 Y4.637 ;Travel
; 
; feature outer perimeter
G1 F24000 FL[E] = OuterPerimeterFrequency * DROP_SCALE * 60
PRIO_ON
G1 X-24.84540 Y4.6370 E84.04595 
G1 X-24.84540 Y-4.6370 E105.86712 
G1 X24.84540 Y-4.6370 E222.78665 
G1 X24.84540 Y4.6370 E244.60783 
G1 X10.87413 Y4.6370 E277.48141 
; 
; feature travel
PRIO_OFF
G0 X10.87413 Y4.286 ;Travel
; 
; feature inner perimeter
G1 F24000 FL[E] = InnerPerimeterFrequency * DROP_SCALE * 60
PRIO_ON
G1 X24.49440 Y4.2860 E302.70414 
G1 X24.49440 Y-4.2860 E318.57821 
G1 X-24.49440 Y-4.2860 E409.29821 
G1 X-24.49440 Y4.2860 E425.17229 
G1 X10.87413 Y4.2860 E490.66956 
; 
; feature travel
PRIO_OFF
G0 X11.07622 Y4.2863 ;Travel
; 
; feature fill
G1 F24000 FL[E] = FillFrequency * DROP_SCALE * 60
PRIO_ON
G1 X0.00000 Y0.2549 E502.22551 ; => originalEInc=23.11189 adjustedEInc=11.55595 density=0.5
G1 X-12.47681 Y-4.2863 E528.25990 
; 
; feature travel
PRIO_OFF
G0 X-11.16109 Y-4.2863 ;Travel
; 
; feature fill
PRIO_ON
G1 X0.00000 Y-0.2240 E551.54889 
G1 X12.39193 Y4.2863 E564.47754 ; => originalEInc=25.85729 adjustedEInc=12.92864 density=0.5
; 
; feature travel
PRIO_OFF
G0 X13.70764 Y4.2863 ;Travel
; 
; feature fill
PRIO_ON
G1 X0.00000 Y-0.7029 E578.77888 ; => originalEInc=28.60269 adjustedEInc=14.30134 density=0.5
G1 X-9.84538 Y-4.2863 E599.32249 
; 
; feature travel
PRIO_OFF
G0 X-8.52967 Y-4.2863 ;Travel
; 
; feature fill
PRIO_ON
G1 X-0.00000 Y-1.1818 E617.12069 
G1 X15.02335 Y4.2863 E632.79473 ; => originalEInc=31.34807 adjustedEInc=15.67404 density=0.5
; 
; feature travel
PRIO_OFF
G0 X16.33907 Y4.2863 ;Travel
; 
; feature fill
PRIO_ON
G1 X0.00000 Y-1.6606 E649.84147 ; => originalEInc=34.09348 adjustedEInc=17.04674 density=0.5
G1 X-7.21396 Y-4.2863 E664.89428 
; 
; feature travel
PRIO_OFF
G0 X-5.89825 Y-4.2863 ;Travel
; 
; feature fill
PRIO_ON
G1 X0.00000 Y-2.1395 E677.20170 
G1 X17.65478 Y4.2863 E695.62113 ; => originalEInc=36.83886 adjustedEInc=18.41943 density=0.5
; 
; feature travel
PRIO_OFF
G0 X18.97049 Y4.2863 ;Travel
; 
; feature fill
PRIO_ON
G1 X0.00000 Y-2.6184 E715.41327 ; => originalEInc=39.58427 adjustedEInc=19.79214 density=0.5
G1 X-4.58253 Y-4.2863 E724.97528 
; 
; feature travel
PRIO_OFF
G0 X-3.26682 Y-4.2863 ;Travel
; 
; feature fill
PRIO_ON
G1 X-0.00000 Y-3.0973 E731.79191 
G1 X20.28620 Y4.2863 E752.95674 ; => originalEInc=42.32966 adjustedEInc=21.16483 density=0.5
; 
; feature travel
PRIO_OFF
G0 X21.60191 Y4.2863 ;Travel
; 
; feature fill
PRIO_ON
G1 X0.00000 Y-3.5762 E775.49426 ; => originalEInc=45.07506 adjustedEInc=22.53753 density=0.5
G1 X-1.95111 Y-4.2863 E779.56550 
; 
; feature travel
PRIO_OFF
G0 X-0.6354 Y-4.2863 ;Travel
; 
; feature fill
PRIO_ON
G1 X-0.00000 Y-4.0550 E780.89134 
G1 X22.91763 Y4.2863 E804.80156 ; => originalEInc=47.82044 adjustedEInc=23.91022 density=0.5
; 
; feature travel
PRIO_OFF
G0 X24.23334 Y4.2863 ;Travel
; 
; feature fill
PRIO_ON
G1 X0.68031 Y-4.2863 E829.37470 ; => originalEInc=49.14629 adjustedEInc=24.57314 density=0.5
; 
; feature travel
PRIO_OFF
G0 X1.99603 Y-4.2863 ;Travel
; 
; feature fill
PRIO_ON
G1 X24.49470 Y3.9026 E852.84783 ; => originalEInc=46.94625 adjustedEInc=23.47312 density=0.5
; 
; feature travel
PRIO_OFF
G0 X24.4947 Y3.42367 ;Travel
; 
; feature fill
PRIO_ON
G1 X3.31174 Y-4.2863 E874.94826 ; => originalEInc=44.20086 adjustedEInc=22.10043 density=0.5
; 
; feature travel
PRIO_OFF
G0 X4.62745 Y-4.2863 ;Travel
; 
; feature fill
PRIO_ON
G1 X24.49470 Y2.9448 E895.67599 ; => originalEInc=41.45547 adjustedEInc=20.72774 density=0.5
; 
; feature travel
PRIO_OFF
G0 X24.4947 Y2.46591 ;Travel
; 
; feature fill
PRIO_ON
G1 X5.94316 Y-4.2863 E915.03103 ; => originalEInc=38.71007 adjustedEInc=19.35504 density=0.5
; 
; feature travel
PRIO_OFF
G0 X7.25887 Y-4.2863 ;Travel
; 
; feature fill
PRIO_ON
G1 X24.49470 Y1.9870 E933.01336 ; => originalEInc=35.96467 adjustedEInc=17.98233 density=0.5
; 
; feature travel
PRIO_OFF
G0 X24.4947 Y1.50815 ;Travel
; 
; feature fill
PRIO_ON
G1 X8.57459 Y-4.2863 E949.62300 ; => originalEInc=33.21928 adjustedEInc=16.60964 density=0.5
; 
; feature travel
PRIO_OFF
G0 X9.8903 Y-4.2863 ;Travel
; 
; feature fill
PRIO_ON
G1 X24.49470 Y1.0293 E964.85995 ; => originalEInc=30.47389 adjustedEInc=15.23694 density=0.5
; 
; feature travel
PRIO_OFF
G0 X24.4947 Y0.55039 ;Travel
; 
; feature fill
PRIO_ON
G1 X11.20601 Y-4.2863 E978.72419 ; => originalEInc=27.72849 adjustedEInc=13.86424 density=0.5
; 
; feature travel
PRIO_OFF
G0 X12.52172 Y-4.2863 ;Travel
; 
; feature fill
PRIO_ON
G1 X24.49470 Y0.0715 E991.21574 ; => originalEInc=24.98309 adjustedEInc=12.49154 density=0.5
; 
; feature travel
PRIO_OFF
G0 X24.4947 Y-0.40737 ;Travel
; 
; feature fill
PRIO_ON
G1 X13.83743 Y-4.2863 E1002.33459 ; => originalEInc=22.23770 adjustedEInc=11.11885 density=0.5
; 
; feature travel
PRIO_OFF
G0 X15.15314 Y-4.2863 ;Travel
; 
; feature fill
PRIO_ON
G1 X24.49470 Y-0.8862 E1012.08074 ; => originalEInc=19.49230 adjustedEInc=9.74615 density=0.5
; 
; feature travel
PRIO_OFF
G0 X24.4947 Y-1.36513 ;Travel
; 
; feature fill
PRIO_ON
G1 X16.46886 Y-4.2863 E1020.45419 ; => originalEInc=16.74691 adjustedEInc=8.37346 density=0.5
; 
; feature travel
PRIO_OFF
G0 X17.78457 Y-4.2863 ;Travel
; 
; feature fill
PRIO_ON
G1 X24.49470 Y-1.8440 E1027.45495 ; => originalEInc=14.00152 adjustedEInc=7.00076 density=0.5
; 
; feature travel
PRIO_OFF
G0 X24.4947 Y-2.32289 ;Travel
; 
; feature fill
PRIO_ON
G1 X19.10028 Y-4.2863 E1033.08301 ; => originalEInc=11.25612 adjustedEInc=5.62806 density=0.5
; 
; feature travel
PRIO_OFF
G0 X20.41599 Y-4.2863 ;Travel
; 
; feature fill
PRIO_ON
G1 X24.49470 Y-2.8018 E1037.33837 ; => originalEInc=8.51072 adjustedEInc=4.25536 density=0.5
; 
; feature travel
PRIO_OFF
G0 X24.4947 Y-3.28065 ;Travel
; 
; feature fill
PRIO_ON
G1 X21.73170 Y-4.2863 E1040.22104 ; => originalEInc=5.76533 adjustedEInc=2.88267 density=0.5
; 
; feature travel
PRIO_OFF
G0 X23.04742 Y-4.2863 ;Travel
; 
; feature fill
PRIO_ON
G1 X24.49470 Y-3.7595 E1041.73101 ; => originalEInc=3.01994 adjustedEInc=1.50997 density=0.5
; 
; feature travel
PRIO_OFF
G0 X24.4947 Y-4.23841 ;Travel
; 
; feature fill
PRIO_ON
G1 X24.36313 Y-4.2863 E1041.86827 ; => originalEInc=0.27453 adjustedEInc=0.13727 density=0.5
; 
; feature travel
PRIO_OFF
G0 X9.76051 Y4.2863 ;Travel
; 
; feature fill
PRIO_ON
G1 X0.00000 Y0.7338 E1052.05152 ; => originalEInc=20.36650 adjustedEInc=10.18325 density=0.5
G1 X-13.79252 Y-4.2863 E1080.83131 
; 
; feature travel
PRIO_OFF
G0 X-15.10823 Y-4.2863 ;Travel
; 
; feature fill
PRIO_ON
G1 X0.00000 Y1.2126 E1112.35650 
G1 X8.44479 Y4.2863 E1121.16705 ; => originalEInc=17.62110 adjustedEInc=8.81055 density=0.5
; 
; feature travel
PRIO_OFF
G0 X7.12908 Y4.2863 ;Travel
; 
; feature fill
PRIO_ON
G1 X-0.00000 Y1.6915 E1128.60490 ; => originalEInc=14.87570 adjustedEInc=7.43785 density=0.5
G1 X-16.42394 Y-4.2863 E1162.87548 
; 
; feature travel
PRIO_OFF
G0 X-17.73965 Y-4.2863 ;Travel
; 
; feature fill
PRIO_ON
G1 X0.00000 Y2.1704 E1199.89145 
G1 X5.81337 Y4.2863 E1205.95661 ; => originalEInc=12.13032 adjustedEInc=6.06516 density=0.5
; 
; feature travel
PRIO_OFF
G0 X4.49766 Y4.2863 ;Travel
; 
; feature fill
PRIO_ON
G1 X0.00000 Y2.6493 E1210.64907 ; => originalEInc=9.38492 adjustedEInc=4.69246 density=0.5
G1 X-19.05537 Y-4.2863 E1250.41043 
; 
; feature travel
PRIO_OFF
G0 X-20.37108 Y-4.2863 ;Travel
; 
; feature fill
PRIO_ON
G1 X0.00000 Y3.1282 E1292.91719 
G1 X3.18195 Y4.2863 E1296.23696 ; => originalEInc=6.63953 adjustedEInc=3.31976 density=0.5
; 
; feature travel
PRIO_OFF
G0 X1.86623 Y4.2863 ;Travel
; 
; feature fill
PRIO_ON
G1 X0.00000 Y3.6070 E1298.18402 ; => originalEInc=3.89412 adjustedEInc=1.94706 density=0.5
G1 X-21.68679 Y-4.2863 E1343.43618 
; 
; feature travel
PRIO_OFF
G0 X-23.0025 Y-4.2863 ;Travel
; 
; feature fill
PRIO_ON
G1 X0.00000 Y4.0859 E1391.43374 
G1 X0.55052 Y4.2863 E1392.00810 ; => originalEInc=1.14873 adjustedEInc=0.57436 density=0.5
; 
; feature travel
PRIO_OFF
G0 X-0.76519 Y4.2863 ;Travel
; 
; feature fill
PRIO_ON
G1 X-24.31821 Y-4.2863 E1441.15438 
; 
; feature travel
PRIO_OFF
G0 X-24.4947 Y-3.87166 ;Travel
; 
; feature fill
PRIO_ON
G1 X-2.08090 Y4.2863 E1487.92353 
; 
; feature travel
PRIO_OFF
G0 X-3.39661 Y4.2863 ;Travel
; 
; feature fill
PRIO_ON
G1 X-24.49470 Y-3.3928 E1531.94729 
; 
; feature travel
PRIO_OFF
G0 X-24.4947 Y-2.9139 ;Travel
; 
; feature fill
PRIO_ON
G1 X-4.71233 Y4.2863 E1573.22565 
; 
; feature travel
PRIO_OFF
G0 X-6.02804 Y4.2863 ;Travel
; 
; feature fill
PRIO_ON
G1 X-24.49470 Y-2.4350 E1611.75861 
; 
; feature travel
PRIO_OFF
G0 X-24.4947 Y-1.95614 ;Travel
; 
; feature fill
PRIO_ON
G1 X-7.34375 Y4.2863 E1647.54618 
; 
; feature travel
PRIO_OFF
G0 X-8.65946 Y4.2863 ;Travel
; 
; feature fill
PRIO_ON
G1 X-24.49470 Y-1.4773 E1680.58835 
; 
; feature travel
PRIO_OFF
G0 X-24.4947 Y-0.99838 ;Travel
; 
; feature fill
PRIO_ON
G1 X-9.97517 Y4.2863 E1710.88513 
; 
; feature travel
PRIO_OFF
G0 X-11.29089 Y4.2863 ;Travel
; 
; feature fill
PRIO_ON
G1 X-24.49470 Y-0.5195 E1738.43652 
; 
; feature travel
PRIO_OFF
G0 X-24.4947 Y-0.04062 ;Travel
; 
; feature fill
PRIO_ON
G1 X-12.60660 Y4.2863 E1763.24251 
; 
; feature travel
PRIO_OFF
G0 X-13.92231 Y4.2863 ;Travel
; 
; feature fill
PRIO_ON
G1 X-24.49470 Y0.4383 E1785.30310 
; 
; feature travel
PRIO_OFF
G0 X-24.4947 Y0.91714 ;Travel
; 
; feature fill
PRIO_ON
G1 X-15.23802 Y4.2863 E1804.61830 
; 
; feature travel
PRIO_OFF
G0 X-16.55373 Y4.2863 ;Travel
; 
; feature fill
PRIO_ON
G1 X-24.49470 Y1.3960 E1821.18811 
; 
; feature travel
PRIO_OFF
G0 X-24.4947 Y1.8749 ;Travel
; 
; feature fill
PRIO_ON
G1 X-17.86945 Y4.2863 E1835.01252 
; 
; feature travel
PRIO_OFF
G0 X-19.18516 Y4.2863 ;Travel
; 
; feature fill
PRIO_ON
G1 X-24.49470 Y2.3538 E1846.09153 
; 
; feature travel
PRIO_OFF
G0 X-24.4947 Y2.83266 ;Travel
; 
; feature fill
PRIO_ON
G1 X-20.50087 Y4.2863 E1854.42515 
; 
; feature travel
PRIO_OFF
G0 X-21.81658 Y4.2863 ;Travel
; 
; feature fill
PRIO_ON
G1 X-24.49470 Y3.3115 E1860.01337 
; 
; feature travel
PRIO_OFF
G0 X-24.4947 Y3.79042 ;Travel
; 
; feature fill
PRIO_ON
G1 X-23.13229 Y4.2863 E1862.85620 
PRIO_OFF
LayersCompleted=5
M1
; 
;========================
; layer 5, Z = 1.4400
; 
; reset extrusion
STOPRE
PRESETON(E, 0)
DO PRIO_PULSE_DISTANCE=DROP_SCALE
DO PRIO_ON_PATH_OFFSET=0.5*PRIO_PULSE_DISTANCE
;outer: (25.2604,-5.0521) (25.2604,5.0521) (-25.2604,5.0521) (-25.2604,-5.0521) (18.6604,-5.0521) holes: !
;overhangs:!
; 
; feature plane change
G0 X-23.13229 Y4.2863 Z1.44 ;Plane Change
; 
; feature travel
G0 X-14.84923 Y-4.637 ;Travel
; 
; feature outer perimeter
G1 F24000 FL[E] = OuterPerimeterFrequency * DROP_SCALE * 60
PRIO_ON
G1 X-24.84540 Y-4.6370 E23.52040 
G1 X-24.84540 Y4.6370 E45.34157 
G1 X24.84540 Y4.6370 E162.26110 
G1 X24.84540 Y-4.6370 E184.08228 
G1 X-14.84923 Y-4.6370 E277.48141 
; 
; feature travel
PRIO_OFF
G0 X-14.84923 Y-4.286 ;Travel
; 
; feature inner perimeter
G1 F24000 FL[E] = InnerPerimeterFrequency * DROP_SCALE * 60
PRIO_ON
G1 X24.49440 Y-4.2860 E350.33999 
G1 X24.49440 Y4.2860 E366.21406 
G1 X-24.49440 Y4.2860 E456.93406 
G1 X-24.49440 Y-4.2860 E472.80814 
G1 X-14.84923 Y-4.2860 E490.66956 
; 
; feature travel
PRIO_OFF
G0 X-14.78004 Y-4.2863 ;Travel
; 
; feature fill
G1 F24000 FL[E] = FillFrequency * DROP_SCALE * 60
PRIO_ON
G1 X-10.78257 Y4.2863 E509.21626 
; 
; feature travel
PRIO_OFF
G0 X-10.28605 Y4.2863 ;Travel
; 
; feature fill
PRIO_ON
G1 X-14.28352 Y-4.2863 E527.76296 
; 
; feature travel
PRIO_OFF
G0 X-13.787 Y-4.2863 ;Travel
; 
; feature fill
PRIO_ON
G1 X-9.78953 Y4.2863 E546.30966 
; 
; feature travel
PRIO_OFF
G0 X-9.29301 Y4.2863 ;Travel
; 
; feature fill
PRIO_ON
G1 X-13.29048 Y-4.2863 E564.85636 
; 
; feature travel
PRIO_OFF
G0 X-12.79396 Y-4.2863 ;Travel
; 
; feature fill
PRIO_ON
G1 X-8.79649 Y4.2863 E583.40307 
; 
; feature travel
PRIO_OFF
G0 X-8.29997 Y4.2863 ;Travel
; 
; feature fill
PRIO_ON
G1 X-12.29744 Y-4.2863 E601.94977 
; 
; feature travel
PRIO_OFF
G0 X-11.80092 Y-4.2863 ;Travel
; 
; feature fill
PRIO_ON
G1 X-7.80345 Y4.2863 E620.49647 
; 
; feature travel
PRIO_OFF
G0 X-7.30693 Y4.2863 ;Travel
; 
; feature fill
PRIO_ON
G1 X-11.30440 Y-4.2863 E639.04317 
; 
; feature travel
PRIO_OFF
G0 X-10.80788 Y-4.2863 ;Travel
; 
; feature fill
PRIO_ON
G1 X-6.81041 Y4.2863 E657.58987 
; 
; feature travel
PRIO_OFF
G0 X-6.31389 Y4.2863 ;Travel
; 
; feature fill
PRIO_ON
G1 X-10.31136 Y-4.2863 E676.13657 
; 
; feature travel
PRIO_OFF
G0 X-9.81484 Y-4.2863 ;Travel
; 
; feature fill
PRIO_ON
G1 X-5.81737 Y4.2863 E694.68327 
; 
; feature travel
PRIO_OFF
G0 X-5.32085 Y4.2863 ;Travel
; 
; feature fill
PRIO_ON
G1 X-9.31832 Y-4.2863 E713.22997 
; 
; feature travel
PRIO_OFF
G0 X-8.8218 Y-4.2863 ;Travel
; 
; feature fill
PRIO_ON
G1 X-4.82433 Y4.2863 E731.77667 
; 
; feature travel
PRIO_OFF
G0 X-4.32781 Y4.2863 ;Travel
; 
; feature fill
PRIO_ON
G1 X-8.32528 Y-4.2863 E750.32337 
; 
; feature travel
PRIO_OFF
G0 X-7.82876 Y-4.2863 ;Travel
; 
; feature fill
PRIO_ON
G1 X-3.83129 Y4.2863 E768.87008 
; 
; feature travel
PRIO_OFF
G0 X-3.33477 Y4.2863 ;Travel
; 
; feature fill
PRIO_ON
G1 X-7.33224 Y-4.2863 E787.41678 
; 
; feature travel
PRIO_OFF
G0 X-6.83572 Y-4.2863 ;Travel
; 
; feature fill
PRIO_ON
G1 X-2.83825 Y4.2863 E805.96348 
; 
; feature travel
PRIO_OFF
G0 X-2.34173 Y4.2863 ;Travel
; 
; feature fill
PRIO_ON
G1 X-6.33920 Y-4.2863 E824.51018 
; 
; feature travel
PRIO_OFF
G0 X-5.84268 Y-4.2863 ;Travel
; 
; feature fill
PRIO_ON
G1 X-1.84521 Y4.2863 E843.05688 
; 
; feature travel
PRIO_OFF
G0 X-1.34869 Y4.2863 ;Travel
; 
; feature fill
PRIO_ON
G1 X-5.34616 Y-4.2863 E861.60358 
; 
; feature travel
PRIO_OFF
G0 X-4.84964 Y-4.2863 ;Travel
; 
; feature fill
PRIO_ON
G1 X-0.85217 Y4.2863 E880.15028 
; 
; feature travel
PRIO_OFF
G0 X-0.35565 Y4.2863 ;Travel
; 
; feature fill
PRIO_ON
G1 X-4.35312 Y-4.2863 E898.69698 
; 
; feature travel
PRIO_OFF
G0 X-3.8566 Y-4.2863 ;Travel
; 
; feature fill
PRIO_ON
G1 X0.00000 Y3.9842 E916.59010 
G1 X0.14087 Y4.2863 E916.91689 ; => originalEInc=0.65358 adjustedEInc=0.32679 density=0.5
; 
; feature travel
PRIO_OFF
G0 X0.63739 Y4.2863 ;Travel
; 
; feature fill
PRIO_ON
G1 X0.00000 Y2.9194 E918.39551 ; => originalEInc=2.95724 adjustedEInc=1.47862 density=0.5
G1 X-3.36008 Y-4.2863 E933.98498 
; 
; feature travel
PRIO_OFF
G0 X-2.86356 Y-4.2863 ;Travel
; 
; feature fill
PRIO_ON
G1 X0.00000 Y1.8546 E947.27078 
G1 X1.13391 Y4.2863 E949.90123 ; => originalEInc=5.26090 adjustedEInc=2.63045 density=0.5
; 
; feature travel
PRIO_OFF
G0 X1.63043 Y4.2863 ;Travel
; 
; feature fill
PRIO_ON
G1 X0.00000 Y0.7898 E953.68351 ; => originalEInc=7.56456 adjustedEInc=3.78228 density=0.5
G1 X-2.36704 Y-4.2863 E964.66565 
; 
; feature travel
PRIO_OFF
G0 X-1.87052 Y-4.2863 ;Travel
; 
; feature fill
PRIO_ON
G1 X0.00000 Y-0.2750 E973.34413 
G1 X2.12695 Y4.2863 E978.27824 ; => originalEInc=9.86822 adjustedEInc=4.93411 density=0.5
; 
; feature travel
PRIO_OFF
G0 X2.62347 Y4.2863 ;Travel
; 
; feature fill
PRIO_ON
G1 X0.00000 Y-1.3397 E984.36418 ; => originalEInc=12.17188 adjustedEInc=6.08594 density=0.5
G1 X-1.37400 Y-4.2863 E990.73900 
; 
; feature travel
PRIO_OFF
G0 X-0.87748 Y-4.2863 ;Travel
; 
; feature fill
PRIO_ON
G1 X0.00000 Y-2.4045 E994.81017 
G1 X3.11999 Y4.2863 E1002.04793 ; => originalEInc=14.47554 adjustedEInc=7.23777 density=0.5
; 
; feature travel
PRIO_OFF
G0 X3.61651 Y4.2863 ;Travel
; 
; feature fill
PRIO_ON
G1 X0.00000 Y-3.4693 E1010.43753 ; => originalEInc=16.77919 adjustedEInc=8.38960 density=0.5
G1 X-0.38096 Y-4.2863 E1012.20504 
; 
; feature travel
PRIO_OFF
G0 X0.11556 Y-4.2863 ;Travel
; 
; feature fill
PRIO_ON
G1 X4.11303 Y4.2863 E1021.47839 ; => originalEInc=18.54670 adjustedEInc=9.27335 density=0.5
; 
; feature travel
PRIO_OFF
G0 X4.60955 Y4.2863 ;Travel
; 
; feature fill
PRIO_ON
G1 X0.61208 Y-4.2863 E1030.75174 ; => originalEInc=18.54670 adjustedEInc=9.27335 density=0.5
; 
; feature travel
PRIO_OFF
G0 X1.10861 Y-4.2863 ;Travel
; 
; feature fill
PRIO_ON
G1 X5.10607 Y4.2863 E1040.02509 ; => originalEInc=18.54671 adjustedEInc=9.27336 density=0.5
; 
; feature travel
PRIO_OFF
G0 X5.60259 Y4.2863 ;Travel
; 
; feature fill
PRIO_ON
G1 X1.60513 Y-4.2863 E1049.29844 ; => originalEInc=18.54670 adjustedEInc=9.27335 density=0.5
; 
; feature travel
PRIO_OFF
G0 X2.10165 Y-4.2863 ;Travel
; 
; feature fill
PRIO_ON
G1 X6.09911 Y4.2863 E1058.57179 ; => originalEInc=18.54670 adjustedEInc=9.27335 density=0.5
; 
; feature travel
PRIO_OFF
G0 X6.59563 Y4.2863 ;Travel
; 
; feature fill
PRIO_ON
G1 X2.59817 Y-4.2863 E1067.84514 ; => originalEInc=18.54670 adjustedEInc=9.27335 density=0.5
; 
; feature travel
PRIO_OFF
G0 X3.09469 Y-4.2863 ;Travel
; 
; feature fill
PRIO_ON
G1 X7.09215 Y4.2863 E1077.11849 ; => originalEInc=18.54670 adjustedEInc=9.27335 density=0.5
; 
; feature travel
PRIO_OFF
G0 X7.58867 Y4.2863 ;Travel
; 
; feature fill
PRIO_ON
G1 X3.59121 Y-4.2863 E1086.39184 ; => originalEInc=18.54670 adjustedEInc=9.27335 density=0.5
; 
; feature travel
PRIO_OFF
G0 X4.08773 Y-4.2863 ;Travel
; 
; feature fill
PRIO_ON
G1 X8.08519 Y4.2863 E1095.66519 ; => originalEInc=18.54670 adjustedEInc=9.27335 density=0.5
; 
; feature travel
PRIO_OFF
G0 X8.58171 Y4.2863 ;Travel
; 
; feature fill
PRIO_ON
G1 X4.58425 Y-4.2863 E1104.93854 ; => originalEInc=18.54670 adjustedEInc=9.27335 density=0.5
; 
; feature travel
PRIO_OFF
G0 X5.08077 Y-4.2863 ;Travel
; 
; feature fill
PRIO_ON
G1 X9.07823 Y4.2863 E1114.21189 ; => originalEInc=18.54670 adjustedEInc=9.27335 density=0.5
; 
; feature travel
PRIO_OFF
G0 X9.57475 Y4.2863 ;Travel
; 
; feature fill
PRIO_ON
G1 X5.57729 Y-4.2863 E1123.48525 ; => originalEInc=18.54671 adjustedEInc=9.27336 density=0.5
; 
; feature travel
PRIO_OFF
G0 X6.07381 Y-4.2863 ;Travel
; 
; feature fill
PRIO_ON
G1 X10.07127 Y4.2863 E1132.75860 ; => originalEInc=18.54670 adjustedEInc=9.27335 density=0.5
; 
; feature travel
PRIO_OFF
G0 X10.56779 Y4.2863 ;Travel
; 
; feature fill
PRIO_ON
G1 X6.57033 Y-4.2863 E1142.03195 ; => originalEInc=18.54670 adjustedEInc=9.27335 density=0.5
; 
; feature travel
PRIO_OFF
G0 X7.06685 Y-4.2863 ;Travel
; 
; feature fill
PRIO_ON
G1 X11.06431 Y4.2863 E1151.30530 ; => originalEInc=18.54670 adjustedEInc=9.27335 density=0.5
; 
; feature travel
PRIO_OFF
G0 X11.56083 Y4.2863 ;Travel
; 
; feature fill
PRIO_ON
G1 X7.56337 Y-4.2863 E1160.57865 ; => originalEInc=18.54670 adjustedEInc=9.27335 density=0.5
; 
; feature travel
PRIO_OFF
G0 X8.05989 Y-4.2863 ;Travel
; 
; feature fill
PRIO_ON
G1 X12.05735 Y4.2863 E1169.85200 ; => originalEInc=18.54670 adjustedEInc=9.27335 density=0.5
; 
; feature travel
PRIO_OFF
G0 X12.55387 Y4.2863 ;Travel
; 
; feature fill
PRIO_ON
G1 X8.55641 Y-4.2863 E1179.12535 ; => originalEInc=18.54670 adjustedEInc=9.27335 density=0.5
; 
; feature travel
PRIO_OFF
G0 X9.05293 Y-4.2863 ;Travel
; 
; feature fill
PRIO_ON
G1 X13.05040 Y4.2863 E1188.39870 ; => originalEInc=18.54670 adjustedEInc=9.27335 density=0.5
; 
; feature travel
PRIO_OFF
G0 X13.54692 Y4.2863 ;Travel
; 
; feature fill
PRIO_ON
G1 X9.54945 Y-4.2863 E1197.67205 ; => originalEInc=18.54670 adjustedEInc=9.27335 density=0.5
; 
; feature travel
PRIO_OFF
G0 X10.04597 Y-4.2863 ;Travel
; 
; feature fill
PRIO_ON
G1 X14.04344 Y4.2863 E1206.94540 ; => originalEInc=18.54670 adjustedEInc=9.27335 density=0.5
; 
; feature travel
PRIO_OFF
G0 X14.53996 Y4.2863 ;Travel
; 
; feature fill
PRIO_ON
G1 X10.54249 Y-4.2863 E1216.21875 ; => originalEInc=18.54671 adjustedEInc=9.27336 density=0.5
; 
; feature travel
PRIO_OFF
G0 X11.03901 Y-4.2863 ;Travel
; 
; feature fill
PRIO_ON
G1 X15.03648 Y4.2863 E1225.49210 ; => originalEInc=18.54670 adjustedEInc=9.27335 density=0.5
; 
; feature travel
PRIO_OFF
G0 X15.533 Y4.2863 ;Travel
; 
; feature fill
PRIO_ON
G1 X11.53553 Y-4.2863 E1234.76545 ; => originalEInc=18.54670 adjustedEInc=9.27335 density=0.5
; 
; feature travel
PRIO_OFF
G0 X12.03205 Y-4.2863 ;Travel
; 
; feature fill
PRIO_ON
G1 X16.02952 Y4.2863 E1244.03880 ; => originalEInc=18.54670 adjustedEInc=9.27335 density=0.5
; 
; feature travel
PRIO_OFF
G0 X16.52604 Y4.2863 ;Travel
; 
; feature fill
PRIO_ON
G1 X12.52857 Y-4.2863 E1253.31215 ; => originalEInc=18.54670 adjustedEInc=9.27335 density=0.5
; 
; feature travel
PRIO_OFF
G0 X13.02509 Y-4.2863 ;Travel
; 
; feature fill
PRIO_ON
G1 X17.02256 Y4.2863 E1262.58550 ; => originalEInc=18.54670 adjustedEInc=9.27335 density=0.5
; 
; feature travel
PRIO_OFF
G0 X17.51908 Y4.2863 ;Travel
; 
; feature fill
PRIO_ON
G1 X13.52161 Y-4.2863 E1271.85885 ; => originalEInc=18.54670 adjustedEInc=9.27335 density=0.5
; 
; feature travel
PRIO_OFF
G0 X14.01813 Y-4.2863 ;Travel
; 
; feature fill
PRIO_ON
G1 X18.01560 Y4.2863 E1281.13220 ; => originalEInc=18.54670 adjustedEInc=9.27335 density=0.5
; 
; feature travel
PRIO_OFF
G0 X18.51212 Y4.2863 ;Travel
; 
; feature fill
PRIO_ON
G1 X14.51465 Y-4.2863 E1290.40555 ; => originalEInc=18.54670 adjustedEInc=9.27335 density=0.5
; 
; feature travel
PRIO_OFF
G0 X15.01117 Y-4.2863 ;Travel
; 
; feature fill
PRIO_ON
G1 X19.00864 Y4.2863 E1299.67891 ; => originalEInc=18.54671 adjustedEInc=9.27336 density=0.5
; 
; feature travel
PRIO_OFF
G0 X19.50516 Y4.2863 ;Travel
; 
; feature fill
PRIO_ON
G1 X15.50769 Y-4.2863 E1308.95226 ; => originalEInc=18.54670 adjustedEInc=9.27335 density=0.5
; 
; feature travel
PRIO_OFF
G0 X16.00421 Y-4.2863 ;Travel
; 
; feature fill
PRIO_ON
G1 X20.00168 Y4.2863 E1318.22561 ; => originalEInc=18.54670 adjustedEInc=9.27335 density=0.5
; 
; feature travel
PRIO_OFF
G0 X20.4982 Y4.2863 ;Travel
; 
; feature fill
PRIO_ON
G1 X16.50073 Y-4.2863 E1327.49896 ; => originalEInc=18.54670 adjustedEInc=9.27335 density=0.5
; 
; feature travel
PRIO_OFF
G0 X16.99725 Y-4.2863 ;Travel
; 
; feature fill
PRIO_ON
G1 X20.99472 Y4.2863 E1336.77231 ; => originalEInc=18.54670 adjustedEInc=9.27335 density=0.5
; 
; feature travel
PRIO_OFF
G0 X21.49124 Y4.2863 ;Travel
; 
; feature fill
PRIO_ON
G1 X17.49377 Y-4.2863 E1346.04566 ; => originalEInc=18.54670 adjustedEInc=9.27335 density=0.5
; 
; feature travel
PRIO_OFF
G0 X17.99029 Y-4.2863 ;Travel
; 
; feature fill
PRIO_ON
G1 X21.98776 Y4.2863 E1355.31901 ; => originalEInc=18.54670 adjustedEInc=9.27335 density=0.5
; 
; feature travel
PRIO_OFF
G0 X22.48428 Y4.2863 ;Travel
; 
; feature fill
PRIO_ON
G1 X18.48681 Y-4.2863 E1364.59236 ; => originalEInc=18.54670 adjustedEInc=9.27335 density=0.5
; 
; feature travel
PRIO_OFF
G0 X18.98333 Y-4.2863 ;Travel
; 
; feature fill
PRIO_ON
G1 X22.98080 Y4.2863 E1373.86571 ; => originalEInc=18.54670 adjustedEInc=9.27335 density=0.5
; 
; feature travel
PRIO_OFF
G0 X23.47732 Y4.2863 ;Travel
; 
; feature fill
PRIO_ON
G1 X19.47985 Y-4.2863 E1383.13906 ; => originalEInc=18.54671 adjustedEInc=9.27336 density=0.5
; 
; feature travel
PRIO_OFF
G0 X19.97637 Y-4.2863 ;Travel
; 
; feature fill
PRIO_ON
G1 X23.97384 Y4.2863 E1392.41241 ; => originalEInc=18.54670 adjustedEInc=9.27335 density=0.5
; 
; feature travel
PRIO_OFF
G0 X24.47036 Y4.2863 ;Travel
; 
; feature fill
PRIO_ON
G1 X20.47289 Y-4.2863 E1401.68576 ; => originalEInc=18.54670 adjustedEInc=9.27335 density=0.5
; 
; feature travel
PRIO_OFF
G0 X20.96941 Y-4.2863 ;Travel
; 
; feature fill
PRIO_ON
G1 X24.49470 Y3.2737 E1409.86375 ; => originalEInc=16.35598 adjustedEInc=8.17799 density=0.5
; 
; feature travel
PRIO_OFF
G0 X24.4947 Y2.20892 ;Travel
; 
; feature fill
PRIO_ON
G1 X21.46593 Y-4.2863 E1416.88992 ; => originalEInc=14.05233 adjustedEInc=7.02616 density=0.5
; 
; feature travel
PRIO_OFF
G0 X21.96245 Y-4.2863 ;Travel
; 
; feature fill
PRIO_ON
G1 X24.49470 Y1.1441 E1422.76425 ; => originalEInc=11.74866 adjustedEInc=5.87433 density=0.5
; 
; feature travel
PRIO_OFF
G0 X24.4947 Y0.07934 ;Travel
; 
; feature fill
PRIO_ON
G1 X22.45897 Y-4.2863 E1427.48675 ; => originalEInc=9.44501 adjustedEInc=4.72250 density=0.5
; 
; feature travel
PRIO_OFF
G0 X22.95549 Y-4.2863 ;Travel
; 
; feature fill
PRIO_ON
G1 X24.49470 Y-0.9855 E1431.05743 ; => originalEInc=7.14135 adjustedEInc=3.57067 density=0.5
; 
; feature travel
PRIO_OFF
G0 X24.4947 Y-2.05024 ;Travel
; 
; feature fill
PRIO_ON
G1 X23.45201 Y-4.2863 E1433.47627 ; => originalEInc=4.83768 adjustedEInc=2.41884 density=0.5
; 
; feature travel
PRIO_OFF
G0 X23.94853 Y-4.2863 ;Travel
; 
; feature fill
PRIO_ON
G1 X24.49470 Y-3.1150 E1434.74328 ; => originalEInc=2.53403 adjustedEInc=1.26701 density=0.5
; 
; feature travel
PRIO_OFF
G0 X24.4947 Y-4.17982 ;Travel
; 
; feature fill
PRIO_ON
G1 X24.44505 Y-4.2863 E1434.85846 ; => originalEInc=0.23036 adjustedEInc=0.11518 density=0.5
; 
; feature travel
PRIO_OFF
G0 X-11.27909 Y4.2863 ;Travel
; 
; feature fill
PRIO_ON
G1 X-15.27656 Y-4.2863 E1453.40516 
; 
; feature travel
PRIO_OFF
G0 X-15.77308 Y-4.2863 ;Travel
; 
; feature fill
PRIO_ON
G1 X-11.77561 Y4.2863 E1471.95187 
; 
; feature travel
PRIO_OFF
G0 X-12.27213 Y4.2863 ;Travel
; 
; feature fill
PRIO_ON
G1 X-16.26960 Y-4.2863 E1490.49857 
; 
; feature travel
PRIO_OFF
G0 X-16.76612 Y-4.2863 ;Travel
; 
; feature fill
PRIO_ON
G1 X-12.76865 Y4.2863 E1509.04527 
; 
; feature travel
PRIO_OFF
G0 X-13.26517 Y4.2863 ;Travel
; 
; feature fill
PRIO_ON
G1 X-17.26264 Y-4.2863 E1527.59197 
; 
; feature travel
PRIO_OFF
G0 X-17.75916 Y-4.2863 ;Travel
; 
; feature fill
PRIO_ON
G1 X-13.76169 Y4.2863 E1546.13867 
; 
; feature travel
PRIO_OFF
G0 X-14.25821 Y4.2863 ;Travel
; 
; feature fill
PRIO_ON
G1 X-18.25568 Y-4.2863 E1564.68537 
; 
; feature travel
PRIO_OFF
G0 X-18.7522 Y-4.2863 ;Travel
; 
; feature fill
PRIO_ON
G1 X-14.75473 Y4.2863 E1583.23207 
; 
; feature travel
PRIO_OFF
G0 X-15.25125 Y4.2863 ;Travel
; 
; feature fill
PRIO_ON
G1 X-19.24872 Y-4.2863 E1601.77877 
; 
; feature travel
PRIO_OFF
G0 X-19.74524 Y-4.2863 ;Travel
; 
; feature fill
PRIO_ON
G1 X-15.74777 Y4.2863 E1620.32547 
; 
; feature travel
PRIO_OFF
G0 X-16.24429 Y4.2863 ;Travel
; 
; feature fill
PRIO_ON
G1 X-20.24176 Y-4.2863 E1638.87217 
; 
; feature travel
PRIO_OFF
G0 X-20.73828 Y-4.2863 ;Travel
; 
; feature fill
PRIO_ON
G1 X-16.74081 Y4.2863 E1657.41888 
; 
; feature travel
PRIO_OFF
G0 X-17.23733 Y4.2863 ;Travel
; 
; feature fill
PRIO_ON
G1 X-21.23480 Y-4.2863 E1675.96558 
; 
; feature travel
PRIO_OFF
G0 X-21.73132 Y-4.2863 ;Travel
; 
; feature fill
PRIO_ON
G1 X-17.73385 Y4.2863 E1694.51228 
; 
; feature travel
PRIO_OFF
G0 X-18.23037 Y4.2863 ;Travel
; 
; feature fill
PRIO_ON
G1 X-22.22784 Y-4.2863 E1713.05898 
; 
; feature travel
PRIO_OFF
G0 X-22.72436 Y-4.2863 ;Travel
; 
; feature fill
PRIO_ON
G1 X-18.72689 Y4.2863 E1731.60568 
; 
; feature travel
PRIO_OFF
G0 X-19.22341 Y4.2863 ;Travel
; 
; feature fill
PRIO_ON
G1 X-23.22088 Y-4.2863 E1750.15238 
; 
; feature travel
PRIO_OFF
G0 X-23.7174 Y-4.2863 ;Travel
; 
; feature fill
PRIO_ON
G1 X-19.71993 Y4.2863 E1768.69908 
; 
; feature travel
PRIO_OFF
G0 X-20.21645 Y4.2863 ;Travel
; 
; feature fill
PRIO_ON
G1 X-24.21392 Y-4.2863 E1787.24578 
; 
; feature travel
PRIO_OFF
G0 X-24.4947 Y-3.82365 ;Travel
; 
; feature fill
PRIO_ON
G1 X-20.71297 Y4.2863 E1804.79154 
; 
; feature travel
PRIO_OFF
G0 X-21.20949 Y4.2863 ;Travel
; 
; feature fill
PRIO_ON
G1 X-24.49470 Y-2.7589 E1820.03364 
; 
; feature travel
PRIO_OFF
G0 X-24.4947 Y-1.69407 ;Travel
; 
; feature fill
PRIO_ON
G1 X-21.70601 Y4.2863 E1832.97208 
; 
; feature travel
PRIO_OFF
G0 X-22.20253 Y4.2863 ;Travel
; 
; feature fill
PRIO_ON
G1 X-24.49470 Y-0.6293 E1843.60686 
; 
; feature travel
PRIO_OFF
G0 X-24.4947 Y0.43552 ;Travel
; 
; feature fill
PRIO_ON
G1 X-22.69905 Y4.2863 E1851.93798 
; 
; feature travel
PRIO_OFF
G0 X-23.19557 Y4.2863 ;Travel
; 
; feature fill
PRIO_ON
G1 X-24.49470 Y1.5003 E1857.96544 
; 
; feature travel
PRIO_OFF
G0 X-24.4947 Y2.5651 ;Travel
; 
; feature fill
PRIO_ON
G1 X-23.69209 Y4.2863 E1861.68924 
; 
; feature travel
PRIO_OFF
G0 X-24.18861 Y4.2863 ;Travel
; 
; feature fill
PRIO_ON
G1 X-24.49470 Y3.6299 E1863.10938 
PRIO_OFF
LayersCompleted=6
M1
; 
;========================
; layer 6, Z = 1.6800
; 
; reset extrusion
STOPRE
PRESETON(E, 0)
DO PRIO_PULSE_DISTANCE=DROP_SCALE
DO PRIO_ON_PATH_OFFSET=0.5*PRIO_PULSE_DISTANCE
;outer: (25.2604,-5.0521) (25.2604,5.0521) (-25.2604,5.0521) (-25.2604,-5.0521) (17.4604,-5.0521) holes: !
;overhangs:!
; 
; feature plane change
G0 X-24.4947 Y3.62989 Z1.68 ;Plane Change
; 
; feature travel
G0 X-17.19231 Y4.637 ;Travel
; 
; feature outer perimeter
G1 F24000 FL[E] = OuterPerimeterFrequency * DROP_SCALE * 60
PRIO_ON
G1 X-24.84530 Y4.6370 E18.00703 
G1 X-24.84530 Y-4.6370 E39.82821 
G1 X24.84530 Y-4.6370 E156.74727 
G1 X24.84530 Y4.6370 E178.56845 
G1 X-17.19231 Y4.6370 E277.48047 
; 
; feature travel
PRIO_OFF
G0 X-17.19231 Y4.286 ;Travel
; 
; feature inner perimeter
G1 F24000 FL[E] = InnerPerimeterFrequency * DROP_SCALE * 60
PRIO_ON
G1 X24.49430 Y4.2860 E354.67790 
G1 X24.49430 Y-4.2860 E370.55197 
G1 X-24.49430 Y-4.2860 E461.27160 
G1 X-24.49430 Y4.2860 E477.14567 
G1 X-17.19231 Y4.2860 E490.66788 
; 
; feature travel
PRIO_OFF
G0 X-17.21585 Y4.2863 ;Travel
; 
; feature fill
G1 F24000 FL[E] = FillFrequency * DROP_SCALE * 60
PRIO_ON
G1 X-14.09568 Y-4.2863 E508.55566 
; 
; feature travel
PRIO_OFF
G0 X-14.57456 Y-4.2863 ;Travel
; 
; feature fill
PRIO_ON
G1 X-17.69473 Y4.2863 E526.44345 
; 
; feature travel
PRIO_OFF
G0 X-18.17361 Y4.2863 ;Travel
; 
; feature fill
PRIO_ON
G1 X-15.05344 Y-4.2863 E544.33123 
; 
; feature travel
PRIO_OFF
G0 X-15.53232 Y-4.2863 ;Travel
; 
; feature fill
PRIO_ON
G1 X-18.65249 Y4.2863 E562.21902 
; 
; feature travel
PRIO_OFF
G0 X-19.13137 Y4.2863 ;Travel
; 
; feature fill
PRIO_ON
G1 X-16.01120 Y-4.2863 E580.10680 
; 
; feature travel
PRIO_OFF
G0 X-16.49008 Y-4.2863 ;Travel
; 
; feature fill
PRIO_ON
G1 X-19.61025 Y4.2863 E597.99459 
; 
; feature travel
PRIO_OFF
G0 X-20.08913 Y4.2863 ;Travel
; 
; feature fill
PRIO_ON
G1 X-16.96896 Y-4.2863 E615.88237 
; 
; feature travel
PRIO_OFF
G0 X-17.44784 Y-4.2863 ;Travel
; 
; feature fill
PRIO_ON
G1 X-20.56801 Y4.2863 E633.77016 
; 
; feature travel
PRIO_OFF
G0 X-21.04689 Y4.2863 ;Travel
; 
; feature fill
PRIO_ON
G1 X-17.92672 Y-4.2863 E651.65794 
; 
; feature travel
PRIO_OFF
G0 X-18.4056 Y-4.2863 ;Travel
; 
; feature fill
PRIO_ON
G1 X-21.52577 Y4.2863 E669.54573 
; 
; feature travel
PRIO_OFF
G0 X-22.00465 Y4.2863 ;Travel
; 
; feature fill
PRIO_ON
G1 X-18.88448 Y-4.2863 E687.43351 
; 
; feature travel
PRIO_OFF
G0 X-19.36336 Y-4.2863 ;Travel
; 
; feature fill
PRIO_ON
G1 X-22.48353 Y4.2863 E705.32130 
; 
; feature travel
PRIO_OFF
G0 X-22.96241 Y4.2863 ;Travel
; 
; feature fill
PRIO_ON
G1 X-19.84224 Y-4.2863 E723.20908 
; 
; feature travel
PRIO_OFF
G0 X-20.32112 Y-4.2863 ;Travel
; 
; feature fill
PRIO_ON
G1 X-23.44129 Y4.2863 E741.09687 
; 
; feature travel
PRIO_OFF
G0 X-23.92017 Y4.2863 ;Travel
; 
; feature fill
PRIO_ON
G1 X-20.80000 Y-4.2863 E758.98465 
; 
; feature travel
PRIO_OFF
G0 X-21.27888 Y-4.2863 ;Travel
; 
; feature fill
PRIO_ON
G1 X-24.39905 Y4.2863 E776.87244 
; 
; feature travel
PRIO_OFF
G0 X-24.4946 Y3.23312 ;Travel
; 
; feature fill
PRIO_ON
G1 X-21.75776 Y-4.2863 E792.56262 
; 
; feature travel
PRIO_OFF
G0 X-22.23664 Y-4.2863 ;Travel
; 
; feature fill
PRIO_ON
G1 X-24.49460 Y1.9174 E805.50742 
; 
; feature travel
PRIO_OFF
G0 X-24.4946 Y0.60169 ;Travel
; 
; feature fill
PRIO_ON
G1 X-22.71552 Y-4.2863 E815.70681 
; 
; feature travel
PRIO_OFF
G0 X-23.1944 Y-4.2863 ;Travel
; 
; feature fill
PRIO_ON
G1 X-24.49460 Y-0.7140 E823.16081 
; 
; feature travel
PRIO_OFF
G0 X-24.4946 Y-2.02973 ;Travel
; 
; feature fill
PRIO_ON
G1 X-23.67328 Y-4.2863 E827.86942 
; 
; feature travel
PRIO_OFF
G0 X-24.15216 Y-4.2863 ;Travel
; 
; feature fill
PRIO_ON
G1 X-24.49460 Y-3.3454 E829.83263 
; 
; feature travel
PRIO_OFF
G0 X-16.73697 Y4.2863 ;Travel
; 
; feature fill
PRIO_ON
G1 X-13.61680 Y-4.2863 E847.72042 
; 
; feature travel
PRIO_OFF
G0 X-13.13792 Y-4.2863 ;Travel
; 
; feature fill
PRIO_ON
G1 X-16.25809 Y4.2863 E865.60820 
; 
; feature travel
PRIO_OFF
G0 X-15.77921 Y4.2863 ;Travel
; 
; feature fill
PRIO_ON
G1 X-12.65904 Y-4.2863 E883.49599 
; 
; feature travel
PRIO_OFF
G0 X-12.18016 Y-4.2863 ;Travel
; 
; feature fill
PRIO_ON
G1 X-15.30033 Y4.2863 E901.38377 
; 
; feature travel
PRIO_OFF
G0 X-14.82145 Y4.2863 ;Travel
; 
; feature fill
PRIO_ON
G1 X-11.70128 Y-4.2863 E919.27156 
; 
; feature travel
PRIO_OFF
G0 X-11.2224 Y-4.2863 ;Travel
; 
; feature fill
PRIO_ON
G1 X-14.34257 Y4.2863 E937.15934 
; 
; feature travel
PRIO_OFF
G0 X-13.86369 Y4.2863 ;Travel
; 
; feature fill
PRIO_ON
G1 X-10.74352 Y-4.2863 E955.04713 
; 
; feature travel
PRIO_OFF
G0 X-10.26464 Y-4.2863 ;Travel
; 
; feature fill
PRIO_ON
G1 X-13.38481 Y4.2863 E972.93491 
; 
; feature travel
PRIO_OFF
G0 X-12.90593 Y4.2863 ;Travel
; 
; feature fill
PRIO_ON
G1 X-9.78576 Y-4.2863 E990.82270 
; 
; feature travel
PRIO_OFF
G0 X-9.30688 Y-4.2863 ;Travel
; 
; feature fill
PRIO_ON
G1 X-12.42705 Y4.2863 E1008.71048 
; 
; feature travel
PRIO_OFF
G0 X-11.94817 Y4.2863 ;Travel
; 
; feature fill
PRIO_ON
G1 X-8.82800 Y-4.2863 E1026.59827 
; 
; feature travel
PRIO_OFF
G0 X-8.34912 Y-4.2863 ;Travel
; 
; feature fill
PRIO_ON
G1 X-11.46929 Y4.2863 E1044.48605 
; 
; feature travel
PRIO_OFF
G0 X-10.99041 Y4.2863 ;Travel
; 
; feature fill
PRIO_ON
G1 X-7.87024 Y-4.2863 E1062.37384 
; 
; feature travel
PRIO_OFF
G0 X-7.39136 Y-4.2863 ;Travel
; 
; feature fill
PRIO_ON
G1 X-10.51153 Y4.2863 E1080.26162 
; 
; feature travel
PRIO_OFF
G0 X-10.03265 Y4.2863 ;Travel
; 
; feature fill
PRIO_ON
G1 X-6.91248 Y-4.2863 E1098.14941 
; 
; feature travel
PRIO_OFF
G0 X-6.4336 Y-4.2863 ;Travel
; 
; feature fill
PRIO_ON
G1 X-9.55377 Y4.2863 E1116.03719 
; 
; feature travel
PRIO_OFF
G0 X-9.07489 Y4.2863 ;Travel
; 
; feature fill
PRIO_ON
G1 X-5.95472 Y-4.2863 E1133.92498 
; 
; feature travel
PRIO_OFF
G0 X-5.47584 Y-4.2863 ;Travel
; 
; feature fill
PRIO_ON
G1 X-8.59601 Y4.2863 E1151.81276 
; 
; feature travel
PRIO_OFF
G0 X-8.11713 Y4.2863 ;Travel
; 
; feature fill
PRIO_ON
G1 X-4.99696 Y-4.2863 E1169.70055 
; 
; feature travel
PRIO_OFF
G0 X-4.51808 Y-4.2863 ;Travel
; 
; feature fill
PRIO_ON
G1 X-7.63825 Y4.2863 E1187.58833 
; 
; feature travel
PRIO_OFF
G0 X-7.15937 Y4.2863 ;Travel
; 
; feature fill
PRIO_ON
G1 X-4.03920 Y-4.2863 E1205.47612 
; 
; feature travel
PRIO_OFF
G0 X-3.56032 Y-4.2863 ;Travel
; 
; feature fill
PRIO_ON
G1 X-6.68049 Y4.2863 E1223.36390 
; 
; feature travel
PRIO_OFF
G0 X-6.20161 Y4.2863 ;Travel
; 
; feature fill
PRIO_ON
G1 X-3.08144 Y-4.2863 E1241.25169 
; 
; feature travel
PRIO_OFF
G0 X-2.60256 Y-4.2863 ;Travel
; 
; feature fill
PRIO_ON
G1 X-5.72273 Y4.2863 E1259.13947 
; 
; feature travel
PRIO_OFF
G0 X-5.24385 Y4.2863 ;Travel
; 
; feature fill
PRIO_ON
G1 X-2.12368 Y-4.2863 E1277.02726 
; 
; feature travel
PRIO_OFF
G0 X-1.6448 Y-4.2863 ;Travel
; 
; feature fill
PRIO_ON
G1 X-4.76497 Y4.2863 E1294.91504 
; 
; feature travel
PRIO_OFF
G0 X-4.28609 Y4.2863 ;Travel
; 
; feature fill
PRIO_ON
G1 X-1.16592 Y-4.2863 E1312.80283 
; 
; feature travel
PRIO_OFF
G0 X-0.68704 Y-4.2863 ;Travel
; 
; feature fill
PRIO_ON
G1 X-3.80721 Y4.2863 E1330.69061 
; 
; feature travel
PRIO_OFF
G0 X-3.32833 Y4.2863 ;Travel
; 
; feature fill
PRIO_ON
G1 X-0.20816 Y-4.2863 E1348.57840 
; 
; feature travel
PRIO_OFF
G0 X0.27072 Y-4.2863 ;Travel
; 
; feature fill
PRIO_ON
G1 X0.00000 Y-3.5425 E1349.35441 ; => originalEInc=1.55202 adjustedEInc=0.77601 density=0.5
G1 X-2.84945 Y4.2863 E1365.69017 
; 
; feature travel
PRIO_OFF
G0 X-2.37057 Y4.2863 ;Travel
; 
; feature fill
PRIO_ON
G1 X0.00000 Y-2.2268 E1379.28054 
G1 X0.74960 Y-4.2863 E1381.42925 ; => originalEInc=4.29742 adjustedEInc=2.14871 density=0.5
; 
; feature travel
PRIO_OFF
G0 X1.22848 Y-4.2863 ;Travel
; 
; feature fill
PRIO_ON
G1 X0.00000 Y-0.9111 E1384.95065 ; => originalEInc=7.04281 adjustedEInc=3.52141 density=0.5
G1 X-1.89169 Y4.2863 E1395.79562 
; 
; feature travel
PRIO_OFF
G0 X-1.41281 Y4.2863 ;Travel
; 
; feature fill
PRIO_ON
G1 X0.00000 Y0.4046 E1403.89519 
G1 X1.70736 Y-4.2863 E1408.78930 ; => originalEInc=9.78822 adjustedEInc=4.89411 density=0.5
; 
; feature travel
PRIO_OFF
G0 X2.18624 Y-4.2863 ;Travel
; 
; feature fill
PRIO_ON
G1 X0.00000 Y1.7203 E1415.05610 ; => originalEInc=12.53361 adjustedEInc=6.26680 density=0.5
G1 X-0.93393 Y4.2863 E1420.41028 
; 
; feature travel
PRIO_OFF
G0 X-0.45505 Y4.2863 ;Travel
; 
; feature fill
PRIO_ON
G1 X0.00000 Y3.0361 E1423.01906 
G1 X2.66512 Y-4.2863 E1430.65856 ; => originalEInc=15.27901 adjustedEInc=7.63950 density=0.5
; 
; feature travel
PRIO_OFF
G0 X3.144 Y-4.2863 ;Travel
; 
; feature fill
PRIO_ON
G1 X0.02383 Y4.2863 E1439.60245 ; => originalEInc=17.88778 adjustedEInc=8.94389 density=0.5
; 
; feature travel
PRIO_OFF
G0 X0.50271 Y4.2863 ;Travel
; 
; feature fill
PRIO_ON
G1 X3.62288 Y-4.2863 E1448.54635 ; => originalEInc=17.88779 adjustedEInc=8.94390 density=0.5
; 
; feature travel
PRIO_OFF
G0 X4.10176 Y-4.2863 ;Travel
; 
; feature fill
PRIO_ON
G1 X0.98159 Y4.2863 E1457.49024 ; => originalEInc=17.88778 adjustedEInc=8.94389 density=0.5
; 
; feature travel
PRIO_OFF
G0 X1.46047 Y4.2863 ;Travel
; 
; feature fill
PRIO_ON
G1 X4.58064 Y-4.2863 E1466.43413 ; => originalEInc=17.88779 adjustedEInc=8.94389 density=0.5
; 
; feature travel
PRIO_OFF
G0 X5.05952 Y-4.2863 ;Travel
; 
; feature fill
PRIO_ON
G1 X1.93935 Y4.2863 E1475.37802 ; => originalEInc=17.88778 adjustedEInc=8.94389 density=0.5
; 
; feature travel
PRIO_OFF
G0 X2.41823 Y4.2863 ;Travel
; 
; feature fill
PRIO_ON
G1 X5.53840 Y-4.2863 E1484.32192 ; => originalEInc=17.88779 adjustedEInc=8.94390 density=0.5
; 
; feature travel
PRIO_OFF
G0 X6.01728 Y-4.2863 ;Travel
; 
; feature fill
PRIO_ON
G1 X2.89711 Y4.2863 E1493.26581 ; => originalEInc=17.88778 adjustedEInc=8.94389 density=0.5
; 
; feature travel
PRIO_OFF
G0 X3.37599 Y4.2863 ;Travel
; 
; feature fill
PRIO_ON
G1 X6.49616 Y-4.2863 E1502.20970 ; => originalEInc=17.88779 adjustedEInc=8.94389 density=0.5
; 
; feature travel
PRIO_OFF
G0 X6.97504 Y-4.2863 ;Travel
; 
; feature fill
PRIO_ON
G1 X3.85487 Y4.2863 E1511.15359 ; => originalEInc=17.88778 adjustedEInc=8.94389 density=0.5
; 
; feature travel
PRIO_OFF
G0 X4.33375 Y4.2863 ;Travel
; 
; feature fill
PRIO_ON
G1 X7.45392 Y-4.2863 E1520.09749 ; => originalEInc=17.88779 adjustedEInc=8.94390 density=0.5
; 
; feature travel
PRIO_OFF
G0 X7.9328 Y-4.2863 ;Travel
; 
; feature fill
PRIO_ON
G1 X4.81263 Y4.2863 E1529.04138 ; => originalEInc=17.88778 adjustedEInc=8.94389 density=0.5
; 
; feature travel
PRIO_OFF
G0 X5.29151 Y4.2863 ;Travel
; 
; feature fill
PRIO_ON
G1 X8.41168 Y-4.2863 E1537.98527 ; => originalEInc=17.88779 adjustedEInc=8.94389 density=0.5
; 
; feature travel
PRIO_OFF
G0 X8.89056 Y-4.2863 ;Travel
; 
; feature fill
PRIO_ON
G1 X5.77039 Y4.2863 E1546.92916 ; => originalEInc=17.88778 adjustedEInc=8.94389 density=0.5
; 
; feature travel
PRIO_OFF
G0 X6.24927 Y4.2863 ;Travel
; 
; feature fill
PRIO_ON
G1 X9.36944 Y-4.2863 E1555.87306 ; => originalEInc=17.88779 adjustedEInc=8.94390 density=0.5
; 
; feature travel
PRIO_OFF
G0 X9.84832 Y-4.2863 ;Travel
; 
; feature fill
PRIO_ON
G1 X6.72815 Y4.2863 E1564.81695 ; => originalEInc=17.88778 adjustedEInc=8.94389 density=0.5
; 
; feature travel
PRIO_OFF
G0 X7.20703 Y4.2863 ;Travel
; 
; feature fill
PRIO_ON
G1 X10.32720 Y-4.2863 E1573.76084 ; => originalEInc=17.88779 adjustedEInc=8.94389 density=0.5
; 
; feature travel
PRIO_OFF
G0 X10.80608 Y-4.2863 ;Travel
; 
; feature fill
PRIO_ON
G1 X7.68591 Y4.2863 E1582.70473 ; => originalEInc=17.88778 adjustedEInc=8.94389 density=0.5
; 
; feature travel
PRIO_OFF
G0 X8.16479 Y4.2863 ;Travel
; 
; feature fill
PRIO_ON
G1 X11.28496 Y-4.2863 E1591.64863 ; => originalEInc=17.88779 adjustedEInc=8.94390 density=0.5
; 
; feature travel
PRIO_OFF
G0 X11.76384 Y-4.2863 ;Travel
; 
; feature fill
PRIO_ON
G1 X8.64367 Y4.2863 E1600.59252 ; => originalEInc=17.88778 adjustedEInc=8.94389 density=0.5
; 
; feature travel
PRIO_OFF
G0 X9.12255 Y4.2863 ;Travel
; 
; feature fill
PRIO_ON
G1 X12.24272 Y-4.2863 E1609.53641 ; => originalEInc=17.88779 adjustedEInc=8.94389 density=0.5
; 
; feature travel
PRIO_OFF
G0 X12.7216 Y-4.2863 ;Travel
; 
; feature fill
PRIO_ON
G1 X9.60143 Y4.2863 E1618.48030 ; => originalEInc=17.88778 adjustedEInc=8.94389 density=0.5
; 
; feature travel
PRIO_OFF
G0 X10.08031 Y4.2863 ;Travel
; 
; feature fill
PRIO_ON
G1 X13.20048 Y-4.2863 E1627.42420 ; => originalEInc=17.88779 adjustedEInc=8.94390 density=0.5
; 
; feature travel
PRIO_OFF
G0 X13.67936 Y-4.2863 ;Travel
; 
; feature fill
PRIO_ON
G1 X10.55919 Y4.2863 E1636.36809 ; => originalEInc=17.88778 adjustedEInc=8.94389 density=0.5
; 
; feature travel
PRIO_OFF
G0 X11.03807 Y4.2863 ;Travel
; 
; feature fill
PRIO_ON
G1 X14.15824 Y-4.2863 E1645.31198 ; => originalEInc=17.88779 adjustedEInc=8.94390 density=0.5
; 
; feature travel
PRIO_OFF
G0 X14.63712 Y-4.2863 ;Travel
; 
; feature fill
PRIO_ON
G1 X11.51695 Y4.2863 E1654.25587 ; => originalEInc=17.88778 adjustedEInc=8.94389 density=0.5
; 
; feature travel
PRIO_OFF
G0 X11.99583 Y4.2863 ;Travel
; 
; feature fill
PRIO_ON
G1 X15.11600 Y-4.2863 E1663.19977 ; => originalEInc=17.88779 adjustedEInc=8.94389 density=0.5
; 
; feature travel
PRIO_OFF
G0 X15.59488 Y-4.2863 ;Travel
; 
; feature fill
PRIO_ON
G1 X12.47471 Y4.2863 E1672.14366 ; => originalEInc=17.88778 adjustedEInc=8.94389 density=0.5
; 
; feature travel
PRIO_OFF
G0 X12.95359 Y4.2863 ;Travel
; 
; feature fill
PRIO_ON
G1 X16.07376 Y-4.2863 E1681.08755 ; => originalEInc=17.88779 adjustedEInc=8.94390 density=0.5
; 
; feature travel
PRIO_OFF
G0 X16.55264 Y-4.2863 ;Travel
; 
; feature fill
PRIO_ON
G1 X13.43247 Y4.2863 E1690.03144 ; => originalEInc=17.88778 adjustedEInc=8.94389 density=0.5
; 
